/* XPM */
static char *texture06[] = {
/* columns rows colors chars-per-pixel */
"128 128 155 2 ",
"   c #362B26",
".  c #392C27",
"X  c #372C28",
"o  c #3B2E29",
"O  c #3E312B",
"+  c #3F3330",
"@  c #402F2A",
"#  c #42342E",
"$  c #463730",
"%  c #483731",
"&  c #473831",
"*  c #4C3B34",
"=  c #4E3F38",
"-  c #513E36",
";  c #513F38",
":  c #4F4037",
">  c #4F4038",
",  c #524037",
"<  c #55423A",
"1  c #5A463D",
"2  c #5C483E",
"3  c #614A3F",
"4  c #524646",
"5  c #5E4A40",
"6  c #5E5154",
"7  c #634D42",
"8  c #694F44",
"9  c #624F49",
"0  c #665145",
"q  c #6A5246",
"w  c #675348",
"e  c #6D5649",
"r  c #6E584A",
"t  c #705447",
"y  c #725649",
"u  c #745B4D",
"i  c #7A5B4E",
"p  c #645554",
"a  c #6A5750",
"s  c #6B5952",
"d  c #645759",
"f  c #765E50",
"g  c #7D5F51",
"h  c #766152",
"j  c #7B6254",
"k  c #7C6355",
"l  c #7F6354",
"z  c #7A6454",
"x  c #7A6556",
"c  c #7C6555",
"v  c #7C6755",
"b  c #7F6654",
"n  c #7E6655",
"m  c #7D6556",
"M  c #7D6557",
"N  c #7C6456",
"B  c #7D6756",
"V  c #7D6657",
"C  c #7C6656",
"Z  c #7B6253",
"A  c #7F6856",
"S  c #7F6857",
"D  c #7E6857",
"F  c #7E6857",
"G  c #776358",
"H  c #7D665E",
"J  c #7D6758",
"K  c #7F6858",
"L  c #7F6959",
"P  c #7F6C60",
"I  c #806354",
"U  c #816354",
"Y  c #806355",
"T  c #816455",
"R  c #816555",
"E  c #826455",
"W  c #806754",
"Q  c #806755",
"!  c #826655",
"~  c #826556",
"^  c #836556",
"/  c #836756",
"(  c #826656",
")  c #826354",
"_  c #806857",
"`  c #816857",
"'  c #826857",
"]  c #866857",
"[  c #836956",
"{  c #826659",
"}  c #856758",
"|  c #886758",
" . c #806958",
".. c #836958",
"X. c #816A58",
"o. c #826A58",
"O. c #826A59",
"+. c #826B58",
"@. c #856A58",
"#. c #846A59",
"$. c #866A58",
"%. c #876B59",
"&. c #866B58",
"*. c #84695A",
"=. c #85695A",
"-. c #846B5A",
";. c #856B5A",
":. c #836D5B",
">. c #856A5D",
",. c #876C5C",
"<. c #866E5C",
"1. c #846B5A",
"2. c #896E5B",
"3. c #886E5C",
"4. c #8A6F5D",
"5. c #8B6F5E",
"6. c #8A6C5B",
"7. c #86705E",
"8. c #8E755F",
"9. c #8C705E",
"0. c #90715F",
"q. c #816862",
"w. c #846B65",
"e. c #846F60",
"r. c #867162",
"t. c #897361",
"y. c #8E7260",
"u. c #8F7560",
"i. c #8F7462",
"p. c #8D7765",
"a. c #8B7261",
"s. c #927360",
"d. c #917461",
"f. c #907562",
"g. c #907762",
"h. c #927362",
"j. c #927863",
"k. c #937865",
"l. c #967966",
"z. c #957965",
"x. c #9A7A66",
"c. c #957B69",
"v. c #9B7C69",
"b. c #A07D69",
"n. c #98806B",
"m. c #9F846C",
"M. c #9D816D",
"N. c #9E8772",
"B. c #A2826D",
"V. c #AA866F",
"C. c #A48571",
"Z. c #A88770",
"A. c #AB8A73",
"S. c #AD8E79",
"D. c #AF907B",
/* pixels */
"      X # $ $ & & $ # $ & # O o o o O # # # # # # $ O # # # O O O O O o o O # # , , * * * & & * : O o * , < 2 2 2 5 2 < * * * - * * - < < < 1 & # , , < 1 2 2 7 5 2 5 5 < < 2 2 2 = * , 1 w z u # X * 2 5 5 5 2 2 1 * $ O O # & & & * * * & & & $ & * * & O     ",
"      = a u u u u u u u u r r y r r r r q 0 O   9 w.q.{ ] ^ Z Z r 7 7 * # # - 7 j k C ^ ^ k k ' i.0 # y i Z U ^ ^ ^ ^ U Z Z Z Z Z Z Z k U ^ #.f * 2 u ' :.6.6.s.z.s.s.a.#.#.2.i.:.2 r C :.i.j.m.C O 5 C C C C j C C u u f < 1 r h z C D X.K D C C C :.t.p.z *   ",
"    + 6 d f u u u f f f f j j k f u u y r u &   5 H >.#.#.] ] #.s.j q - # % 1 q q y u u i j Z ' k.r # q y y y y y y y y u i i f f i i i i i g #.- * q U ^ #.#.#.:.#.#.#.#.^ U ^ D 5 y u h C X.6.j.& 1 u f f f u u r u u z r 5 r u h j D X.X.X.X.X.X.' X.:.n.h # ",
"O X 4 d d u u u u u u u u u u h u u y e r y *   5 r j ^ ' ' ^ j 2.x.i < # * 7 q q e y y y y y y f r # q y y t t t q t t y y u i i i i i i i f 6.< - u U ^ #.#.#.#.#.#.#.^ U U i j u u u u z X.#.9.* 2 u u u f f u u u r r u r r u u h z z C D D D D C j j :.c.u ",
"7 $ 6 d s u u u u u u u u u u u u u r r r y * O q j ^ ' ' ' k j f h.v.u # < q q q q r y y y y y u q # q y e q q q q q t t y y i i u y y u i i 6.1 , u Z ^ #.#.#.#.#.#.^ U U Z u u u u u u j ' #.9.* 1 u u u u f f u y r r r r r r u u h j j j j j j j j j j 7.N.",
"7.5 p p u u u u u u u u u u u u u y r r r r * & f k ' ' ' k j j i Z x.z.* 2 q q q q q q q r y y u 0 o 3 q q q q q q q q q t y y y y y y u i i #.3 1 i Z U ^ #.#.#.#.^ U U Z f u u u u u u u C :.7.* 1 u u y u f f u r r r r r r r y u u u j j j j h j f f u u 9.",
"X.u q r u u u u u u u u u u u u u r r r r u * * j Z C C C Z j i u u ^ 9.< 2 q q q q q q q q q q u 0 . < 8 8 8 8 8 8 q q q q t y y y t t y u i U q 3 i i U U ^ ^ ^ ^ U U Z i i u u u y y u u z #.X.* 1 u r r u f u r r q q q r r r r u u u u u u u u u u u u u u ",
"q q r r y u u u u u u u u u u u y r r r r f * , j j j j j j j i u u u f 8 q q q q q q q q q q q y q o 2 7 7 8 8 8 8 8 8 q q t t t t t t t y i i u q i i Z U U U U U U U g i i u u y y y y u j X.C * < u u y r u r r q q q q q r r r u u u u u u u y u u r r r r ",
"q q r r r r r y u u u u u u u u u r r r r j , , j j j j j j i u u u u y e q q q q q q q q q q q y 0 # 3 7 7 7 7 7 7 8 8 8 q q t t t t t t y u u u i i i g U U U U U U U i i u u u y y y y y u C ^ - * q q r y y r q q q q q q q r r u u u u u u u r y r r r r r ",
"q q q q q r r r r y u u u u u u u r r r r j * < j j j j f i i u u y y r e q q q q q 0 0 0 0 q q y 5 # 7 7 7 3 3 7 7 7 7 8 8 q q t t t t t t y y y u i i Z U U U U U U Z i u u u u y y y y y u j ' < # $ - r u r q 0 0 0 0 q q q r r u r u u u u u u u r r r r r ",
"q q q q q q r r r r u u u u u u u u y y y r # - j j j j i i u u y r r r q q q q q 0 0 0 0 q 0 0 r , & 7 3 7 7 7 7 3 7 7 8 8 8 q q t t t t t t t y u i i i Z U U U U U Z i u u y y y y y y y u u :.5 # # 7 r r q 0 0 0 0 0 q q q r r u u u u u u u u r r r r r r ",
"q q q q q q q r r r u u u u u u u u u u u 7 # * j j f i i i u u r r r r q q q q 0 0 0 0 0 q 8 0 q & & 2 2 3 3 3 3 7 7 7 7 8 8 8 q q t t t t t t y y u i i i U U Z Z U Z i u u y y y y y y y u u X.r # * r r r q 0 0 0 0 0 q q q r r r r u u u u u u r r r r r r ",
"q q q q q q q r r r u u u u u u u u u u u 7 # * f i i i i u u y r r e e q q q q 0 0 0 0 8 0 7 7 q # # < 2 3 2 3 3 7 7 7 7 8 8 q q q q t q q t t y y u i i j U U U U Z i i u u y y y y y y y u u D f # 5 r r q 0 0 0 0 0 0 q q q r r u u u u u u u u u r r r r r ",
"q q q q q q q r r y u u u u f j f u u u f 7 # * u u u u u u u r r q q q q q q q q 0 0 0 0 0 8 7 q # $ * 2 2 2 2 2 3 7 7 7 8 8 8 q q q q q q q q t y u i i i Z U U U Z i i u u y y y y y y y u u C K # 5 r q 0 0 0 0 0 0 0 q q q r r u u u u u u u u u r r r r r ",
"q q q q q q r r r y u u u j j j j i u u C 7 # * u u u u u u u y r q q q q q q q 0 8 0 q 8 0 8 7 q & $ < 2 2 2 2 2 3 7 3 7 7 8 8 8 q q q q q q q e t y i i i i Z Z U g i i u u y y y y y y y u u f j # 7 q 0 0 0 0 0 0 0 0 q q q r y u u u u u u u u u u r r r r ",
"q q q q q r r r r u u u f j j j j j f f #.q O & r y y y u u u y r q q q q q 0 0 0 0 0 0 0 0 7 7 r & & 1 1 2 2 2 2 3 7 3 7 7 7 8 8 q q q q 8 q q q q y u i i i g U U Z i i u u y y y y y y y u u u f $ 0 q 0 0 0 0 q q q q q q q q r u u u u u u u u u u y r r r ",
"q q q q r r r r y u u u j j j j j j j j 2.r O # q r r r r y y r r q q q q q 0 0 0 0 0 0 0 0 7 7 r * & 1 < 1 < 1 2 3 7 7 7 7 7 8 8 8 q q 8 8 8 8 q q t y u i i y f U U i i u u y y y y y y y y u f j $ 7 0 0 0 0 q q q q q q q q q r r u u u u u u u u u u r r r ",
"q q q q r r r y u u u u j j j j j j j j #.f O # q r q e r r r r q q q q q 0 0 q 0 0 7 7 7 0 7 7 r * * < < 1 5 & 1 2 3 7 7 7 7 8 8 8 q q q 8 8 8 q q q y y i r & e Z g i i u y y y y y y y y y y u j $ 5 0 0 0 0 q q q q q q q q q q r r r u u u u u u u u u r r ",
"q q q r r r u u u u u f j j j j j j j j C j # # q q q q q q e q q q 0 0 q 0 0 0 0 7 7 7 7 7 7 7 r - * 1 < < 7 < * 2 3 7 7 7 7 8 8 8 q q q 8 8 8 q q t y y i 7 o 2 i i i u y y r q q q r y y y y u r # 2 0 0 0 q q q q q q 0 q q q q r r r u u u u u u u u u r r ",
"q q q r r r y y u u u u j Z Z Z Z Z Z C ' j # & 0 q 0 0 q q q q 0 0 0 8 0 0 8 7 7 7 7 7 7 7 7 7 r < & < < < 1 , & 2 2 3 7 7 7 7 7 7 8 q q q q q q t y y y f - o < i i u u y y f 7 q q q y y y y u 0 O 1 0 0 0 q q q 0 0 0 0 0 0 q q q r r r r r r u u u r r r r ",
"7 7 7 7 0 0 0 0 0 0 0 0 q q r q q q q h :.7 o O & * * - - - - - * * * * & & & & $ $ & * * * & * < # o & * * & O o & & * * * * & * & * * * * - - - - , , - < # o & 7 7 7 7 7 7 0 * 3 7 7 7 7 8 8 8 5 o , 5 5 5 7 5 5 7 7 7 7 7 7 7 0 0 0 q q q 0 0 0 q q 0 0 0 7 ",
"& # O # , 2 < 1 2 2 1 , , * & # O O # < 2 1 2 2 2 2 2 7 7 7 0 0 q u f u f j C f u 7 O o & * * * * & * - - - * * & & % & & * - - < 2 7 7 7 0 < o o o o # - 1 2 1 1 1 < < < , - * - < , * # $ # $ 2 < * , , * * * * * * * * > > > * * * * & $ * * * : : * * & $ $ ",
"u h # o 0 C C D D D X.X.:.:.t.h * o 1 f U ^ ^ ^ ^ U U ^ ^ #.6.5.9.a.s.9.5.s.C.z.h.g.* o * , , < 2 2 2 2 2 5 7 7 7 7 7 7 8 q q y i U ^ 6.6.s.C.q O o o , u g g U ^ ^ ^ ^ U Z g i g g 6.s.q < # & f Z f i u u u u r r r r r r r r r f z K 5 o 0 u r r r r q q q r ",
"u a.0 O 0 r u u u u u h j J g.k.7 & u i g g g g g f i i i i g g g g Z U U U 6.s.s.6.$ o * * * * , 1 1 < < < < 1 1 2 2 7 7 7 8 q q q q t y u 9.B.u & O 2 y i i g Z Z Z Z g i i i y u i 0.#.5 # - i i u y y r e q q q q q q q q q q r u X.h o 5 h r r r r r r r r ",
"u C f & q r u u u u u h j C X.c.0 < u u i i i i i i i i i i g g g g g U U U ^ s.s.6.& o * * * * = 1 1 < < < < 1 1 2 5 7 7 7 7 8 q q q e t t y s.C.7 - q y y i i Z Z Z g i i i i y y i g 0.q # 3 i i u y y r q q q q q 0 0 0 q 0 q q y u D $ 5 h r r r r r r r r ",
"u f r < r r r u u u h j C C C z.u < u u u u i i i i i i i i i g g g g U U U ^ 5.s.s.1 o * * * * - < < < < < < < 1 2 5 7 7 7 8 8 q q q q t t t i 6.1 7 t t y u i g Z Z i i i i u y y y i ^ r # q i i i y y r q q 0 0 0 0 0 0 0 0 0 q y y j * 5 u r q q q q q q r ",
"r u 0 5 r r r u u u h h C C C :.J r u u u u i i i i i i i i i f g g g U U U U 6.s.5.q o * = = - , < < < 1 < < < 1 1 5 7 7 7 8 8 q q q q q t t y i 7 q t y y u i i g i i i i i y y y y u g u , y i i i u y y q q 0 0 0 0 0 0 0 0 0 q r y y * < r q w q w w q q r ",
"r u 7 5 r r r r u u u h j C z j h j j h u u i i i i i i i i i i g g Z U U U U ^ s.5.y O * , , , < , < < < < < < 1 1 2 7 7 7 8 q q q q q t t t t u y t t y y y i i i i i i i i y y y y y i y 2 i i i i i u y e q 0 0 0 0 0 0 0 0 0 0 q y r $ > w q 0 q q q q q r ",
"r u q 0 r r r u u u u h h j j j h j j j h i i i i i i u i i i i i g U U U U U U 6.6.u # * , , < , < < < < < < < 1 1 2 7 7 8 8 q q q q t t t t t t t t t y y y u i i i i i i u y y y y y y y y i i i i i i y r q 0 0 0 0 0 0 0 0 0 0 q q - o = q 0 0 0 w w q q r ",
"r u u r r r r u u u u f h j j j j j j j j f i i u i i i i i i i i g U U U U U U U ^ i # * , , , , , < < < < 1 1 1 1 2 7 7 8 8 8 q q q t t t t t t t t t y y u i i i i i i i i u u y y y y u i i i i i i i u r q q 0 0 0 0 0 0 0 0 0 r *     * 0 0 0 0 0 w q q r ",
"r u u r r y u u u u u u h j j j j j j j j f i i u i u u i i i i i g Z U U U U U ^ ^ g & & , , , , < < < < 1 1 1 1 1 2 7 7 8 q q q q q q t t t t t t t t t y u i i i i i i i i i i y u y u i i i i i i i i i y q q 0 0 0 0 0 0 0 0 0 K 0 1 O * 0 0 7 0 0 0 q q q ",
"r r u u u u u u u u u h j j j j j j j j j f u i i i i i i i i i i i g Z U U U U ^ ^ 7 & & , , , < < < < < 1 1 1 1 1 2 7 7 8 q q q q q q q q t t t t t t t y u i i i i i i i i i i u i i i i i i i i i i i i y r q 0 0 0 0 0 0 0 0 0 0 q :.> $ 7 7 7 0 0 0 0 w q ",
"r r u u u u u u u u u h j j j j j j j j j f u i i i i i i i i i i i i g Z U U U ^ f * O & , , , < < < < < 1 1 1 1 1 2 7 7 7 8 q q q 8 q q q q e t q q q t y u i i i i i i i i i i i i i i i i i i i i i i i y r q q 0 0 0 0 0 0 0 0 0 0 K < O 1 7 7 0 0 0 q w q ",
"r r u u u f u u u u h j j j j j j j j j j f u i i i i i u i i i i i i i g Z U U U U u # $ , , < < < < < 1 1 1 1 1 1 2 7 7 7 8 q q 8 8 8 q q q q q q q t t y u i i i i i i i i i i i i i i i i i i i i i i i u r e q q 0 0 0 0 0 0 0 0 0 z 1 o * 5 7 0 0 0 w q w ",
"r r u u u u f h h h h h h h j j j Z j h j u i i i u u y t y u u i i i i i g U U U Z u # $ - , < < < 1 < 1 1 1 1 1 1 5 7 7 7 8 8 8 8 8 8 8 q q q q q q t t y u i i i i i i i i i i i i i i i i i i i i i i i u y r q q q 0 0 0 0 0 0 0 0 h 1 # 7 7 7 7 0 0 w q w ",
"r r u u u h h j h j j h h h j j j j j h u u i u y y y y y y y y i i i i i i Z U U Z u # $ , , , < < < < 1 1 1 1 1 2 5 7 7 7 8 8 8 8 8 q 8 8 8 q q q e t y y i i i i i i i i i i i i i i i i i i i i i i i i i y r q q q 0 0 0 0 0 0 0 0 h 5 # 7 7 7 7 0 0 0 w w ",
"r r u u u h j j h h h j j h j j j j h j u u u y y y y y y y y y u i i i i i g U ^ Z y # & , , , < < < < 1 1 1 1 1 2 7 7 7 8 8 8 8 8 q q q q 8 q q q t y y y i i i i i i i i i i i i i i i i i i i i i i i i i u r q q q 0 0 0 0 0 0 0 0 u 5 $ 7 5 5 0 7 0 0 w q ",
"r r u u u h j h h h h j j h j h h h h f u i y y y q q e y y y y u i i i i i i i U Z 7 # * < , , < < < 1 1 1 1 1 1 2 5 7 7 8 8 8 8 8 q q q q q q q t y y y u i i i i i i i i i i i i i i i i i i i i i i i i i y r r q 0 0 0 0 0 0 0 0 0 r 2 $ 7 7 7 0 7 0 0 q q ",
"r u u u u h h h j j j j j h j h f f i u u u y y q q q q q q e r y u u y i i i i g ^ 1 O - , , , , < < 1 1 1 1 1 1 2 5 7 7 8 8 8 8 8 8 q q q q q q t t y y u i i i i i i i i i i i i i i i i i i i i i i i i i y r r q q 0 0 0 0 0 0 0 0 q < $ 7 7 7 7 7 0 0 q w ",
"r u u u h h h j j j j h h h h f u u u y y y y q q q 8 q q q q q e y q & 1 y i i g #.2 O - , , , < < < 1 1 1 1 1 1 2 7 7 7 8 8 8 7 8 8 q 7 * 7 q q t y y u i i i i i i i i i i i i i i i i i i i i i i i i i i y y r e q 0 0 0 0 0 0 0 0 q < $ 7 0 7 5 0 0 0 w w ",
"r r u u h j j j j h h h j h h i u y r q r y e q q 8 7 7 8 8 q q q e y 1 # & 2 y i #.7 o * < , , < 1 < 1 1 1 1 1 1 2 5 7 7 7 7 7 7 7 q q * o 2 q q q y u i i i i i i i i i i i i i i i i i i i i i i i i i i i u y r r q 0 0 0 0 0 0 0 0 q 1 # 5 7 7 7 0 0 0 0 q ",
"q r r u u f h f f h h h h f u u y e q q q q q q 7 7 7 7 7 7 8 8 8 q y y & # # $ < u 7 o * , < < < < < < 1 1 1 1 1 2 5 7 7 7 7 7 8 q q q $ o < q q e y u i i i i i i i u i i u u y y y y u u u u u y y y y y u y q q q 8 7 7 7 7 5 5 5 7 0 1 o < 7 5 7 7 5 7 7 8 ",
"& & & & * * * * * * * , 1 1 1 1 < < < , < - - - * * * - - - - - - - < - # o o o o # # o $ & & $ & & & & & & & & * * * * * * * * * - < < # o & < < < < < < < < - - * * * * * * * * & & * * * * - * & & $ # $ & & & $ $ # O O O # $ & & * * $ O O & $ & # O O O O ",
"q r r r r r r u u u u r q 0 w w 0 0 q q O # - * < 2 5 7 7 7 2 2 2 # o * < 5 5 1 < , * = , < , * # o o o & < 1 * o o * * $ , 1 1 1 2 2 5 7 7 7 7 7 1 # O 2 7 2 2 1 < % # # 1 q y y u y y q q r u u u u 2 & r u u u r u r & o   $ 5 7 q r y y y r r r q q q < o o ",
"u j z z z C C D X.:.:.D j h f u u u j X.# - 2 2 7 0 0 0 q 0 0 q j f # - 2 u f u u u r r r r r u 7 # o O 7 q u C * o 5 f < q u u u u u f f u u f f >.1 # q u f 6.Z Z u q 3 7 f g Z Z Z g u y u g U ^ 6.u $ q u u y y u #.u & X $ q y u u u u u u i f j j 9.u # # ",
"u f h h h h h h h j h h f u u u u r u C $ - 2 1 1 7 7 7 7 7 7 7 8 :.u * < r r r r r q q q q 0 r r , o # 8 q q f f # * h q q r r u u u u u u u u u :.1 # 0 r r Z U Z 6.5.y 7 u u u u u y t t t i Z ^ 5.h # 5 q r r r e y #.q # $ q u y y y y y y y y u u X.C $ & ",
"u f h h h h h h h h h f u u u u y r u C # - 1 1 1 2 2 5 7 7 7 7 7 q :.f 8 r r r r q 0 q q q q q y 7 & * q q q q j 1 & q r r r r u u u u u f f f f :., # q r r u g g g U u 8 u u i i u t t t t u Z ^ 6.:.$ 7 r r r r r q u #.2 * r r r y y y y y y y u u C :.* , ",
"u f h h h h h f h h h u u u u y r r u :.& * 2 1 1 1 1 1 1 5 7 7 7 0 r :.h r r r r q q q q q q q r r 2 7 q q q q r q * 7 q r r r r u u u u u f f f :.* # q r r u g g g Z u e u u u u y t t t t u g ^ 2.c.* 2 r r r r r q q u r 7 e q r y y y y y y y u u f t.7 0 ",
"f h h h h h h f h h f u u u u r r r r :.* * 1 1 1 1 1 1 1 2 7 7 7 0 0 q r r r r r q q q q q q q q q q q q q q q q q 1 0 q q r r r r r r u u f f f :.* # q r r u g g g g u u u u t t t t t t y u f ^ 6.k.= 2 r r r r q q q q q q q q q y y y y y u y u u u C j u ",
"h h h h h h h h f f f u u u u r r r r J * & 2 1 2 1 1 1 1 2 7 7 0 0 q q q r r r q q q q q 0 q q q q q q q q q q q q 0 q q q q r r r r r y u f f f X.< # q r r i g g g g u u i y t t t t t y u u u Z ^ a.> 2 y r r r q q q q q q q q e y y y y y y y u u u u u u ",
"h h h h h h h h f f u u u u u r r r r j * & 1 1 1 1 1 1 1 5 7 7 0 0 q q q q r r q q 0 q 0 q q q q q q q q 0 q 0 0 0 0 0 0 q q q r r r r u u f f f { 5 # q r y f g g g g i u u y t t t t t t y y u g ^ :.= 2 u u r r q q q q q q q q r r y y y y u u u u u u u f ",
"h h h h h h h f f u u u u u u r r r r f * & 1 1 1 1 1 1 2 7 7 0 0 0 q q q q q q q q q q 0 q q q 0 0 q q 0 0 0 0 0 0 0 0 0 0 q q r r r r u u f f f C w # 0 y u g g g g g i u u y t t t t t t t t u g Z #.* 7 u u y r q q q q q q q q r r y y y y y u u u u u u h ",
"h h h h f f f f f f u u u u u u u r r u * * 2 1 2 1 1 5 7 7 0 0 0 0 q q q 0 q q q q 0 q q 0 0 0 0 0 0 0 0 0 0 0 0 0 0 0 0 q q r r r r y u u f f f k f O 7 u u f g f i u u u y t t t t t t t t t y i g :., 7 u u y r q q q q q q q e r y y u u y y u u u u h h h ",
"h h f f f f f u u u u u u u u u u r r u * * 1 1 1 1 5 7 7 8 0 0 0 q q q q 0 q q q 0 0 0 0 0 0 0 0 0 0 0 0 0 0 0 0 0 0 0 q q r r r r r u u u f f f j h # q u u u u u u u u y t t t t t t t t t t t y u 6.= 7 u u u r q q q q q q q e r y y u u u u u u u h h h h ",
"h h f f u u u u u u u u u u u u u u r u * * 1 1 1 5 7 0 0 0 0 0 0 q q q q 0 q 0 q 0 0 0 0 0 0 0 0 0 0 0 0 0 0 0 0 0 q q q q r r r r u u u u u f f j j $ q u u i u u i u u y t t t t t t t t t t t y u #.* 8 u u y r q q q q q q q r 7 7 y u u u u u u h h h h h ",
"h h f u u u u u u u u u u u u u u u r f * # < 2 7 7 7 0 0 0 0 0 0 q q q q 0 q q q 0 0 0 0 0 0 0 0 0 0 0 0 0 0 0 q q q q q r r r r r u u u u u f f f j $ q i u u u u i u u y t t t r e t t t t t t y i q # 0 u u y r q r r q q q q r , , y u u u u u h h h h h h ",
"f u u u u u u u u u u u u u u u u u r f * # & * 2 0 0 0 0 0 0 q q q q q 0 q q q q 0 0 0 0 0 0 0 0 0 0 0 0 0 0 q q q q r r r r r r u u u u u u f f f h # 7 i u u i u u u y t t t t t t t t t t t t e u j * 7 u y r r r e e e e q r u 1 & y u u u u u h h h h h h ",
"u u u u u u u u u u u u u u u u u u r f & * 1 $ & 7 0 0 0 0 q q 0 q q q q q 0 0 q q 0 0 0 0 0 0 0 0 0 0 0 0 q q q q r r r r r r r u u u u u f f f f f # 7 y y y u u u y t t r r r e t t t t t t e r q Z 1 2 r r r r e r r e e r e j 5 * r y u u u u h h h h h h ",
"u u u u u u u u u u u u u u u u u r r f & * 5 2 , 7 0 0 0 q q q q q q q q q q q q q 0 0 0 0 0 0 0 0 0 0 0 0 q q q r r r r r r r u u u u u f f f f f f # 7 t t t y y y t e r r r e t t t t t t r r r q j 2 1 r r r e r r r e e r r k 0 < r y y y u u h h h h h f ",
"u u u y r u u u u u u u u u u u y r r h & * 1 0 0 0 0 0 q q q q q q q q q q q q q q q 0 0 0 0 0 0 0 0 0 0 0 q q r r r r r r r r u u u u f f f f f f f # 3 t t t t t t t r r r r r e t t t t t r r r e j 2 1 q r r r r r r r r e e J q 1 q r y y u u u h h h f u ",
"u u r r r y u r r r y r r y u u u r r h & * 7 0 0 0 0 q q q q q q q q q q q q q 0 0 0 0 0 0 0 0 0 0 0 0 0 0 q q r r r r r r y u u u u u f f f f u u f # - q t t t t t r r r e e r e e t t t r r r r r j 1 1 0 q r r r r e e r r r { s 2 0 q y y y u u u u u u u ",
"u r r r r r r r r r r r r r r u u r r h & < r 0 0 0 0 q q q q q q q q q q q q q q 0 q 0 0 0 0 0 0 0 0 0 0 0 q q r r r r r r r u u u u u f f f f u u f # & < q t t r y y r r q e r t r r t r r r r r r r & 1 q 0 r r r r r r r r r J r 1 0 0 r y y y u y y u u y ",
"r r q q q q q r r r r r r r r r r r r h & 2 q 0 0 0 0 q q q q q q q q q q q q q q q q q 0 0 0 0 0 0 0 0 0 0 q q r r r r r r y r r u u u u f f f u f f O $ * 2 r r e q e q q r e r r e e e e e r e e e f * * 8 0 q q q q q q q q 0 u 5 , 0 0 0 q r r r y y y y y ",
"* * * * * * * * * * , < < 1 2 2 1 1 < 1 O # < 1 < 1 1 1 1 2 2 1 1 1 1 1 1 1 1 1 1 1 1 1 1 1 1 1 1 1 1 1 < < 1 1 < 1 1 < < 1 1 1 1 1 1 2 2 1 2 2 2 2 < O O # # * - - * * - - - * * * * * * * & * * * * - $ # < - & & & & & & & % $ # O # & & & & $ & & & * * * * ",
"< < , , * * * * * * , < 1 * o X $ > * * & * * * * & O o o O o o O $ & & & & & & & & * & & * * & & & * * * * o $ < 5 0 1 & # o & G e.N K :.u - * 2 5 0 u r q q q q e y y y u f , o o # 2 3 2 2 3 7 7 8 q e r y u & o - < 1 1 1 5 2 5 5 5 5 5 7 0 w & o o o o o & ",
"0 q r q 0 0 q q q r u j t.C & o 1 u f f h f f h K t.L 5 # O O O 1 h z z z z z z z j j h h h u u u u f f h h # 7 t.p.c.c.u 5 O * #.y.6.6.c.v.f - - - 7 ^ Z Z Z g g i u u y y i f # o * q q q q q y y u u u u u j 7 - y q u u u u u u u u u u i f 9.j O o o O # 5 ",
"7 7 0 0 7 8 7 0 0 q 0 q X.:.7 O 2 r r r u u u u u u X.K , O O O 0 z C D K K K C C j j u f u u u u u u u u K * 2 u u f z.#.y & * i Z U U 5.M.g.2 - < u U g g g g i u y y y y y ^ < o * q q q q q q q q y y y y u y y u 7 7 y y y y y y y y y y y u :.5 o O # , 7 ",
"7 7 8 7 8 8 7 7 8 q q q f :.0 # 2 r r r r y u u u u u C u & O & r f h j C C C z j j u u u u u u u u u u u t., 2 u u u X.k.Z 7 q Z U ^ ^ a.D.v.r - q U g g g g g i u y y y y t ^ ^ - * q q q q q q q q q q e y u i i u y 7 y u u y y y y y y y y y j f o # , 0 0 ",
"5 7 7 7 7 7 8 7 7 0 q q r :.0 $ 7 q r r r r u r u u u f X.r : 1 u u u f j j j j u u u u u u u u u u u u u e.1 5 u u u u #.6.g.g Z U ^ ^ #.S.C.q < g Z g g i i i i i y y y y y U x.7 * q q q q q q q q q q q y u u u u u u u y u y y y y y y y y y i u o # 1 0 0 ",
"5 5 5 5 7 7 7 7 7 8 q q r :.q $ 7 q q r r r r r r r u u j K 5 5 u u u u u h f h u u u u u u u u u u u u u :.5 7 u u u u i 6.a.g Z U ^ ^ ^ x.S.7 8 Z g g i i i i i i y y y y y i l.q , t y y y q q q q q q q y u u u u u u u u y y y y y y y y y y u q o O * 7 0 ",
"5 5 5 5 5 5 5 7 7 0 0 q q X.r & 0 q q q r r r r r r u u u z u 0 u u u u u u u u u u u u f u u u u u u u u K 5 7 u u u u i g g g U ^ ^ #.^ 6.C.y i g g g i i i i i y y y y y y y i 7 3 y y y y q q q q q q q y y u u i u i i u u y y y y y y y y y u q o # # 1 7 ",
"5 5 5 5 5 5 5 5 7 8 0 0 q K u * 0 q q q r r r r r r r u u u u u u u u 5 0 u u u u u u u u u u u u f h j h J 2 5 u u u u g g g Z U ^ ] ^ ^ } 5.U g g g i i i i i y y y y y y y y y q q y y y y y q q q q q y y y y u u u u u u u u y y y y y y y y i 0 o # & 1 5 ",
"5 5 5 5 5 5 5 5 7 7 8 0 q f u < q q q q r r r r r r r r y u u u u u 0 & 8 u u u u u u u u u u f h h j j h X.1 2 u u u i g g g Z U ^ ^ ^ ^ ^ U Z g g i i i i i i u y y y y u i y y y y y y y y y y y y y y y y y y y u u i u u u u y y y y y y y y i q o # 1 5 5 ",
"5 5 5 5 5 5 5 5 5 7 8 0 0 r u 7 q q q q q r r r r r r r r u u u u q * & 0 u u u u u u u u u h j j h j j h :., 2 u u u f g Z Z U U ^ ^ ] ^ U Z g g g i i i i i i i y u y i i i i i u y y u y y y y y y y y y y y y y y y u i u u u u u y y y y y y f w o - 5 5 5 ",
"5 5 5 5 5 5 5 5 5 5 7 7 0 q q q q q q q q q r r r r r r r r u u f 5 & & 0 u u u u u u u h j j h j j j j j :., 1 u u u g g Z Z U U ^ ^ ^ ^ U g g g i i i i i i i i i i u i i i i i i i i i i u y y y y y y y y y u y y y y u u u i u u y y y y y y j < O 1 5 5 5 ",
"5 5 5 5 5 5 5 5 5 5 5 7 7 8 0 q q q q q q q r r r r r r r r u u h > & & q u u u u u u f h j h h j j j h h r., * r u f g g g Z U U ^ ] ^ U Z g g i i i i i i i i i i i u i i i i i i i i i i i i y y y i i y y y u y y y y y y u u u u y y y y y y r $ O , 5 5 5 ",
"5 5 5 5 5 5 5 5 5 5 5 5 7 7 0 0 q q q q q q q q q r r r r r r u 7.: $ , q u u u u u f h j j h h h h h j h t.5 o , r g g g g Z U U U ^ ^ U g g g i i i i i i i i i i u y i i i i i i i i i i i i i i i i u y y y i y u y y y y u u u u y y y y u C p.f o # * 5 5 ",
"5 5 5 5 5 5 5 5 5 5 5 5 5 7 7 0 q q q q q q q q q r r r r r r u k.5 $ 5 r r u u u u f j h j h j h h j j h r.1 # * r f g g g Z U U U U U Z g g g i i i i i i u u y u y y y i i i i i i i i i i i i i i i i u i i i i i i i u y y u u u y y y y u j ^ h o 2 0 5 5 ",
"5 5 5 5 5 5 5 5 5 5 5 5 5 7 7 0 q q q q q q q q q r r r r r r r k.f * w r r u u u u u f h h j j h h h h j e.* # 2 u i g g g g U U U U Z g g g i i i i i i i y y y y y t y y i i i i i i i i i u y u i i i i i i i i i i i i u y u y y y y y y y y f f o 2 7 5 5 ",
"5 5 5 5 5 5 5 5 5 5 5 5 5 7 8 0 q q q q q q q q q r r r r r r q t.N < r r r u u u u u u u u j j h h j h j r., # 7 u u g g g g Z Z U U Z g g i i i i i i y y y y y t t t t y y u u y y u i i i y y y u i i i i i i i i i i i u y u y y y y y y y y f u o - 5 5 5 ",
"5 5 5 5 5 5 5 5 5 5 5 5 5 7 8 0 q q q q q q q q r r r r r r r q K N 7 r r r u u u u u u u f h h j h h j h t.5 # 7 u u u g g g g g Z Z U g g g i i i i u y y y y y t t t q e t y y y y y u u u y y y y u i i i i i i i i i i i y y y y y y y y y y u q o , 5 5 5 ",
"5 5 5 5 5 5 5 5 5 5 5 5 5 7 7 8 0 q q q q q q q r r r r r r r r u h q r r r u u u u u f f f j h j j j f f r.2 & 0 r u u u f g g g g g g g g i i i i y y y y t t t t t t q q t t t t t y y y y y y y y y y u i i i i i i i i i y y y y y y y y y r r < o , 5 5 5 ",
"5 5 5 5 5 5 5 5 5 5 5 5 7 8 8 7 0 q q q q q q r r r r r r r r r r r r r r r u u u u f h h f f f u f u u u :., & q r r u u u f g g g g g g i i i i y y y y y t t t t t t q q q t t t t t q q q t y t t t y y u i i i i i i i i y u y y y y y y y r y < o , 5 5 5 ",
"5 7 5 5 5 5 5 5 5 5 5 7 0 7 7 8 0 q q q q q r r r r r r r r r r r r r r r r u u u u u u u u u u u u u u u L * & q r r r r u u g g g g g g i i i i y y t t t t t t e e q q q q t t t e q q q q e t t t t t t y u i i i i i i i y u u u y u y y y r C 7 o * 5 5 5 ",
"1 1 1 1 1 1 1 1 1 1 1 2 2 1 2 1 1 1 2 2 2 2 2 1 1 1 2 2 2 5 5 7 7 7 7 0 0 0 0 0 q q q r r r r r r q r y y N * # 7 0 0 0 0 0 q r r y u y y y y y q q q q 8 8 8 7 7 7 7 7 7 7 7 7 7 7 7 7 7 7 7 7 7 7 7 7 7 7 7 8 q q q y y y q 8 7 7 7 7 8 q q 0 7 u 0 o $ 1 1 1 ",
"# # # # # # $ $ # O O O o # * * * > , = * * * * * * & o o & * * * * * * * * * * * * * * & $ & $ & & & * - , & # & & & & * - * * & & * $ # # # # # # # # # # # # # # # # # < < < < < 1 2 1 < - # # # * , * & & & * - , 1 , # # 1 2 1 * # # # & , , * * & # & & * ",
"q q q r r q r r q q 5 O o , q q q u u u h h h j z C f & $ u h h h j h h j z D D D C z j 5 # # & 5 7 1 & q j j C C k j k ^ ^ ^ C j k k f f f r r q q r r r r y y r r r < # u j j j j ^ #.^ Z ^ q O & f J { k Z k { 6.6.v.v.* $ X.v.M.k.' y < u ' ' ' ^ Z i u i i ",
"u r r r r q q q q y J * O , 0 q q q r r u u u u j j X.< , u u u u u u h h J X.:.:.:.:.:.u # * q C :.q & 7 y y u i f Z U ^ U U ^ ^ ^ #.6.6.2.6.6.#.^ ^ ^ ^ ^ ^ 6.2.2.s.j # y j j Z j j j f i f #.2 1 u i g Z U ^ ^ } 6.5.v.7 & U 6.2.5.5.6.i Z U ^ U U U Z Z f i ",
"y r r r q q q q q q h , # , 0 q q q r r u u u f j j :.7 7 u u u u u u h h J J J J X.X.X.j , q u h t.X.* 7 r e r u u u g g g g g Z U U U ^ ^ ^ U U U U U U U U ^ 6.6.5.J # q i j j j j j j i i Z y 7 u i f g Z U U ^ #.6.s.2 * ^ 2.2.y < 2 i g Z U U U Z g g i i ",
"y r r r q q q q q q r 1 # * 0 q q q r y u u u h j j 9.u 7 u u u u u f h h C C J z j j j f q u u f z X.* 7 r e r r u u u g g g g g g Z U U U U U U U U U U U U ^ 6.6.5.k # q u i f i i j j i i i u 8 u i i g g Z U ^ } 6.s.2 < #.6.6.Z & & q g g Z U U Z g i i i ",
"u r r r q q q q q q u 0 # * 0 q q q r y u u u j j j C j 0 u u u u u u h h j J C h h h u u u y u f j C * 7 r r r r y u u f g g g g g g U g g Z U U Z Z U U U U U ^ 6.6.j # q u u i i i i i i i u u y u i i i g g U ^ } 6.s.q 1 6.6.6.v.C & * u g g Z Z Z g i i i ",
"u y r q q q q q q q K z # * 0 0 q q r r u u u j j j h u u u u u u u u f h h h h h h u u y y y y u j u $ 2 r r r r y u u g g g g g g g g g g g g g g g g g g g g U 6.6.u $ q y y u u u u u u u u u u u i i i i f U ^ ^ #.h.r 7 6.6.6.0.Z.u & 8 Z g g g g g i i i ",
"u y q q q q q q 0 0 h 7., , 0 0 q q r r u u u j j j j u u u u u u u u u f h h h h f u u y y y y u h 7 # < e e r r y u u g g g g g g g g g g U g g g g g g g g g g ^ ^ q # 8 r r y y y y y y u u u u u i i u i g U ^ } } h.k u 6.6.#.} x.B.7 1 g g g g g g i i i ",
"u r q q q 0 0 0 0 0 q X.5 2 0 0 q q r r u u u j Z j h u u u u u u u u u u h h h h u u u y y y y u z 7 # * 7 e r r y u i g g g g g g U g g g U g g g g g g i i i i g f - # 7 q r r r r r r y y u u u u i i i i g U ^ } 6.s.#.U 6.6.#.} } x.s.2 i g g g g g i i i ",
"y r q q q 0 0 0 0 0 0 r 0 7 0 0 q q q y u u u f j f u u u u u u u u u u u f h h h u u u y y y y u j * # # - q r r y u f g g g g g g g g g U U Z g g g g i i i i i i e O # 7 q q q q r r r y y u u u u u i f g Z U ^ } 6.5.5.6.6.6.#.} } #.5.y i g g g g g i i u ",
"r r q q 0 0 0 7 7 7 0 0 0 0 0 0 q q q u u u u u u u u u u u u u u u u u u u h h f u u u u y y y y i 7 # # * q e y u u f g g g g g g g g U U U U g g g g i i i i i u r # # 7 q q q q q r r y y y u u u u i g g g U U ^ } 6.5.6.6.6.} } } ^ U Z g g g g g i i i u ",
"r q q q 0 0 0 7 7 7 7 0 0 0 0 0 q q r u u u u u u u f u u u u u u u u u u u u f u u u u u y y y y j u # & 7 r r y u u u g g g g g g U U U U U g g g g i i i i u u u f * # 7 8 q q q q r r r r y y u u u i g g g g Z U ^ } 6.6.6.6.} ^ ^ U Z g i i i i i i i u y ",
"r q q 0 0 0 0 7 7 7 7 7 0 0 0 0 q q r u u u u u u u u u u u u u u u u f u u u u u u u u y y y y y i f # < r r r y u u u g g g g g g U U U U U U U g g i i i u u f X.u , O 7 8 8 8 q q q q r r r y y y u i i i i g g U ^ ^ ^ ^ ^ ^ ^ U U U g i i i i i i i u y r ",
"q q q 0 8 7 8 7 7 7 7 7 0 0 0 q q r u u u u u u f u u u u u u u u u r h j j f h h u u u u u y y y i u # 1 r r e y u u u f g g g g g g U U U U U U Z g g i i u u u X.C f # 2 7 7 8 8 q q q q q r r t y u u i i i i g Z U U U U U U U U U Z g i i i i i i u y r r ",
"q q q 0 7 7 7 7 7 7 7 7 0 0 q q q r u u u u f j j j j j u u j j j q 1 j j h j h j h h f f u u u u j u # 1 r r r y u u u i g g g U U Z U U U U U U U U g i i u u u r y G # 2 7 7 7 8 7 q q q q q r r y y u u i i f g Z U U U U U U U U Z Z g i i u u i u u r r r ",
"q q q 0 7 7 7 7 7 7 7 7 0 0 q q r y u u u u j j j j j j j j j j C 5 1 h j Z Z Z j j j j j h h u u k u # 1 r r r u u u u u g g g g U U U U U U U U U Z i i i u u u r r f # 2 7 7 7 7 7 8 q q q q q r r y y u u i i i g Z U Z Z Z Z Z g g g i i u u u u u y r r q ",
"q q q 0 7 7 7 7 7 7 7 7 0 0 q r r u u u u f j j j j j j j z C C J 1 < j Z Z Z Z Z Z U Z Z j j h f j u # < q r r u u u u u i g g g U U U U U U U Z g g i i i u u u r r 0 O 1 5 7 7 7 7 7 8 q q q q r r r y y u u i i i g g g f i i i i i u u u u u u y y r r q q ",
"0 0 q 0 7 7 7 7 7 7 7 7 0 w q r u u u u u j j j j j j j C J X.X.:.1 * f ^ C k Z Z Z Z ^ k Z Z Z j j k % & q e r y u u u u u u g g Z U U U U U U g g i i i u u u r r r 7 O 1 2 7 7 7 7 7 7 8 q q q q r r r y u u u u u i i u u u u y y y y y y y y r r r q q q 0 ",
"8 0 0 0 7 7 7 7 7 7 7 7 0 0 q r u u u u u j j j j j z C ' X.2.:.t.0 # u ] ' ' ^ ^ ^ ^ ' ' ^ ^ Z Z Z k & * q q r y u u u u u u f g U U U U U U U g i i i u u u r r r r 0 O < 2 2 7 7 7 7 7 8 8 q q q r r r y y y y y u u u u y y y r r y r r r r r r q q q q 8 7 ",
"7 7 8 0 7 7 7 7 * < 7 7 7 0 q r u u u u j j j C C C C X.#.:.:.:.i.5 , k ] ' ' ] ' ' ' ' ' ' ' k Z Z j & 1 q q r y u u u u u u u g U U U U U U g i i i u u u u r r r q 7 O < 2 2 2 7 7 7 7 8 8 8 q q r r r r y y r y y y y y r r r r r r r r q q q q q q q 8 7 7 ",
"7 7 7 7 7 7 7 7 * # 7 7 7 8 0 q r u u f j z C J K X.:.:.:.:.:.:.9.< y ] ] ] ] ] ] ] ] ] ] ] ] ' U Z u $ 1 q q r y u u u u u u u i g g Z Z Z g i i u u y y r r r r q 7 1 o * 2 1 1 2 5 7 7 7 7 7 7 q q q q q r r q q q q q q q q q q q q q q q 0 q q q 0 < * 7 7 ",
"* & & % $ # # # # o # # # # # # $ & * , < 2 5 5 7 7 8 0 0 0 0 0 7 & 2 0 7 7 0 7 7 7 7 7 7 0 0 0 7 0 2 # & < < < < < 1 1 2 2 2 1 1 < < < 1 < , * & & & & $ & * * * * * & o O # # O O # # # # # # $ & * * * * & & $ $ $ $ $ & & & & & & & $ $ # # # # $ $ o O * * ",
"3 3 7 7 7 7 2 1 1 < - * , & o < 2 2 2 2 8 q q r r r r r * # # y ' ^ C C j q * # # # & 7 0 0 7 7 7 7 0 0 0 0 8 q u u u 2 # # - f 7 < < 1 1 1 < # o 7 0 0 0 0 0 0 0 7 5 7 7 7 8 q q , o & < 2 2 1 1 2 5 5 5 5 * o o o o * 2 2 2 5 5 5 1 1 1 1 7 0 0 7 1 # o o o & ",
"r r r r q q q 8 8 8 0 0 C j o 2 y y y u Z C ^ ] #.2.2.M.r # * Z 0.0.s.z.v.z.6.< # # * Z ^ ^ ^ ^ ^ ^ ^ ^ 6.6.6.5.5.5.x.B.* # < X.C.C.s.s.s.h.v.q # q 0 0 q r r r r r r r r r y j ^ 0 O 1 0 q q q r r r u u C z & o o # 5 r r r y u f f f f j ^ :.#.X.6.< o o * 7 ",
"7 7 7 7 7 7 7 7 7 7 7 7 r :.# 1 q q r y u u u f j k ' s.u # * u #.6.6.5.9.0.B.f # # * i U U U U U g i U U ^ 6.6.6.6.6.A.7 # - y #.5.5.5.s.h.C.r # q 8 7 7 7 7 7 7 7 7 q q q r r j 0 O 1 0 0 0 0 0 0 q q r r z q & O < q q q q q r u f f f f u f f f X.2 O & 7 8 ",
"7 7 7 7 7 7 7 7 7 7 7 7 7 C & 2 q q e y u u f f j j C 9.f * - i #.6.2.5.9.0.Z.9.- # - g U U U g i g g g U ) 6.6.6.6.6.b.Z & - y ^ | | 5.s.z.B.u @ 7 7 7 7 7 7 7 7 7 7 q q r r r j q # 1 0 0 0 0 0 0 q q q r C u 0 * 7 q q q q q r y u u u u y u f f C 7 $ 7 q 8 ",
"7 7 7 7 7 7 7 7 7 7 7 7 7 u $ 2 q q q y y u f f j j Z 2.f 2 r U ] 6.6.2.5.0.Z.x.q & * i U U U Z i i i i U U ^ 6.6.6.6.0.h.8 - i | | | 6.s.z.v.r o 7 7 7 7 7 7 7 7 7 0 q q r r q u u & 2 0 0 0 0 0 0 q q q r X.f r 7 0 0 q q q q r r y y y y y y u f j r 2 q 8 8 ",
"7 7 7 7 7 7 7 7 7 7 7 7 7 7 # 7 q q q e y u u f j j j 9.j 3 ^ ^ ^ ^ 6.6.6.2.Z.A.x.^ 1 u U U U Z i i i i g U ^ ^ ^ ^ U U 5.5.3 U | | | 6.5.h.v.r @ 2 7 7 7 7 7 7 7 7 q q r r r r r u < 2 0 0 0 0 0 0 0 q q r j h r q q q q q q q r r r y y y y y u u y r q 8 8 8 ",
"7 7 7 7 7 7 7 7 7 7 7 7 7 2 # 7 q q q r y u u f j Z j #.X.q ^ ^ ^ ^ ^ ] #.] s.v.V.B.7 u Z U Z i i i i i g U U U U U U U U ^ y g U ^ ^ ^ 6.s.x.j @ 1 7 7 7 7 7 7 7 8 q q r r r r q q 0 7 0 0 0 0 0 0 q q q r r u u q q q q q 0 q q r r r y y y y y y y r q 8 8 8 ",
"7 7 7 7 7 7 7 7 7 7 7 7 7 7 # 7 q q e y y y u f j j Z k ^ Z ^ U Z Z ^ ^ ^ ^ ^ ^ x.B.r f Z Z i i i i i i g U U U U U U U U U U U U U U U ^ 5.x.X.# 1 7 7 7 7 7 7 7 0 q r r r r r q q 0 0 0 0 0 0 0 0 0 q q q r r y r q q q q q q q q r r r y y y y y r r r q 8 8 ",
"q 7 7 7 7 7 7 7 7 7 7 7 7 1 O 3 8 q e y y u u f f j j j Z Z Z Z j j Z ^ ^ ^ ^ ^ #.x.Z i f i i i i i i i i g U U U U U U U U U U U U U U U 6.z.#.# 1 7 7 7 7 7 7 7 8 q q r r r r q q 0 0 0 0 0 0 0 0 q q q q r r r r q q q q q q q r r r y y y y y y r r r r q q ",
"q q 7 7 7 7 5 7 7 7 7 7 0 * o 7 8 q q r y u u u f f f f f f f j j j j Z Z Z k U ^ ^ Z i i i i i i i i i i i U U U g U U U U U U g i i g g U 5.k # - 7 7 7 7 7 7 7 7 q q r r r r r q q q 0 0 0 0 0 0 q q q q r r r r r r r r q q r r r r y y y y y y y r r r r r ",
"q q q 7 7 7 5 7 7 7 7 7 q 2 O 2 7 q q e y u u u i f f i i i i i i i j j Z j j j Z j i i i i i i i i i i i i g U g i g U U U U U g i i i i i U u # # 1 7 7 7 8 0 7 0 q q r r r r r r q q q q q q q q q q q r r r r r r r r r r r r r r r y y y y y y y y y r r r ",
"r q q 0 7 7 7 7 7 7 7 7 7 7 # 2 8 8 q r y u u u i i f i i i i i i i f Z Z j j j f i i i i i i i i i i i i i i g i i g U U U U U i i i i i i g r # < * 2 7 7 7 7 7 q q q r r r r r r r r q q q q q r r r r r r r r r r r r r r r r r y y y y y y y y y y y r r r ",
"r r q q q 7 7 7 7 7 7 7 7 0 $ 2 8 8 q q r y u u u i f i i i i i i i i g Z j j Z f i i i i i i i i i i i i i g U g g U U U U U g i i i i i i u < # 7 0 2 7 7 7 7 q q q q r r r r r r r r r r r r r r r r r r r r r r r r r r r r y y y y u y y y y u y y y y y r ",
"r r q q q q 8 8 8 8 8 0 q r * 1 7 7 q q e y y u u u i i i i i i i i i i f Z j g i i i i i i i i i i i i i i U U U U U U U U U i i i i i i y 0 # # 1 0 7 7 7 7 8 q q q q r r r r r r r r r r r y y y y y y y y y y r r y y y y y y y u u y y y y u u y y y y y y ",
"r r r r q q q q q q q q q r & 1 7 8 q q e y y u u i i i i i i i i i i i f j Z i i i i i i i i i i i i i i i Z U U U U U U U U g i i i i i g t.1 # 1 7 7 7 7 7 7 0 q q q r r r r r r r r r r y y y y u u u u y y y y y y y y y y y y u u u y y u u u u y y y y y ",
"r r r r r r r q q q q q q q $ 1 5 7 q q r y y u u u u u u u u u i i i i i i f i i i i i i i i i i i i i i i i g U U U U U U Z g i i i i i i U u # 1 0 q 7 7 7 7 7 8 q q r r r r r r r y y y y y y u u u u u u y y y y y y y y y y y u u u u u u u u u u u y y y ",
"r r r r r r r e r r r q q q $ 1 5 7 q q y y y y y u u u u u u u u u i i i i i i i i i i i i i i i i i i i i i i i i g U U g i i i i i i i i i u % 2 0 q 0 7 7 7 7 7 q q r r r r r r y y y y y y u u u u u u u u y y y y y y y y y y u u u u u u f u u u u y y y ",
"r r r r r r r y y y y y r r $ 1 5 7 q q e r y y y u u u u u u u u u u i i i i i u i i i i u i i i i i i i i i i i i i g i i i i i i i i i i g q # 2 0 q 0 7 7 8 0 q q q r r y y y y y y y y y y u u u u u u u u u u u y y y y y y y u u u u f f f f u u u y y y ",
"r r r r r r y y y y y y y r # # < 7 q q q r y y y y y y y y y u y y y u y u u u u u u u u r y i i i i i i i i i i i i i i i i i i i i i i i g 7 # 5 q q q 8 8 q q q q r r r r y y r r y y y y y u u u u u u u u u u u y y y y y y y u u u f f f f u u u u y y y ",
"r r r r r r r y y y y y u r # . o - 8 q q q e q q y y t t t t y t t t e < 7 u u u u u y q q r i i i i i i i i i i i i i i i i i i i i i i i Z 1 @ 1 q q q q q q q q q r r r r r q , , 1 y y y y u u u u u u u u u u u r 2 * 3 y u u u u f f f f f u u u y y y y ",
"r r r r r r r r r y y y y r # . . o 1 q q q q q 0 y r q q q q q q q q 2 # * q r r e 0 7 7 7 7 e y y y y y y y y y y y y y r y y y y y y y u q * o & 7 7 7 7 7 7 7 7 7 7 7 0 7 5 < o # # 1 2 2 2 5 7 7 7 7 7 7 7 7 7 2 * O O * 7 q q r u u u u u u u y y y y y y "
};
