/* XPM */
static char *texture17[] = {
/* columns rows colors chars-per-pixel */
"128 128 178 2 ",
"   c #09070D",
".  c #0A080E",
"X  c #0D0B11",
"o  c #130E13",
"O  c #171216",
"+  c #181317",
"@  c #171419",
"#  c #1A151A",
"$  c #1E191E",
"%  c #201A1F",
"&  c #1F1B20",
"*  c #231D22",
"=  c #281E23",
"-  c #262126",
";  c #282127",
":  c #272228",
">  c #2B252B",
",  c #2E292E",
"<  c #30272D",
"1  c #30292F",
"2  c #222130",
"3  c #2F2A30",
"4  c #24253A",
"5  c #2C2A3C",
"6  c #312B30",
"7  c #312A31",
"8  c #302B31",
"9  c #312B31",
"0  c #302A30",
"q  c #332A30",
"w  c #322B31",
"e  c #332B30",
"r  c #342B31",
"t  c #312C31",
"y  c #322C31",
"u  c #312C32",
"i  c #322C32",
"p  c #322D32",
"a  c #332D32",
"s  c #322C33",
"d  c #322D33",
"f  c #332D33",
"g  c #342D33",
"h  c #352D33",
"j  c #342E33",
"k  c #352E33",
"l  c #372E33",
"z  c #362D33",
"x  c #332D34",
"c  c #342E34",
"v  c #352E34",
"b  c #352F34",
"n  c #342E35",
"m  c #342F35",
"M  c #352F35",
"N  c #362E34",
"B  c #372E34",
"V  c #362F34",
"C  c #362F35",
"Z  c #372F35",
"A  c #352F36",
"S  c #342D33",
"D  c #382E33",
"F  c #392F34",
"G  c #382F35",
"H  c #392F35",
"J  c #3A2F34",
"K  c #382F35",
"L  c #363035",
"P  c #373035",
"I  c #353036",
"U  c #363036",
"Y  c #373036",
"T  c #373136",
"R  c #363037",
"E  c #373037",
"W  c #363137",
"Q  c #373137",
"!  c #363136",
"~  c #373237",
"^  c #363036",
"/  c #383035",
"(  c #393035",
")  c #383036",
"_  c #393036",
"`  c #383136",
"'  c #383037",
"]  c #383137",
"[  c #393137",
"{  c #3A3036",
"}  c #3B3036",
"|  c #3A3136",
" . c #3B3136",
".. c #3A3037",
"X. c #383237",
"o. c #3B3237",
"O. c #3C3037",
"+. c #3C3137",
"@. c #3C3136",
"#. c #3C3237",
"$. c #3D3237",
"%. c #393036",
"&. c #363138",
"*. c #373138",
"=. c #373238",
"-. c #373239",
";. c #373239",
":. c #383138",
">. c #393138",
",. c #3A3138",
"<. c #383238",
"1. c #393238",
"2. c #393239",
"3. c #393339",
"4. c #3A3239",
"5. c #3B3239",
"6. c #3A3339",
"7. c #3B3339",
"8. c #3B3338",
"9. c #3A333A",
"0. c #3B333A",
"q. c #3C333A",
"w. c #3A343A",
"e. c #3B343A",
"r. c #3B343B",
"t. c #3A353B",
"y. c #3E3439",
"u. c #3D343A",
"i. c #3C343B",
"p. c #3D343B",
"a. c #3C353B",
"s. c #3D353B",
"d. c #3C343A",
"f. c #3E353B",
"g. c #3A353C",
"h. c #3B363D",
"j. c #3C353C",
"k. c #3D353C",
"l. c #3D363C",
"z. c #3E363C",
"x. c #3E363D",
"c. c #3E373D",
"v. c #3B343B",
"b. c #3E383E",
"n. c #40383F",
"m. c #403A3F",
"M. c #3F3A40",
"N. c #413B42",
"B. c #453D43",
"V. c #433E45",
"C. c #453D44",
"Z. c #443E44",
"A. c #443F45",
"S. c #433D42",
"D. c #464046",
"F. c #484047",
"G. c #484047",
"H. c #464249",
"J. c #4A4248",
"K. c #4A4249",
"L. c #4C434A",
"P. c #4B454B",
"I. c #4A444A",
"U. c #4E484E",
"Y. c #424151",
"T. c #4F4A50",
"R. c #524C53",
"E. c #575057",
"W. c #575258",
"Q. c #5B555D",
"!. c #5E585E",
"~. c #4F4F63",
"^. c #545362",
"/. c #5E5860",
"(. c #5D5D71",
"). c #615B61",
"_. c #676168",
"`. c #6B656C",
/* pixels */
", ; = % + O + % ; 1 G  .G N N N  .=.P - * r.x., > > > > > , 3 e y y y y y y :.A.A.N.:.P P P P P P - + P r.y y P P P P P P P P P P P P y.x.x.x.x. .:.x.r.:.P P N y y y y > * + O + - - * * * * * * * $ $ * * * * * $ $ $ y P e , , :.N :.x.x.:.r.r.; O * 8.K.P.F.",
"h , ; = * % * ; 1 G  . . .N y y y y y > - x.N > > > > > > > , e y y y y x N P =.=.:.r.P P P P P P - + :.P y y N P P P P P P P P P P P r.x.x.x.x.y.x.x.x.:.P P N y y y y , * + # y =.x e , > > > > > > > , e e * - , * * , , , , , e , y N e , e 3 > + $ :.K.A.n.",
"#.h 1 ; = = > y  . .P  . . .N y y y e e ; N , > > > > > > > , y y y y y N =.=.=.=.P =.:.P P P P :.> $ =.y y y N P P P P P P P P P P P P r.x.x.x.x.x.x.r.:.P P N y y y y , * + - :.y y , , > > > > > > , , , e y =.=.* * , , , , , , , , , , , , e e + $ y.x.:.:.",
"#. .N > ; h h  . . . . . . .N y y y e e , , > > > > > > , , , e y y y x =.=.=.=.=.=.P P P P P P g., # e , , y N P P P P P P P P P P P :.y.x.x.x.x.x.x.:.:.P N N y , , y , & + - N y , > > > > ; > > > > , , , y P P * * 3 3 , , , , e 3 3 e e , N N $ $ :.:.:.:.",
"#.#.N > > P.y.P  . . . . . .N y y e e y , > > > > > > > , , e e y y y N =.=.=.=.=.=.=.N N P P :.g.3 + > > , e y N P P P P P P P P P :.:.x.x.x.x.x.y.r.:.P N e y y , , , > $ + - x y , > > ; - - ; > > > > , , y N P $ * e , , e e , e y y N N N N N * $  .8.8.8.",
"#.#.G , e P.8. . . .P  . .N N N N y y e 3 , > > > > > > > , e e y y y P =.=.=.=.=.=.P x N P P :.g.e + ; > > , , y N P P P P P P P :.:.:.y.x.x.x.:.:. .P N y 3 , e e , , , $ O - x y , > > - - - - ; > > > , , y x x $ * y 3 , , , , e y y N N G N G > $  .:.:.8.",
"#.#.#.r :.B. . .P  . . .N y N  . .N y y y , > > > , , , , e e y y y x =.=.=.=.=.=.=.N y y N P P g., + ; > > , , y y N P P P P P P P :.:.:.:.:.:.:. .P N y y , , , , , , > $ + - x y e , > - - - - - > > > , , y y y * $ e y y , , e e y y h N N N G , * :.8.8.y.",
"#.#.#.#. .y. . .P  . . .N y N  . . .N y y e , , , e y e e e y y y y N =.=.=.=.=.=.=.N y y y N N > + + ; > > , , y N P P P P P P P P :.:.:.:.:.:.P N y e 3 , , , , > > > - $ + * x y e , > ; - - - - ; > > , , y y e $ + ; y y e , e , , y N N N N G > * :.:.:.:.",
"#.#.#.#.#.#. . . . . .G y y G  .P  .N y y y e y e y y e y y y x y y N =.=.=.=.=.=.N y y y y y : + O + - > > , , e N P P P P P P P P  .:.:.:.:.N y y y , , , , , , > > , ; * + - N h y , > ; - - - - ; > , , , y N - O + * , y y y e , , y N N N N G > * 8.:.:.:.",
"#.#.#.#.#.#.#. . . . .N h N  . . . .N y y y e y e 3 y y y y y x y N =.=.=.=.N N N y y y y y , - + O + - > > , , , y N N N P P P P P P :.:.P N y y y y , , , , , , > > e > * + - N y e , ; - - - - - > > , , , y N ; O + * > y y N x y e e y N N N G > * N 8.y.y.",
" .#.#.#.#.#.#.#.#. . . . . .P  . . .N y y y e e y e y y y y y e y N =.=.=.N y y y y y y y y P P > + O * > > > , , e y y y N P P P P P P P N y y y e , , > > , , , > > , ; * + * y e , > ; ; > ; > > > > , , 3 y N , O + * , y y y y x y y y N N G N , + $ >  .:.",
"; ; D #.#.#.#.#.#.#.#. . . . . .P  .G N y e e y y y y y y y y e y x N P N y y y y y y y y y N  ., * + * > > > , , , , y y N P P P P P P P N y y , , , , > > , , , > > > ; * + + , , > , > > > > > > > , , , e y N e + $ , N y y y y x y y y y N N N , + O + * ; ",
"G G #.#.#.#.#.#.#.#. . . . . .P  . . .G N y e y e e y e e y y y y y x x x x y y y x y y y y x N e > $ % > > > > , , , y y y N P P P P N h y y 3 , , , , > > , , , > > > > - # O + $ - > , > > > > > > , , , y x P N $ > :.N y y y y y y y y y N N N , * ; e  . .",
"#.#.#.#.#. . . . . . . . . . . . .G G G N x y y e y y y y y x x y y x x x x y y x x y y y y N N N , $ $ > > > , , , , y y y N P N N N N y y e , , , , e , > > , > > > > > - # O + * > y y > > > > > > , , , y N P P * y P y y y y x y y y y y y N h > > #.#. . .",
"#.#.#.#.#. .G N N G  . . . .P G G G N N N x y y y y e y y y y y y y y x x y y y x x x x y y y N N > $ $ > > > , , , , 3 y y y N x y y y y y , , , , e y y , > > > > > > > ; $ O $ , :.e , > > > , > > > , e y N P P * , N y y y x x x x x x y y y h , ;  . . . .",
"#.#.#.#. .G G G G G G N N N N N N N y y N y y y y y y y y y y y y y y y x y y y x x x x y y N N h ; $ # > > > , , , , , e y y y y y y y y y , , , , e y x e , > > > > > > ; $ + * :.N > , , , , , , , , , e y N P P * > x y y y y y y y y x y y y y , ;  . . . .",
"#.#.#.#. .G G G G G G G G G N h h y y y y y y y y e e y e y y y y y y y x x x x x x y y y x N N h ; $ # > > > , , , , , , y y y y y y y y , , , , , e y y y e , , , > > > > $ + - :.e , , , , , , , , , , y x P P P * , x y y y y y y N P y y y y y , ;  . . . .",
"#.#. .G G  .G G G G G G G G N y y y y y y y y e e y y e 3 e e y y y y y x x x x x y y y y x N N P > $ $ > > > , , , , , , y y y y y N h y > , e , e y y y y N y , , , , , > $ + ; x y , , , , , , , , , y y N P P N * , x y y y y y y P A.:.y y y y , ;  . . . .",
" . .G G G G G G G G G G G G N N N N N N y y y y e 3 e e e e y y y y y y x x y y x x y y y y N P :., $ * , > , , , , , e y y y y h N G N e > y y y y y y y y y y e e , e e , $ O > N y y , , , , e e , , y y N P P P * * y y y y y x x x N N y x y y - *  . . . .",
"G G G G G G G G G G G N  .G G G G  . .N y e y e e e y y e y y y N x y y y x y y x x y y y y N N :., $ $ > , , , , , y y N h y y N G G N , > , , y y y y y y y y y y y y y > + + , N y y y , , e y y y y y , N P P P - & , y y y x x y y e e y y e - + * h #. . .",
"G  . . . .G G G G G G G  . .G  . .:.:.N y e e e e e y y e y y y x x x x y y y y x x y y y y y N  .y $ O $ ; , , , 1 y N  . .N N G  .G G , - , ; ; , , e y y y x x y y y , + O + , x y y y y y y y x y N , $ y =.P , $ $ * > > > > > > > ; ; ; ; - $ O O * < h G ",
"G  . . . .G G G G G G  . . . . .:.r.:.P N y e y e 3 e y e e e y y x x x y y y y x x y y y y N N P N $ O O + $ $ * $ * * - ; > > > ; * * * + # # $ # + $ * * * * * * * * + O + + ; , , , , , , , , > > > * O > N , $ O O + + + + + + + + + + + O O o o o o + % - ",
" . . . . .G G G G G G  . . . .:.:.:.:. .P N y y y y y y y e y y y y x x y y y e y y y h y y N N N P * $ ; ; - - ; ; > > , , > - ; > ; - - * $ + O O O + $ * - - - - * * * * * * * * ; > > > > > ; - * * * % * - * * * * * % $ * * $ $ + o o o + * * $ O * P P N ",
" . . . . .G G G N G  . .:.:.:.:.:.:.:.:. .P N x y y y y y e e y y y y y e , , , y y N N y y y N N P - * :.S.N.S.A.K.P.P.P.P.F.A.K.P.P.P.T.P.N.h - $ $ e P.K.A.D.D.b.x.r.r.:.P h h N :.r.r.g.x.x.x.x.r.:. .:.r.r.r.=.N y N r.x.b.b.b.b.y * > r.r.P r., # ; y.N :.",
" . . . . . .G G G G  .:.:.:.:.:.r.r.:.:.:. .P N y y y y y , , , e e y , , , , , y y N N N h y y N P * $ N K.R.!.).!.Q.R.R.R.R.U.U.U.U.U.U.U.E.).S.1 e R.R.r.P P :.N N N  . . .G G G G G G  . . .:.:.r.r.r.g.g.g.g.:.P N  .r.r.r.K.P.N.g.g.M.P , , N > # * :.:.:.",
" . . . . . .G G G G  .:.8.:.:.:.:.:. .:.:. .P N y y y e e 3 , , , , , , , , , , 3 y N N N N y N P P $ O N K.P._.`.P.F.N.n.y.8.:.:. . . . . .8.F.R.y.B.R. .y y y y N N N N G G G G G G G G G G P =.=.=.=.=.=.=.=.=.G N y y y e , N K.T.P.y , , , , , ; $ : A.x. .",
" . . . . . .G G G G  . . . . .:.:.:.r.:. . .P N y y e e e e , , , , , , > , > , , y N N N N N N P P + o y K.P.R.S.G G G G  .G h N N G  . . . .G 8.8.x.x.P N h N N N  .:.:.:. .G G G G G G G  .=.=.=.=.=.=.=.=.=.P G N y y e , , , , M.R.N , , , , , ; $ e K.y. .",
" . . .8.#. .G G G N N  . . . .:.:.:.r.:. . .P N y y 3 e e y , , , , , , > > > , , 3 y N N N N N :.N + O > N.R.A. . . .N N N h y x y N  . . . . .8.8.y.x.r.:. .G G G :.r.r.r. .G G G G G G P =.=.=.=.=.=.=.=.=.=.G N N y y y , , , , , P y , , , , , - $ , A.8. .",
"#. .8.8.8.8.G N N h N  . . . . .:.:.:.:.:. .P N x y y y 3 e , , , > > , > , , , , e y N N N N N r.N + O > N D.:.h N N N y y y y y y y G  .#.8.y.x.x.x.x.x.r.r.:. .:.r.r.r.r.G G G G G G G P =.P =.=.=.=.=.P P G N N y y y y y y , , , , , , , , , , - $ 3 P.x.8.",
"8.8.8.8.n.#.N h y y h N G  . . .8.8.:.:.:. . .P N y y y e y , , , , , , > , , , , e y N N N N :.g.N $ O > e N N y y y x y y y y y y N G  .8.x.x.x.x.x.x.x.x.r.r.r.r.r.r.r.:.G G G G G G G G P  .P =.:.r.=.P G N x y y y y y x N y , , , , , , , , y ; $ , P.n.x.",
"8.8.8.8.8. .N h y y y N G  . .:.:.:.:.:.8. . .P N y y e y y , , , > > , , > , , , y y y N N P r.g.P $ O ; e N N y y y e 1 1 e y y y G  . .8.x.x.x.x.x.x.x.x.y.r.r.r.r.r.r.:.G G G G G G G G G  .r.r.r.r.:.P G N N y y y y x x x y y , , , , , , , y > $ > P.b.x.",
"b.x.y.8.8.G N h y y N G G  .:.:.8.:.:.:.#. . .P N y y e e e , , > > , , , > , , , e y y N N P r.y * O o > N G y y e e 1 < < e y y N G  . .8.y.y.8.y.x.x.x.x.r.r.r.r.r.r.:.=.P G G G G G G P :.r.r.r.r.r.:.=. .G G N N y y y x x y y y , , , , , , y > $ - P.N.x.",
"N.n.8.8. .G N y y y N N G  .:. .:.:.:.:.:.:. .P P N y y e 3 , , , > > > > > , , , , 3 y h P r., $ O o o > #.G 1 1 < < < < < 1 1 e N  . .:.8.x.x.y.y.x.x.x.r.r.r.r.r.r.r.r.r.:.P G G G N =.:.r.r.r.r.r.r.:.=.P P G G N N N N y y y y e , , , , , , y , * : P.A.B.",
"N.x.8.#. . .N y y y N G  . . . .:.:.:.:.:. .P P N y y y y , , , , , , > , > , > , , , y , , > # + # + o ; #.G 1 < < < < < < < < e N N G 8.y.x.x.x.x.x.y.r.r.r.r.r.r.r.r.r.r.r.=.P  .G =.:.r.r.r.r.r.r.r.r.:.=.=.=.G G G G N y y y y , , , , , , , e e * > U.A.A.",
"N.x.8.8. . .N y y N N  . . .:. .:.:. .P P P P P N y y y e , , , , > > > , , , , , , , , > > , , ; * $ o * #.G 1 < < < < < < < 1 y y y h  .8.x.x.x.x.x.x.r.r.r.r.r.r.r.r.r.r.r.r.=.=. .=.:.r.r.r.r.r.r.r.r.r.:.=.=.P G G G N y y y y , , , , , , , , N * > U.A.A.",
"N.x.8. . . .N y y N G N  .P P  .:. .P P P P P P N y y y e , , , , , , , , > , , , , , , e y :.U.D., $ o *  .G 1 < < < < < < < 1 1 1 e h  .8.x.x.x.x.x.x.x.r.r.r.r.r.r.r.r.r.r.r.=.=.P =.=.:.r.r.r.r.r.r.r.g.r.=.=. .G G G N N y y y , , , , , , , , h * > U.A.A.",
"N.n.8.#. . .N y N P P P P P P P  . . .P P P P P P N y y e , , , , , , , , , , , , , , , e x P g.H.r.- o $ G N 1 < < < < < < < < 1 e h G  .8.x.x.x.x.x.x.x.x.x.x.x.r.r.r.r.r.r.r.=.=.=.=.=.=.r.r.r.r.r.r.r.r.r.:.=. .G G G G G N N y e , , , , , , , y * > K.A.A.",
"N.N.y.#. .N y y N N N P N P P P  . . . . . .P P P N y y e , , , , , > > > , , , , , , , y x =.=.r.r.; O + e y < < < < < < < < < y N  .8.8.y.x.x.x.x.x.x.x.x.x.x.x.x.r.r.r.r.r.:.=.=.=.=.=.=.r.r.r.r.r.:.:.r.r.:.=. .G G G G G G N y e , , , , , , , e - $ P B.A.",
"N.n.y.#. .N y y y y x N N P P  . . . . . . . .P P P y y y e , , , , , , > > > > , , , e y N =.=.b.N - O + , e < < < < < < < < < y  .y.x.b.x.b.x.x.x.x.x.x.x.x.y.r.g.r.r.r.r.r.r.=.=.=.=.=.:.r.r.r.r.:.=.=.r.:.=.=.N G G G G G G N N y , , , , , , , 3 : + * y.A.",
"N.n.y.#.G N h y y y y N P P P  . . . . . . .P P P N y y y y 3 , , , , , , , > > , , , e y P =.r.V.P - O + ; , < < < < < < < < 1 N 8.b.n.n.n.n.n.x.x.x.x.r.r.x.x.x.r.r.r.r.r.:.:.=.=.=.=.=.r.r.r.r.r.r.=.=.=.=.=.=.N G G G G G N N y y 3 , , , , , , N 1 + > N.A.",
"N.n.y.#.G N h y 1 1 e y N N P P P  . . .P P P P P N y x y y e e , , e e , , , > , , , e y N P :.V.P ; + + - , < < < < < < < < e  .x.n.n.n.n.n.S.n.b.x.x.x.x.x.x.x.r.r.r.r.r.:.=.=.=.=.=.=.:.r.r.r.r.r.r.=.=.=.P P G G G G N N y y y x e , , , , , , h h + y A.A.",
"A.n.8.#. .N h e 1 1 1 y y y N N N P P P  .P P P P y y x y y y y e e e e y 3 , , , , , , , e y P N.r.> + + ; < < < < < < , * ; 8.x.n.n.n.n.n.S.S.S.n.x.x.x.x.x.x.x.r.r.r.r.r.:.=.P =.P =.=.=.:.:.r.r.r.r.:.=.P G G G N N N y y y y y y y , , , , , > , y # r.R.K.",
"D.N.y.8. .G h e 1 , 1 e y y y y y N P P P P P P N y y y y y y y y y y y x e , , , , , , , , e y x.b.y $ $ , < < < , > ; $ * x.S.n.n.n.n.n.n.S.B.S.N.b.x.b.n.b.x.x.r.r.r.r.r.=.=.P N N N N P =.=.=.:.r.:.=.P G G G N N y y y y y y y y y , , , , > , , e $ y !.R.",
"D.N.x.8. .G y , > , , 1 1 1 1 e y y N N P y * , P N y y y y y y y y y y x y e , , , , , , , , e P g.N % $ , < < > $ + $ , n.N.n.n.n.n.n.S.N.S.S.S.S.N.n.n.n.n.b.x.y.r.r.r.=.=.=.=.N N N N N P =.=.=.=.=.=.P G G G N h y y y y y y y y y , , , , , , , > $ * T.Q.",
"P.S.x.8.#.N e - - > , , 1 1 e y y y y N P - + , P P y y y y y y y y x x x y y e , , > > , , , , y P , # $ > < < 1 ; 1 y.x.:.8.x.b.n.n.S.S.S.S.S.S.S.S.N.n.n.n.n.b.y.r.r.r.=.=.=.=.N N N N N P =.=.=.=.=.=.P G G G G N y x x x x y y y y , , , , , > , > $ $ x./.",
"W.A.n.y.8. .N * * , , > , 1 y y y N P P y + + y P P N y y y y y y y x x y y y y , , > > , , , , e P , + + ; , < e N N G G G :.y.x.n.N.S.B.S.S.B.S.S.S.N.n.n.n.n.b.x.r.r.r.:.=.=.=.P N N N N P =.=.=.P G P G G G G G N N N x x y y y y y , , , , , , , , % # e R.",
"W.F.N.n.x.8. .* * h , , , , 1 e y N P N > + * P P P P N y y y y y x x x y y y y 3 , , > , , , , , N , # + > :.< < 1 1 h G G 8.y.y.n.n.n.S.N.n.S.N.S.N.n.n.n.b.b.b.x.r.r.r.r.:.=.=.P N N N N =.=.=.=.G G G G G G G G G N y y y y y y y y y , , , , > , , * # , W.",
"n.y.x.N.N.x.8.- * :.N , , , , , e y N , - + > P P P P N x x y y y x x x y y y y e , > > > > , , , y * o + ,  .< < < < h G :.y.y.x.n.n.n.n.n.n.n.n.n.n.b.x.x.x.x.x.r.r.r.r.r.r.:.=.N N N P =.=.=.=.P G G N N N N N N N N y y y x x x y y y , , , , > , , * + y `.",
", > , e :.x.y.> $ S.:., > , , , , e , - * + - y N P N y y y y y y y y y y y y y y , , , , , , , , e * O + - ; > , < < h G :.y.y.b.n.n.n.n.n.n.n.n.n.n.n.x.x.x.r.r.r.r.r.r.r.r.:.=.P N N P =.=.=.P G G G N y y y y y N y y y y y y y y y y e , , , , , , $ @ > P ",
"$ $ $ $ $ % - $ O - * * * * * * * $ $ $ + O + + $ * * * * * * * * * * - * * * * * * * - - - - - * * % # + - - - > < 1 h G  .8.y.x.n.n.n.n.x.y.x.b.n.N.x.y.x.x.g.r.r.r.r.r.r.r.=.=.=.P N P =.=.=. .G N N x y y y x x x x y y y y y y x x x y , , , > ; * + O + # ",
"O O + $ $ * * * * % $ % * * * * * $ $ $ * - - - * * , , + O $ - - - y x.y > - + O O + * > , > - * + o o + - - - > < r G G G :.y.y.x.x.x.x.y.y.y.y.:.:.:.M.g.P :.r.r.r.r.r.r.r.:.=.=.=.=.=.=.=.=.P N y y y y y y y e e 3 , , , , , , , > ; - * & $ + + @ O O O O ",
"+ - y :.r.r.r.r.r.r.r.b.:. .r.b.b.P y y N P P P P r.b.x.e * P x.r.b.K.V.b.:.N > + > x.A.A.K.S.b.x.N * o O * * - ; > > , 1 e h r e r h r e 1 1 > - * & > : @ @ & * * & & * : - : , , 3 3 , > - - * * * * * * * - - - * * $ * * - - - ; - - : - & O O + - ; $ + O ",
"; e P r.r.r.r.r.r.:.P P N N N P P P P P P P P P N P P N N e P P :.g.x.x.r.y , ; * S.M.r.b.D.D.=.N P P # o O O + + + $ + + $ $ $ $ $ $ $ - > ; - $ X .   X Y.(.V.I > : * * & $ @ + + + + & * - - - - * + $ > I M.M.M.M.g., P g.b.b.b.M.M.M.A.P.P.- - V.V.P , $ + ",
", y =.r.r.r.r.r.P N N N N h N N P P P P P N N N h y y y y e y y y y y y y y , - * =.=.:.r.:.r.P x  .:.$ O o + - , x.D.y.:.b.N.S.S.S.x.x.D.A.S.A.r.O   X 2 ~.^.P.U.T.U.P.P.P.H.P & @ @ & P A.U.U.D.A.N.y P H.H.H.H.H.H.=.e P r.x.b.b.b.b.N.H.P.D.- 3 x.y y e * * ",
"h :.:.P N N P P N N N N N y y y N N N N N N y y y y y y x y y x y y y y y y P , : =.:.r.r.r.r.x.g.N y - O O * y :.H.A.P P :.:.S.P.U.x.:.:.:.:.:.y.# . 2 4 4 x N.U.V.M.V.D.H.P.V.=.- @ - =.A.P.b.:.:.:.P P r.x.b.S.P.b., y N N N P P P P :.r.x.> $ * y P P N - , ",
"N P N N N N N N N N N N N y y y y y y y y y y y y y y y x x x x y y y y y y N y y r.r.r.r.r.r.b.A.r.P , + O - P x.r.e 1 1 , , b.D.N.:.:.:.:.:.:.:.& X 5 4 5 :.K.R.x.g.b.b.b.x.b.b.r.& > M.S.r.=.=.=.N N N N N N N P y P b.y y y y y N P N N N - $ * y =.=.=., > ",
"N N N N N N N N y y N N y y y y y e e y e y y y y y y y x x y y y y x x x N N =.r.r.r.r.r.r.r.r.b.b.b.r.* + , S.r.y y y y e e N.x.h P :. .P P :.:.> o x P :.N.R.V.r.r.x.b.b.b.b.b.b., N A.r.=.=.P N N N N N N N N N y b.x.y y y x y x x x x N > $ * x =.=.=.P > ",
"N N N N N y y y y y y y y y y y e e , , e e y e y y y y x x y y y y x x N P P =.r.r.r.r.r.r.r.r.r.x.b.b.; + e x.N  . . . . . .S.:.N N P P N N P :.e @ y :.r.b.b.:.r.r.g.b.b.b.b.b.b.e P N.=.=.N N N N y N N N y y x y =.N y y y x y y y x x y , & - N =.=.=.=.=.",
"N N N N N N y y y y y y e e , , , , , , , 3 y e e y x y x x y y y x x N P =.:.r.r.r.r.r.r.r.r.r.g.b.b.b., + 1  . . . . . . . .b. . .G N N N N N N N $ e x.M.r.r.:.r.r.g.b.b.b.b.b.N.e , g.=.N N N N x x x y y y x N y y y y x y y y y y N N N e * - N =.=.=.=.=.",
"N N N N N N N y y y y y e , , , , , , , , e e e y y x x x x y y y x x N P =.r.r.r.r.r.r.r.r.r.r.g.b.b.b.y + 1  . . . . . . .P  . . .P y x y y N N N * , M.b.:.r.P :.r.r.x.b.b.b.x.N.y > =.N N N y x y y y y N N N x y y y y y y y y y N N N N y * - N =.=.=.P P ",
"N N N N N N N y y y e y y 3 , , , , , , , 3 e e e y x x y y y y y y y N P P =.r.r.r.r.r.r.r.r.r.g.b.b.b.=.$ , N N N P  . . . .P  . .P y y y y y y P - > N.r.P P P P :.r.r.g.g.x.b.N.N > :.P N N x y y y y y y x y y y y y x x x y y y N P =.=.N * * N P P P P P ",
"N N N N N N N N y y y 3 e e , , , , , , , , y y y x N N x y y y y N N x N P P P =.=.=.:.r.r.r.r.g.b.x.x.P $ > N N N N  .P  . . . . .N N x x y y y P : > b.:.P P P P P P r.r.r.g.b.S.P - =.=.P N y y y y y x y y y y y y x x N x y N P =.=.=.=.=.* - N P P P P P ",
"N N y y y N N y y y e e e , , , , , , , , 3 y e y y P P N N N P P P P P P P P P P =.=.:.r.r.r.r.r.g.g.N $ O - y y y N N N N N N N N N N x N y y N  .; , :.N y y y y N P :.r.r.g.M.A.N & P =.P x y y y y x x y y y x N N N N N N x N P =.=.=.=.r.- - :.=.P P P P ",
"N N y y y N y y y y e , , , , , , , , , , y y y y N P P P P P P P =.P P P P P P P =.=.r.r.r.r.r.r.r.P $ O O - e e y y y N x y N N N N N N N x y N  .- , N y y y y y y N P P r.r.x.A.x + , =.=.x x y y y x x y y N =.=.=.P N N N N x P =.=.=.=.r.: 3 b.P P P P P ",
"N N N x y h y y e , , , , , , , , , , , e y y y N P P =.=.=.=.=.=.P P P P P P P P =.r.r.r.r.r.g.g.=.* O O + ; 1 e h y y h h x y y y N N N y y N h > + : y y y y e , y x P P P r.r.N., @ - N =.N y y y x x x y N P =.=.=.P N N N N P =.=.r.r.:.g.: e b.P P P P P ",
"N N N y y h y e e , > > > > > , , , , , y y y y N P P =.=.=.=.=.P P P P P P P P P =.r.r.r.r.r.P e * $ * + + ; 1 , y y h h h x N x y N y y y N N : + @ $ > , , , > , , y N P P P r.P & @ & , =.P y y y y x x y N =.=.=.=.=.=.=.=.=.=.=.=.g.g.g.g.> 3 x.P P P P P ",
"N N N y y x y e , , > > > > > > > , , e y y y x P P P P P =.P P P P P P P P P P =.=.:.r.=.3 > > 3 r.r.3 * + - 1 , 1 1 y h y y N N N h y y h N N h * @ $ * - , , , , , 3 y N P P , $ @ @ $ ; P =.N x y y y x x N P =.=.=.=.=.=.=.=.=.:.r.g.g.g.g.> , x.P P P P P ",
"N N N y y y y e , , > > > > > > > , , e y y y N P P P =.=.=.=.P P P P P P P P =.=.=.=.=.=.P P r.b.S.P.N.* + ; 1 1 1 1 1 y y x N N x y y y y N y N , + & - ; > , > , > , y x N > + @ @ @ * - x =.N y y y y y N N N =.=.=.=.=.=.=.=.r.g.g.g.g.g.g.3 > M.=.P P P P ",
"N N N y y y y , , > > > > > > , , , , e y y N P P =.=.=.=.=.=.P P P P P P P =.:.=.=.:.=.=.=.=.g.b.b.b.b.* * , 1 1 1 1 1 e y y y y y h N x y y y N e $ - N , , , > , , y y y N e , * + + , x.r.=.P N y x y y y N N P =.=.=.=.=.=.=.r.g.g.g.g.g.g.e - N.:.=.=.=.=.",
"N N N N y y e , , > > > > > > , , , , e y y N P =.=.=.=.=.=.=.P P P P P P =.=.=.=.=.=.=.:.=.=.g.b.b.b.g.- * e 1 1 1 1 y y y y y h y y N N N y y N y * - :., , , > > , y y y y P b.:.* $ =.g.P P =.P N x y x x P =.P =.=.=.=.=.=.:.r.g.g.g.g.g.g.e - b.:.=.=.=.=.",
"N N N N x y e , , > > > > > , , , , e y y y N P =.=.=.=.=.=.P P =.=.=.=.=.=.=.=.=.=.=.=.=.=.=.g.b.b.b.b.> - N y e e y N y N y y h y N N N x N N y , * - e > > , , > , , y y y N P P * ; P y y N N P P N N N N =.=.=.=.:.r.g.g.g.g.g.g.g.g.g.g.g.3 * b.r.=.=.=.=.",
"N N N y x y , , , , > > > > , , , , e y y y P P P =.=.:.=.=.=.=.=.=.=.=.:.:.:.=.=.=.=.=.=.:.r.g.b.b.b.B., * N N y y N N N N y y x y y y y x x N y , - - , , , , , , , , y y h N P y * - N N N N N N N N N N P =.=.=.:.g.g.g.g.g.g.g.g.g.g.g.g.r.3 $ x.g.=.=.=.=.",
"N N y y y y , , , , > > > > > , , e e y y x P P =.=.=.=.=.=.=.=.=.=.:.r.r.r.:.=.=.=.=.:.:.r.g.x.N.A.A.S.> *  .N N N N N N N N h N y y x h h h y e , : * , > , > , , e e y y N P P y * - N y N x x N N N x N P =.:.r.g.g.g.g.g.g.g.g.r.g.g.g.g.g., + P b.=.=.=.=.",
"N y y y y y e , , > > > > > , , 3 y y y y y N P P P P P =.=.=.:.:.r.r.r.r.r.r.r.r.=.:.r.r.r.g.x.S.A.D.H.> - n. . . . . . . .N N N y N N y y h h , , ; & , , , > , , x y y y P P P y * * y y y y y y N N y N N =.:.:.r.g.g.g.g.g.g.=.3 r.D.M.g.x $ @ * =.=.=.=.=.",
"N y y y y y e , > > > > > > , e e y y y y y y N P P P =.=.=.:.r.r.r.x.x.g.g.g.r.r.=.:.r.r.x.x.b.A.A.P.g.* - D.8. . . . . . . .N y N N x h h y , , , * # > > , , , , y y y y N P P h * * y y y y y x y N N N N =.=.=.:.g.g.g.g.g.g.P 3 V.M.r.=.& @ @ @ * =.=.=.=.",
"N y y y e e , , > > , , , , e y y y y y y y y N P P P =.:.r.r.r.r.x.b.b.g.b.x.r.=.=.r.r.g.b.x.M.N.x.D.- + *  .h  . . . . . . .N N N N N N N y , > > & @ * > , , , , , e y y y N P N * - x y y y x x x N N N N N N N P :.r.g.g.g.g.P 3 S.P y , # @ + > e =.=.=.=.",
"N y y e , , > > > > , e e e e e y y y y y y y N P P P P :.r.r.g.g.x.b.b.b.b.g.:.=.:.r.g.x.b.b.g., ; - + O + * * - ; ; - - - ; - - ; ; > > , , ; - * + @ + * ; > > ; > > > , , , , > & * e e 3 , , > > > > , , , , 3 e x N =.=.=.=.x * > : & # @ @ # N x.=.=.=.=.",
"x y y , , , > > > , , , e e e e y y y y y y N P P P P P P :.g.g.b.b.b.b.b.b.b.r.r.r.g.g.M.N.N.S.x.e , > * O O O O O O + + + # # + # % * + # $ $ $ $ # # # # $ $ $ $ $ $ $ $ $ $ # + + # $ $ $ $ # + + + + + + + # $ $ * - - : : : * # $ # + + + + @ , x.=.=.=.=.",
"x y , , > > > > , , , , y e y y x x y y N N N P P P P P P P g.b.b.b.b.b.b.b.b.x.g.r.g.b.b.S.S.S.H.D.x.:., + O + O O * > > > > > , , P e + * > > , , , , , > , , , , , > * + @ @ + : e , , , , , > * $ # @ @ @ @ + $ P V.A.V.A.D.V.:.N x y e , , y $ : x.g.:.=.=.",
"x x e , , > > > > , , e y y y y x y y N P P N P P P P :.:.r.g.b.b.b.b.b.b.b.b.b.b.g.x.b.N.S.S.N.V.H.V.r.y $ + > $ * , , , y P P P e , $ + * - : , , , , , , , y y y y y - # & - e D.x.N N  .N  .P P N 1 * @ & - > r.D.A.A.H.D.H.H.D.D.A.V.N.M.M.P + * x.x.x.:.=.",
"y y e , , , > > > , e y y y y x N N N P P P P P P =.r.r.r.x.b.b.b.b.b.b.b.b.b.x.g.g.x.b.S.S.S.S.S.A.H.x.3 $ 3 b.; ; , e P :.:. .N > - + + - - > h h y , , , , , e y y y > $ , b.P.N.N N N N N N N N :.D.e $ e r.N.N.:. .:.:.:.:.x.x.n.N.N.V.A.N.& @ * y.x.x.x.=.",
"y y e , , , , , , , y y N N N P P P P P P P P P P r.r.r.r.g.b.b.b.b.b.b.b.b.g.r.r.g.x.N.S.N.N.V.D.D.H.:.> * N.:.* ; y N G G N N N 1 > + + - - , P P N y , , , , , 3 y N N ; , N.N.G N N N N N G N N P r.N - g.A.N.:. . . .P P  .:.y.8.y.y.y.y.:.$ @ $ :.x.x.x.:.",
"y y y e e , , , e e y y N P P P P P P P P P P P P P P :.r.r.x.b.b.b.b.b.b.b.x.g.g.x.b.N.S.S.S.H.H.H.V.e % $ , - - e N G N N N N N N 1 + + - > h P P P N e , , , , , e y P y ,  .G N N N N N N N N N  . . .> :.x.r.:. .P P  . .:.:.y.y.y.y.:. . .* @ $ :.x.x.x.r.",
"y y y e e y y y y y y y y N N P P P P P P P P P P P P :.g.r.g.b.b.b.b.b.b.b.b.M.b.b.N.S.S.S.V.H.H.H.r.* + O O + - N G N h N G N N N > + + - , y P P P P N y , , , y y y N  .e N N N N N N G N G G N  . .:.N :.r. . . . . . . . . . .:.:.:. .P  .- @ # > P x.x.x.",
"y y e y y y y y y y y y x x N P P P P P P P P y , , , , y N P r.r.g.r.r.g.x.b.N.N.N.b.b.b.b.S.D.D.g.* O O + # * e y N h y N G N N N ; + + - ; 1 P P P P P P h 3 y y x x N P e h G N N N N N N N N N P  .r.r.r.r. . . . . . . . . . . . . . . . .> @ @ $ > :.:.x.",
"- , y y y y y y y y y y y y x N N N N P P N e * + O O O + + $ $ * * * * * * - ; ; * * * * * * * * $ + $ * * - , N y y y y N N G G N - + O $ > y P P P N N P P y y y y y x x y N G N N G N G N N N N  .:.r.r.r.r.:. . . . .P  .P  . . . . . . . ., @ @ @ # * * > ",
", e x x y y x x x x y y y y y y y y y N N x , e y * + + O * y y y.x.:. .:.r.r.r.:.y > > > , , , , , , h  .N y N N N N h N N N N N N - + + - h P P P P N y N h y y y y y x x x N N N N N G N N N N P  .r.r.r.r.r.r. . . .P  . . . . . . . . . . .> @ + * > r.x.A.",
"N N N N N N x x x x y y y y y y y y y y y x > y =.=.e - + - P g.D.U.K.F.D.B.S.S.S.S.b.y.y.y.r.r.:. . .:.x.x.P y N N N N N N N N G N ; + * h h P P P P P N y y y y y y y x x y N N G N N N N N N P  .:.r.r.r.r.r.r. . .P P P P N N  . . . . . ., $ @ + * e A.P.N.",
"N G  .G G N y y y y y x x x y y y y y e , e * ; , N =.e $ * y x.K.P.K.K.D.B.B.B.B.B.B.S.N.b.x.x.r.r.P P N x x N N N N N N N N N G N , + - N , y P P P P P P y y x x y y y N N N N N N N N N N N P  .:.r.r.r.r.r.:. . .N N N N N N N  . . . ., + @ @ $ - e A.N. .",
" . . . .N N N y y y y x x x y y y y y , , ; * ; ; , e , * * y.K.U.K.K.K.D.B.B.B.B.B.B.B.S.x.r.r.r.:.N N N y y N N N G N N N N N G  .e + * P y , h P P P P P y y x y y y y N N G N G N N G G N N P  .r.r.r.r.r. . . . .N N N N h x N N N N e $ + $ + & > N x. . .",
" . . . .G  .G N y y y y x x x y e y e , > % * ; ; ; ; * + * D.R.P.K.D.F.A.B.B.B.B.B.B.S.n.x.r.r.:. .P N h y y y N N N N N N N N G G e $ $ e N , , y P P P N y y x x y y y y N N N N G N N N N N P P r.r.r.r.r. . . .N N N y y y N N N y y * + * * # * > :.:. . .",
" . . . . . . .N N y y y y y e , , , , , * $ ; ; ; ; ; * + * P.T.K.K.B.B.B.B.B.B.B.B.S.n.n.x.r.r. . .N N N y y y y N N N N N N N N y , * + $ % $ $ $ * > , , y y N y y y y y x x N G N P N G  . . . .:.r.r.r.:. .P P N y y y y y y y y y > # * > * $ * , x.:. . .",
" . . . . . . .P N y y y , , , , , , , > $ * ; ; ; ; ; - + $ A.U.K.K.A.B.B.B.B.B.B.B.S.n.b.x.x.r.:.P N N N y y y y N N G N N N N h , , - + O O O O O O O + + $ * , e e y y x y y N N N P  . . . . . .:.r.r.r.:.P N N N y x x x x y y y y * * > > * $ * , x.:. . .",
" . . . . . . .G N y y , , , , , , , , * + - ; ; ; ; ; - # + e P.D.D.A.B.S.B.B.B.B.B.S.S.b.x.x.r.:.P N N N y x y y y N N N N N N N , , * O O O + * * * + O O + * ; , , y y y y y y N N N  . . .:.:. .:.:.:. . .N N h x N N x y y y y x , $ > > > * $ + $ ,  . . .",
" . . . . . . . .N h e , , , , , , > > $ $ ; ; ; ; ; ; - $ + - b.S.S.B.B.B.B.B.B.B.B.B.S.n.x.x.r.:. . .G N y x x y N N P P P P N N , - + O + $ ; 3 e P > # $ > > > > , e y y y y y N N N  . . .:.:. . . . . . .N y y y x x x y y y y y - * > > > - $ @ @ + >  . .",
" . . . . . . .G N y e , , , , , , > ; # * ; ; ; , ; ; ; $ + * N N.S.S.B.B.B.B.B.B.B.B.S.N.x.x.r.:. .P G N y y y y N P P P P P N y > $ O # * > e e 3 e , $ $ ; > > , , , y y y y N N P  . . . .:.:. . .:.:. . .N N y y y x y y y y x y * ; > ; - - $ O @ @ + ,  .",
" . . . . . . .G N y e , , > > , > > - $ - ; ; ; , , , ; $ + - r.n.n.S.B.B.B.B.B.B.B.B.S.b.x.y.r. . . .N y y y x x y P P P P P N , * O + * , h y 3 3 3 , $ $ * > > , , , e y y y N N P  . . . .r.r. .:.r.r.r.r.:. .N y y y y y y y y , * > > ; * * + o # * * 1  .",
" . . . . . . . .N N e , , > > > > > - # - ; ; > , , , > $ + > b.n.n.N.B.B.B.B.B.B.B.B.S.n.x.r.:. .P N N y y y N N N N P P P P e * + + * N x.N e 3 3 3 > # $ $ - > , , , e y y N N N P  . . . .r.r.:.r.r.r.r.r.r. .N y y y y x y e , > > > > - * * + O ; e h  . .",
" . . . . . . . .G N y , , > > > > > - $ - ; ; ; > , , > $ + y n.n.n.n.N.S.S.S.B.B.B.B.S.n.b.y.:. . .N N N N y y N N N P P P h > + + - :.n.P N y 3 3 3 , # + $ - > > , , e y y h N N P  . . .:.r.r.r.r.r.r.r.:. .P N y y y e 3 , > > > > > - * * * + O - , y N  .",
" . . . . . . . .G N y e , > > > > > - $ - ; ; ; ; , > - $ $ r.S.N.n.n.n.n.n.n.N.N.S.S.N.n.n.b.r. . .P G N N N N N P P P P N 1 * + > b.x.P N N N y 3 3 3 - + + * > > , , , y h N N G P  . . .:.r.r.r.r.r.:. .:.:.P N y y y , > > > > > > - * * * * + o * > , y N ",
" . . . . . . . . .N N y , , > > > > > % * * - - * * * & + - B.K.A.n.n.n.n.n.n.n.n.n.n.n.b.b.x.x.:. .P N N N G G N P P P P N > $ > y.y.N N N N N N e 3 3 3 * @ $ ; > , , y h N N N N G P  . . .:.r.r.r.P h :.n.b.:.y y y y , , > > > > > * * * * * + o + ; e y y ",
" . . .G h r h h h e , , > > > > > ; - $ $ $ $ $ + + + + O ; K.K.K.S.n.n.n.n.n.n.n.n.n.b.x.x.x.r. . .G N N G N N P P P P P y - ; P P P P P P N N N e 3 3 e - @ @ * > > , y N N h x N N  . . . .r.r.P > $ $ * , :.N y y y y e , , , > > ; * * * * * + o o + , N y ",
"G h > * $ # # + + # + # + + + + + + + O O O O O O O O O O * N.K.K.K.S.n.n.n.n.n.n.n.n.b.x.y.r.r. . .N N N N G N P P P P N y > x =.:.:.:.:.P N N N y 3 3 , * @ @ + * ; > , , , , , , , , , , , > - $ @ O O O + $ * - - - - * - * * * * * * * * * & + O o o * e y ",
"% # + O O O O $ - , 1 1 , ; * $ $ + O + $ * - - - * $ + $ $ $ - N S.B.b.b.n.b.n.n.n.n.b.x.x.r.:. .N N N N G N N P P P P N y , P :.:.:.:.:.:.P N N h 3 > - * + + + + + $ * * - % $ $ + + $ $ $ $ $ $ $ * > * + * * * & & $ $ $ $ $ # + + + + @ # - > , ; $ O + $ ",
"$ $ $ # * $ O > N P :.:.:.:.:.N y ; $ * e y y x y , * O r.R.y # + * , r.b.b.x.x.b.n.n.n.x.x.r. .G N N N G N N N P P P P P N N  .:.:.:.:.:.:.P P N N y , > > > , , * , N e 3 y e , , + + x x.b.x.g.g.x.b.M.r., b.:. .N N x e 1 , , ; - * * * $ $ , :.x.P ; * % % ",
"- - ; > y ; + > x y y y x x x y y y > - e e e y 3 * O O b.).E.y y U.!.P.x.b.x.x.x.x.b.n.b.y.:.P N N N N N N N G P P P P P P P  .:.:.:.:.:.:.P P P P N N N N y y 3 ; y , > > , , , 1 # + , =.r.g.g.r.r.:.:.P - e N e , , , , > ; ; ; ; ; ; ; ; * ; , > ; = = = = ",
"- - - - , e $ > y y y y y y y e 3 e e , e 3 3 3 , > > # S.R.r.b.!.).F.b.b.n.b.x.x.x.x.x.x.y. .P N N N N N N N N N N P P P P P :.:.:.:.:.:.:.P P P P N P P P P N e > , > > , , , , , $ $ , e e e e y y e e e * ; > > > > > > > ; ; ; ; ; ; ; ; ; ; ; ; = = = = = ",
"- - - ; , , $ > 3 e y y 3 3 3 3 3 3 e y e 3 3 3 N N.S.* , y r.!.E.n.b.n.n.n.n.b.b.b.x.x.x.r.:.P N N N N N G N N N N N N N N P P :.:.:.:.:.:.P P N N N P P P P N N e , > > , , , , , $ $ , y e 3 e 3 3 e e , & ; > > > > > > > > > ; ; ; ; ; ; ; ; ; ; = = = = = ",
"- - - > > > $ > 3 3 3 3 3 3 3 3 3 3 3 3 3 3 3 3 y :.x.* * , K.U.x.x.x.n.n.n.n.n.n.b.b.x.r.r.r. .N N N N N N N N N N N N N N N P P P P :.:.:.P N N N N P P P P N h e , , , , , , , , $ $ , e y y e 3 y e y , - > > > > > > > > > > ; ; ; ; - ; ; = = - = = = = = ",
"- - - > > ; + > 3 3 3 3 3 3 3 3 3 3 3 3 3 3 3 3 3 h h $ $ , P.K.x.x.x.b.n.b.n.n.n.n.b.x.r.r.r. .P N N N  .N N N N N N N N N N N P P P :.P e N N N N P P P P N N e e , > > > > , , , $ $ , e e e e y y e , > > > > > > > > > > > > > ; = = = = = = = = = = = = = ",
"- - - - - * + > , , , , , 3 3 3 3 3 3 3 3 3 3 3 3 y y $ # , P.K.x.x.x.b.b.:.n.n.n.n.b.x.r.r.r. . .N N G P P N N N N N N N N N N G P P P e , N N N N P P P N N N y y e , , , , > , > $ * , y e e e e e , ; ; ; ; > > > > > > > > ; ; ; = = = = = = = = = = = = = ",
"- - - * $ + + > , , , , , , , , 3 3 , , , , , 3 3 y y $ $ 1 D.S.y.x.x.x.b.x.n.n.n.n.b.x.r.:. . . . . . .P G G N G N N N N N N N N P P P P N N N N N N P P P P N h y e , , , > > > > $ * , e e y , 3 e > > ; ; ; ; > > > > > ; ; ; ; ; = = = = = = = = = = = ; ; ",
"- - * $ $ + + ; , > , > > > , , , , , > > > > , , e e $ $ e A.N.x.x.x.x.b.n.n.n.n.n.b.x.:. . . . .P P  .N N N N N N N N N G N N N P P :.P N N N N N N P P :.P N N N y , > , , , , , $ * , , , y y , : > , > ; ; ; ; ; > ; ; ; ; ; ; ; = = = = = = = = = = = ; ; ",
"* $ $ $ + + + - , , > > > > > > > , , > , , > > , , , $ $ P D.N.x.x.x.x.x.b.n.n.n.n.b.x.:. . . . . .N N N N N N N N N N P G G N N P r.r.P P N N N N N P P P :.P N N x e , , , , > ; $ * , , > , y ; $ , , > > > ; ; ; ; ; ; ; ; ; ; ; ; ; ; ; ; ; ; ; ; = ; ; ; ",
"; > $ # + + O * , > > > > > > > > , , , , , > , , > , $ - b.D.n.x.x.x.x.x.b.n.n.n.n.b.x.r. . . .P N y y N N N N N N G P P N N G P P :.:.P P P P P P P P P P r.=.P N N y e e e , ; * + * > , > > , > , y e e , > ; ; ; ; ; ; ; ; ; ; ; ; ; ; ; ; ; ; ; ; ; ; ; ; ",
"> N.r., , $ O + ; , > > > > > > > > , , , , > , , > > $ - S.D.b.x.x.x.x.b.b.n.b.b.b.x.x.r. . . .N N N y y y y N N N N P P  .N  .P P :.r.r.=.P P P P P P P :.r.P P P N y e e e , ; $ + * ; > ; > , 3 e e e y , > > ; ; ; ; ; ; ; ; ; ; ; ; ; ; ; ; ; ; ; ; ; ; ; ",
"; , e e e * O O $ > , > > > > > , , > > , , , , , , > # - D.K.b.x.x.x.x.x.b.b.x.x.x.x.r.:. .P P  . .G N y y y N N N N P P P P P P P :.r.g.:.P P P P :.r.:.r.r.:.P N N y e 3 , , > $ + * ; > ; > > > , y e e e > > ; ; ; ; ; ; ; ; ; ; ; ; ; ; ; ; ; ; ; ; ; ; ; ",
"> > > , e * O O O $ - ; > > > > , , , , , > , , , > > + - P.K.b.y.x.y.x.x.x.x.x.r.r.r.r.:.P N N  . . .N y y y N N N P P P P P P P P :.r.r.P P P P :.r.r.r.r.y > - - - - * * * * * + O + * - ; ; ; > > e e e e > > > ; ; ; ; ; ; ; ; ; ; ; ; ; ; ; ; ; ; ; ; ; ; ",
"> > > , , $ O O O + $ - > > > > > > > > > > , , , , > + , P.B.x.r.y.y.x.x.x.b.x.r.r.r.r. .P N N G N N N y y y y N N P P =.P P P P P r.r.r.=.P P :.r.r.r.r.> + + O O O O O O $ $ + O + * * * - ; ; ; > 3 e e 3 > > ; ; ; ; ; ; ; ; ; ; ; ; ; ; ; ; ; ; ; ; ; ; ; ",
"> > > > > $ O O $ * - > > > > > > > > > > > , e , e - + N K.x.r.r.r.y.x.x.x.b.x.x.x.r.r. . .N N N y x x x y y y N N P P =.P P P P r.r.r.r.:.P P r.r.r.:.; $ $ $ + O O O + & * ; * + + * ; ; ; ; ; ; ; > , , , > > ; ; ; ; ; ; ; ; ; ; ; ; ; ; ; ; ; ; ; ; ; ; ; ",
"> > > ; * + O + * ; > > > > > > > > > > , e y y y , * + P K.b.r.r.r.r.x.x.x.x.x.x.y.r. .P  .P N N h y y N y y y N N P P P P P P :.r.r.r.r.r.:.:.r.r.r.> * * * $ + O O + * * * ; > + + - ; ; ; ; ; ; ; ; > > > > ; ; ; ; ; ; ; ; ; ; ; ; = = = = = = ; ; ; ; ; ; ",
"> > > * + O O $ - > > > > > > > > > > , y N y y y , * + e x.S.N.r.r.r.r.y.y.x.x.y.r.:.P N N N N N N N N N N y N N N P P P P P P r.r.g.g.r.r.r.r.r.r., * * * * $ + O O O + $ * - - + $ ; ; ; ; ; ; ; ; ; ; > > > > ; ; ; ; ; ; ; ; ; ; = = = = = - ; ; ; ; ; ; ; ",
"> > > * $ + O $ * ; > > > > > > > > > , , , , > , > $ + , y y P P x x P :.r.r.y.r. .P  .N N y y N N N N G N N N G  .P P P P P P r.r.P N r.g.g.g.g.x * * $ + + + O O O O o o O + + o $ - ; ; ; ; ; ; ; ; ; > > ; ; ; : ; ; ; ; ; ; ; ; = = = = - - = = ; ; ; ; ; ",
"> > > > * $ O + * * * * * * * * * * * * * * % * * * + O $ * * - * $ * * * * - ; - * * ; > > , , , , e e 1 1 , 1 1 e 1 , , , , , e , # @ - N e > ; $ O + O O O O O + + + + O O o o + * ; ; ; ; ; ; ; ; ; ; > ; ; : : : : : ; ; ; ; ; ; = = = = = = * = = ; ; ; ; ",
"> > > > ; $ O O + + + + + + + + + + O + + + + + + + + O O + + + + + O o o o $ > > > > , , , , , $ O O + * - - * * $ $ $ & * * $ $ $ + + $ $ $ + O O O O + + * ; , > ; ; ; - + o O $ > ; ; ; ; ; ; ; ; ; ; ; ; * * : : : : ; ; ; ; ; ; = = = = * = * = ; ; ; ; ; ",
"> > > ; - $ + O O O O O O + + + + + + O O O O + + # + $ : , y y y , > * O + , b.M.M.M.N.M.M.M.b.- @ o ; P.P.U.P.D.D.V.V.S.S.S.N.x.x.y.y.x.x.b. .* * e h P x.N.B.B.S.n.y.N ; + o + *  .e - - - - ; - - - - * $ $ - : : : : ; ; ; ; ; ; = = = = = ; ; ; ; ; ; ; ; ",
"$ $ $ + + + + O O O + $ * ; > > > > ; + O + - e :.x.r.x.b.M.S.S.S.S.S.b.* $ y b.N.M.M.x.r.P P r.:.* + , S.V.D.S.r.r.r.:.:. .P  . . .P  .g.b.N.x., , :.x.y.y.:. . .8.K.P.N - + o + - :.x., - - - - * * * * + O * : - * * - - - - ; ; ; * * * * * * * % $ $ # # # ",
"O O O O O O O O + * - > e P N N N N e $ O * N :.N y y y y y y y y y P x., ; x.A.A.M.b. .P P P P r.- # , P P P P P P P P P P P P P P P r.b.b.M.b., , N G G G G G G G y.S., - + O + * e N , - * * * & $ $ + O O + $ + + # * * $ # $ $ % * $ $ $ $ # + O O O O O O "
};
