/* XPM */
static char *texture03[] = {
/* columns rows colors chars-per-pixel */
"128 128 182 2 ",
"   c #442B1D",
".  c #4B2E1D",
"X  c #512F1D",
"o  c #4E301E",
"O  c #54311E",
"+  c #5B341E",
"@  c #64361F",
"#  c #69371F",
"$  c #6A381F",
"%  c #462F21",
"&  c #4D3322",
"*  c #553421",
"=  c #5B3621",
"-  c #563825",
";  c #5D3924",
":  c #563B29",
">  c #5B3D29",
",  c #633720",
"<  c #693720",
"1  c #643B24",
"2  c #6C3B22",
"3  c #633E28",
"4  c #693F28",
"5  c #713E24",
"6  c #5B402F",
"7  c #674027",
"8  c #6C4127",
"9  c #65422A",
"0  c #6C442A",
"q  c #6E492D",
"w  c #734226",
"e  c #794527",
"r  c #7F4A27",
"t  c #734529",
"y  c #794629",
"u  c #74492D",
"i  c #7B4A2C",
"p  c #7A502F",
"a  c #644733",
"s  c #6D4730",
"d  c #664936",
"f  c #6E4B32",
"g  c #704730",
"h  c #744D31",
"j  c #7A4E31",
"k  c #6E5137",
"l  c #775133",
"z  c #7C5334",
"x  c #7F5836",
"c  c #73523A",
"v  c #7C5639",
"b  c #7E593A",
"n  c #804A27",
"m  c #834D2C",
"M  c #884F2C",
"N  c #83502E",
"B  c #814F30",
"V  c #825434",
"C  c #895633",
"Z  c #835936",
"A  c #8B5A36",
"S  c #825638",
"D  c #845B3A",
"F  c #8A5E3A",
"G  c #905935",
"H  c #8C623D",
"J  c #926336",
"K  c #92643C",
"L  c #91673E",
"P  c #90653D",
"I  c #95673C",
"U  c #96673C",
"Y  c #92653D",
"T  c #97693E",
"R  c #95683E",
"E  c #9A6B3E",
"W  c #9B6C3F",
"Q  c #996A3E",
"!  c #835E41",
"~  c #866043",
"^  c #8D6442",
"/  c #8D6844",
"(  c #876349",
")  c #8C674D",
"_  c #8E6849",
"`  c #926641",
"'  c #916841",
"]  c #966C41",
"[  c #956A43",
"{  c #9B6C40",
"}  c #9C6E40",
"|  c #9B6D43",
" . c #946C4A",
".. c #9A6F49",
"X. c #9B7043",
"o. c #9E7042",
"O. c #9F7345",
"+. c #9E7145",
"@. c #9D724A",
"#. c #956E52",
"$. c #A16F45",
"%. c #A27245",
"&. c #A17445",
"*. c #A27546",
"=. c #A47546",
"-. c #A67546",
";. c #A67747",
":. c #A37446",
">. c #A87747",
",. c #A77847",
"<. c #A77847",
"1. c #A97847",
"2. c #A6774A",
"3. c #A47649",
"4. c #A97649",
"5. c #A7794B",
"6. c #A77A4C",
"7. c #A6784B",
"8. c #A97948",
"9. c #A97A48",
"0. c #AB7A49",
"q. c #A87A4B",
"w. c #AB7B4A",
"e. c #AD7C4A",
"r. c #AE7E4B",
"t. c #A97B4C",
"y. c #A97C4D",
"u. c #AB7C4C",
"i. c #AD7E4D",
"p. c #AC7E4D",
"a. c #AE7E4C",
"s. c #AF7E4C",
"d. c #AE7E4D",
"f. c #AC7E4F",
"g. c #AD7D4C",
"h. c #AB7C4C",
"j. c #B07F4C",
"k. c #B07F4D",
"l. c #B07F4D",
"z. c #A27651",
"x. c #A67A53",
"c. c #AC7E51",
"v. c #A57B5A",
"b. c #A87D5C",
"n. c #B07F51",
"m. c #AE804F",
"M. c #AF804F",
"N. c #B1804D",
"B. c #B0814F",
"V. c #B1814E",
"C. c #AF8252",
"Z. c #AE8050",
"A. c #AE8151",
"S. c #AF825A",
"D. c #B28250",
"F. c #B28352",
"G. c #B08252",
"H. c #B18453",
"J. c #B38452",
"K. c #B28453",
"L. c #B38453",
"P. c #B58451",
"I. c #B58552",
"U. c #B48553",
"Y. c #B58654",
"T. c #B48553",
"R. c #B88755",
"E. c #B78856",
"W. c #B98957",
"Q. c #B3855A",
"!. c #B8875D",
"~. c #B68959",
"^. c #BC8D5A",
"/. c #BF905D",
"(. c #B38E64",
"). c #BD9162",
"_. c #C1925E",
"`. c #C49562",
"'. c #C69965",
"]. c #C89B67",
"[. c #C99C68",
"{. c #CBA069",
/* pixels */
"< < < < < < < < < 2 < < < < < < < < < < < < < < < < < < < 2 2 < 2 2 2 2 2 2 2 2 2 2 2 2 2 < < < < < < < < < < < < < < < 2 2 2 2 2 2 2 2 2 2 2 2 2 2 2 2 2 2 2 2 2 2 2 2 $ $ $ $ < < < < < < < # < < # # < < < < < < < < < $ $ $ # # # # $ # < < < < < # # # # # ",
"+ + + + + + + + + 1 + + + + @ @ @ , < < < 2 2 < < < < < < < < , < < < < < < < < + + , < < , @ @ @ @ , , @ @ @ < , + + + + + + 8 t < @ @ @ @ , , , < < < < 2 2 < , , , , @ + @ 8 < @ + + + + + + + + + + + , = , < , < < < < < < < , , < , , , , , , , , @ = = = ",
"8 = O 3 7 q q q q q h z z z l l z z F P R { I 1 O 3 H H F D Z Z Z D F H P ] D O o q Z D Z V V V V x V Z Z Z z 0 - * 9 9 9 0 q u V F z l z x V 7 * = u u u z z z z p u p p p u ; O O q q u q q q q u h h z z z 7 O * l D D Z D H D S b v b b b v z z z l l 9 = 4 ",
"w u 7 I E o.-.-.-.,.0.0.e.e.a.a.a.k.k.N.k.k.k.x o 0 %.0.0.a.N.F.J.U.U.U.U.U.u.9 ; F 0.w.e.N.N.N.N.a.e.e.0.0.-.9 & l *.*.-.0.a.a.a.a.a.a.a.a.a.H * ; R ] X.O.*.*.*.O.o.} W W R =   9 0.a.a.M.F.J.J.J.J.J.U.Y.Y.' * ; ` 3.0.a.N.J.J.J.J.F.J.F.Z.Z.c.a.u.7.6.D ; t ",
"5 u 7 I } -.<.0.e.a.k.k.N.N.N.N.N.N.N.N.k.k.k.H z u | u.F.F.U.W.W.W.W.W.Y.U.a.H h F e.N.U.Y.Y.Y.U.U.J.F.N.w.>.S q z -.-.u.k.N.J.U.U.U.U.F.N.a.H u ; H { O.*.3.3.*.*.*.O.} E R 0 1 7 u.F.U.Y.W.W.^.W.W.Y.Y.Y.E.| S 8 ` 0.a.J.Y.W.W.W.W.E.E.Y.Y.Y.Y.J.Z.u.6.H = t ",
"5 4 ; K %.<.e.k.N.N.F.U.U.Y.E.Y.Y.U.U.U.F.N.k.A V i O.N.U.W.^.^.^.^.^.^.^.W.Z.^ u K N.U.W.W.W.W.W.W.W.Y.U.N.0.V q V 7.e.N.U.W.^.^.^.^.^.W.J.a.F j 7 P O.*.7.7.u.7.*.*.*.o.W E q h q Z.Y.W.^./._._._.^.u.F.W.^.[ D 0 ` 0.Z.Y.W.^.^.^.^.^.^.^.W.W.E.Y.J.Z.u.H = w ",
"5 < ; I ,.e.N.F.Y.E.W.^.^.^.^.^.^.^.^.W.Y.J.N.F V i 3.F.W.^.^._._._._./.^.^.F.^ j I F.E.W.^.^.^./.^.^.W.W.U.a.V g D a.N.W.^._._._._._._.^.W.F.H h 9 { *.0.u.u.u.u.7.-.*.O.} E u z z U.^._.`.`.'.'.`.`.y.K./.).[ S t ` a.J.W.^.^././././.^.^.^.^.^.E.Y.Z.a.D = t ",
"5 w ; { 0.k.U.E.W.^.^.^.^./._./._._.^.^.W.Y.U.F j z 0.Y.^._.`.`.`.`.`._./.^.Z.^ j E U.W.^._._._._._._./.^.Y.a.D j F N.W._.`.`.`.`.`.`.`._.W.U.H S u O.7.a.Z.Z.Z.a.u.0.-.*.o.E 9 z V E._.`.'.].].].'.'.'.`.`.`. .D i { a.Y.^.^././././._./././.^.^.Y.D | Z.D = t ",
"w u 7 %.a.J.W.^.^./._._.`.`.`.`.`.`.`./.^.W.Y.D j V u.W.^.`.`.`.`.`.`.`./.^.K.^ j } W.^._._._._._._._./.^.Y.a.D z P R._.`.'.].].].].'.`.`.^.Y.H D z 7.a.Z.Z.Z.Z.c.u.u.3.*.O.{ 0 z V W._.'.].].].[.[.].].'.`.`.@.F z | N.W.^.^._.`.`.`.`.`.`._./.^.K.H @.F.D = t ",
"w j 0 *.N.E.^.^._.`.`.`.`.`.`.`.`.`.`.`./.^.E.H V S a.W./.`.`.`.`.`.`.`./.^.K.^ i } W.^._._._._._._._./.^.Y.a.Z z ` ^._.`.[.[.[.[.[.[.'.`._.W.H S V u.M.Z.Z.Z.Z.Z.u.u.3.%.O.{ 0 z V W.`.'.].[.{.{.{.{.[.].'.`.@.F m | F.W.^./.`.`.`.`.`.`.`._./.^.^.E.Y.Y.S = t ",
"w V u 0.Y.^.^._.`.`.`.`.`.`.`.`.`.`.`.`._.^.W.H F j a.W./.`.`.`.`.`.`.`./.^.Y.^ i } W./._._._._._._._._.^.W.a.F V | ^.`.'.[.[.[.[.[.[.'.`._.W.F x x 0.a.Z.Z.Z.Z.Z.u.0.3.*.O.{ q z V W.`.].[.{.{.{.{.{.{.].'.`...S i } F.W.^._.`.`.`.`.`.`.`.`._./.^.W.W.E.D * w ",
"w V j N.W.^._.`.`.'.'.`.'.'.`.'.'.`.`.`._.^.W.H F i a.W._.`.`.`.`.`.`._./.^.Y.^ i ] W.^._._._._._._._./.^.E.a.F D | _.`.].[.[.[.[.[.[.'.`._.^.H S V 7.a.Z.Z.Z.Z.Z.u.0.3.*.O.{ q z V W._.].{.{.{.{.{.{.{.[.].'...F i } F.W.^._.`.`.`.`.`.`.`.`._./.^.^.^.E.H * 8 ",
"w z j K.^./.`.`.`.'.'.`.`.`.'.'.'.'.`.`./.^.^.` F i u.E./.`.`.`.`.`._././.^.K.D i E W.^._._._._._._._./.^.W.a.D D O._.`.[.[.[.[.[.[.[.'.`._.^.H S V 0.u.Z.Z.Z.Z.Z.Z.u.3.*.O.{ q z V W._.'.{.{.{.{.{.{.{.[.].'.@.^ i | F.^.^._.`.`.`.`.`.`.`.`.`././.^.W.Y.D * t ",
"5 j z Y.^._.`.`.'.'.`.'.'.`.'.'.'.'.`.`.^.^.^.] D z u.Y.^._.`.`.`._./.^.^.^.Y.D u E Y.^._._._._._._._.^.W.Y.u.D D O._.`.[.[.[.[.[.[.[.'.`._.^.H D V 0.u.Z.Z.Z.Z.Z.Z.u.7.*.*.{ q z z Y._.].{.{.{.{.{.{.{.[.].'.@.H u %.F.W.^./.`.`.`.`.`.`.`.`.`._./.^.W.Y.D - i ",
"5 t j F.^.`.`.`.`.`.`.`.`.`.`.`.`.`.`.`./.^.^.| F V a.Y.^._.`.`.`././.^.^.^.Y.F q { U.W._._._._._._._./.W.Y.u.V V | _.`.[.[.[.[.[.[.[.'.`._.^.` D D 7.u.Z.Z.Z.Z.Z.Z.u.0.3.*.{ u V z Y._.].{.{.{.{.{.{.{.[.].`.@.D u %.F.W.^./.`.`.`.`.`.`.`.`.`.`.^.^.W.J.D ; i ",
"5 w 7 H ^.`.`.`.`.'.'.`.'.'.`.`.`.`.`._._.^.^.` D V a.U.^./._.`././.^.^.~.~.K.D q { U.^._._._._._._._./.W.Y.u.x V | _.`.[.[.[.[.[.[.[.'.`._.^.` F D 3.u.Z.Z.Z.Z.Z.Z.u.u.7.*.{ u v V E.`.].].{.{.{.{.{.{.[.].`.@.D j %.F.^.^._.`.`.`.`.`.`.`.`._._.^.^.W.J.x ; u ",
"5 w 7 ' ^._.`.`.`.'.`.`.'.`.`.'.`.`.`.`./.^.^.` D Z a.J.^./././././.^.W.~.K.K.S u { U.^._._._._._._._.^.W.Y.a.S S ] _.`.].[.[.[.[.[.[.'.`._.^.H F D 3.u.Z.Z.Z.Z.Z.Z.u.u.7.*.{ q z V W.`.].].{.{.{.{.{.{.].].`.@.D j %.J.W.^./.`.`.`.`.`.`.`.`././.^.^.Y.F.l ; t ",
"5 w h c.W.^.`.`.`.'.'.'.'.`.`.'.`.`.`._.^.^.^.` D V u.F.W.^./././.^.^.W.~.Z.Z.S u } U.^./._._._._._./.^.W.Y.a.D z { ^.`.].[.[.[.[.[.[.`.`._.^.H F D *.u.Z.Z.Z.Z.Z.Z.u.7.-.*.{ q j V W.`.].].{.{.{.{.{.].].'.`. .D j -.J.^.^./.`.`.`.`.`.`.`._./.^.^.W.Y.Z.l 1 t ",
"5 8 h a.Y.^./.`.`.`.'.'.`.`.'.`.`.`._./.^.^.W.P S z 3.F.E.^.^.^.^.^.^.~.~.Z.u.z j %.U.W.^./._._._./.^.W.W.Y.u.x j { W._.'.[.[.[.[.[.[.'.`._.W.H S D *.0.Z.Z.Z.Z.Z.Z.u.7.7.*.o.u j z E._.'.].[.{.{.{.{.].].`.`.[ V z -.F.^.^./.`.`.`.`._.`._././.^.^.E.F.a.x 1 y ",
"5 4 q 7.F.E.^._.`.`.`.`.`.`.`.`.`._./.^.^.W.E.F V j *.a.Y.W.^.^.^.^.~.~.K.Z.6.x z } U.W.^././._././.^.W.E.J.0.z j ] W._.`.].[.[.[.[.'.`._._.W.H V V %.3.u.Z.Z.Z.Z.a.u.u.0.3.O.u l V W._.'.].].].[.[.[.].'.`.).` V i *.N.W.^.^./._._././././.^.^.^.E.J.Z.w.Z 1 y ",
"5 4 0 %.0.F.E.^._.`.`.`.`.`.`._._.^.^.^.W.E.E.H V u *.u.J.E.W.W.~.~.~.K.Z.Z.6.S z ] N.Y.W.^././.^.^.W.W.Y.N.0.l h Y U.^.`.'.].].].'.`.`._.^.W.D h h O.3.u.a.Z.Z.Z.u.u.u.7.3.O.h h V Y.^.`.'.].].].].'.'.`.`.^.H z i O.u.Y.^.^.^./././.^.^.^.^.^.W.J.F.a.0.D 4 y ",
"5 8 0 { -.a.Y.W./._.`.`.`.`._.^.^.^.W.E.E.Y.Y.Y V q O.7.a.Z.K.Q.~.~.Q.H.Z.Z.7.S u I N.Y.W.W.^.^.W.W.W.Y.J.k.0.j u F N.W._.`.`.`.`.`.`._.^.W.Y.F h h O.*.0.u.Z.Z.c.u.u.7.7.*.O.u s z U.W._.`.'.'.'.`.`.`.`.^.W.H z i O.-.a.Y.W.^.^.^.^.^.^.^.^.W.Y.F.Z.u.<.D 4 y ",
"5 4 0 ' O.7.Z.Y.W.^.^./.^.^.^.W.E.Y.Y.U.J.F.N.H h q | %.7.u.a.Z.Z.Z.Z.Z.a.a.:.z t I a.U.Y.W.W.W.E.Y.U.N.k.e.3.h u D a.U.^._.`.`.`.`._.^.W.Y.F.D f h O.*.3.0.u.a.u.u.7.*.*.*.{ q 0 j F.Y.^._._.`._._./.^.^.W.Y.H z u o.*.0.Z.F.Y.W.W.W.W.W.E.Y.J.M.a.0.7.-.D 1 y ",
"y w 0 ' | -.0.Z.Y.E.E.E.E.E.Y.Y.J.N.N.N.k.a.k.D 3 u | | *.3.0.u.u.u.a.a.u.a.| j 0 Y w.a.N.F.U.F.F.F.k.e.e.0.:.h q S 0.F.W.^.^./._._.^.W.Y.Z.c.S 0 q ] X.*.3.7.7.7.7.3.*.%.O.{ q f u u.M.U.W.W.^.^.W.W.W.Y.U.F.^ z u O.O.-.e.Z.F.F.F.J.F.F.Z.a.u.0.3.-.*.-.D 1 y ",
"G j 9 ^ ` } %.*.0.u.a.a.a.a.a.a.7.-.-.-.-.<.-.j = q R R R ] o.O.*.:.3.0.u.a.D u , D %.%.-.-.<.-.-.-.%.%.%.O.' 3 1 V $.0.a.F.J.Y.Y.U.F.c.u.6.:.l * q R { X.{ o.O.O.O.O.o.o.O.` 7 3 0 3.-.3.u.a.u.7.7.u.u.u.6.3.D u 0 ` { { %.7.3.6.3.7.3.3.%.-.%.} { { } o.z ; t ",
"y 8 = 1 1 8 8 8 8 8 8 8 8 8 w 0 t t y u y y i A Y i 8 0 t t u u t u u z P 0.Z ; + = 3 1 4 8 w t 8 t t t t 0 8 0 = 1 q u u u h j j h u u u u u 0 0 = 7 0 9 0 9 9 9 9 0 0 9 9 0 = * ; 0 7 0 0 0 0 0 0 8 0 8 8 8 u i 4 t u y t t 8 0 8 8 0 0 0 t w 8 8 8 8 8 , = 1 ",
"5 w 5 w t y i m m i i y t t y i i m i i y e y m V i y y i i y y y y y y i F K H D t w w w t t t y y i i i i i S u 4 8 u i i y y y y i i i i j S S u t t w w w w w t w w w w t t t t 8 8 8 8 t i i i i y t t w t y t t y i i y y t t w w t t w w w w 5 5 5 2 2 2 ",
"@ @ @ @ < 2 < 2 2 2 2 2 2 2 2 2 2 2 2 2 < < < < < < < < < < < 2 2 2 < < < < 2 5 2 # # # < $ < $ < < < $ $ < $ # # # # # # < < < < < 2 5 5 5 5 5 5 5 2 < < @ @ @ @ @ @ @ < < < , @ @ @ @ , , , < , , @ @ @ @ @ @ @ @ < < 2 2 2 2 < < < < # # @ @ @ @ @ @ @ @ @ @ ",
"@ @ @ < < 2 2 2 2 2 2 2 2 2 2 2 2 2 2 2 2 2 2 2 2 2 2 2 < < < < < 2 2 2 2 2 2 2 < $ $ $ $ $ $ $ < < < < < < < $ < < < # # # # # $ 2 2 5 5 5 5 5 5 2 < < < < < < < < < < < < < < < < < < @ @ @ @ @ , < < < < < < @ < < < 2 2 2 2 2 2 2 2 2 2 2 2 < < @ @ @ @ @ @ ",
"< < + + + = = , < 1 2 2 < < < , , , < < < < , , , , + + O O O O O X O + + + + + + @ @ @ @ @ @ @ + + + + + + + , < + + + + O O 1 + + , , , , , , < < < < @ @ @ @ @ @ + @ @ , @ , @ @ @ + + + + O O + + + = = + + + + + + + + + + + + + @ @ , , , + + + + + + + < ",
"y V 9 x Z D F H H P P P H H H H H H H H H H H D Z x 9 = < . = j h O o 9 3 x H F H H F D F P R H F D D D D D D P { V V D F 7 - j 1 O 3 h h z l l l l l l h ; ; ; 1 1 3 ; ; ; 7 u z V 7 + = . * * * . * * * h l h z z x z z z z z x x V D F H D D D Z V V N 7 = z ",
"w y 0 H { O.3.7.0.0.0.0.0.0.0.0.0.0.<.0.<.-.*.O.o.D 3 w w X 1 V V 1 9 y 8 u *.a.N.F.U.U.U.U.U.U.U.U.U.U.U.U.J.F.N.N.j.0.0.x 0 t t 1 Z 0.M.U.K.Y.Y.U.J.Y.Y.^ 0 q u q 0 7 7 q { 0.0.R 1 0 4 O 3 i w = 0 h > h | *.3.0.a.N.N.N.N.N.N.N.N.a.a.a.u.,.*.} E I J 0 ; u ",
"5 8 7 H { %.3.0.e.e.e.a.e.e.e.e.e.e.w.0.<.0.7.*.O.u , t w X ; i t 3 q w u 1 H M.J.E.W.W.W.E.E.E.E.W.E.W.W.E.E.E.Y.Y.U.a.w.x 1 w w 1 Z a.U.E.W.W.W.W.W.E.E.K.c.S.Q.S.:.{ { :.u.0.E 3 7 4 @ + + j t ; 0 u 0 * H *.0.N.F.U.Y.Y.U.U.U.U.U.U.F.N.a.0.-.%.W U J 0 = t ",
"5 w 7 P | 3.0.e.a.N.J.J.J.F.N.N.N.a.a.a.e.0.<.-.R ; 8 t t = = i w 1 0 w t 9 u e.U.W.^.^.^.^.^.^.^.^.^.^.^.^.^.^.W.W.E.U.k.Z = w w , Z F.W.^.^._./.^.^.^.^.W.E.E.E.Y.J.N.Z.a.a.a.z 1 j < 4 < O i w 1 0 u u = 9 O.0.F.E.W.^.^.^.W.W.W.E.W.Y.Y.J.N.e.,.*.W I u ; j ",
"5 w 0 R %.7.e.N.U.U.U.Y.Y.Y.U.U.Y.J.N.e.e.e.0.3.l = t t t , = i t = , y y j 3 { F.W.^./._._._./._._._._._.`.`._._.^.W.Y.N.Z = t w = S E.^._.`.`.`.`.`._.^.^.^.W.W.W.E.Y.K.F.Z.u.q 0 j t u 4 O j t ; 0 u u 8 * F e.U.^.^._._._.^.^.^.^.W.W.W.W.Y.N.e.7.o.E u ; z ",
"5 t 0 ` 3.0.N.J.U.U.Y.^.^.^.E.U.U.U.U.N.a.a.0.{ 3 0 t t 4 O = i y = . u i V 0 z M.E.^.`.`.`.`.`.`.`.`.`.`.`.`.`.`._.^.W.Y.H 1 m w = D W.^.`.`.`.`.'.`.`.`._.^.^.^.^.W.E.Y.Y.F.3.7 t u u t X O j t ; * u u u = 7 7.U.^./._._._._._._./.^.^.W.W.W.Y.N.0.-.{ u = z ",
"5 u 9 | 3.e.F.U.Y.W.^.^.^.^.^.W.E.U.U.U.F.e.0.Z ; j t t = 3 * i y = * 3 N i h 3 %.U.^.`.`.`.`.`.`.`.`.`.`.`.`.`.`.`.^.W.W.' 1 m t = H ^._.`.`.'.].[.].`.`.`.`.^.^.^.^.W.E.Y.U.P 3 u u u 1 * O V t 1 * 3 u u 8 * H U.W./._._._._._._._._._.^.W.W.E.F.e.,.} u = u ",
"5 0 0 O.0.a.J.Y.W.^.^.^.^.^.^.^.W.Y.U.U.N.e.-.7 3 y t 1 7 h * i y = f s h m j 3 x N.W._.`.`.`.`.`.`.`.`.`.`.`.`.`.`.`.^.W.` 1 i t = H ^._.`.'.[.[.[.[.'.`.`.`.`./.^.^.^.E.E.J.l q u u 4 3 h * V t ; h 9 0 u u ; 0 a.W.^._._._._._._._._._.^.^.^.W.U.N.0.%.u = t ",
"w u 0 %.0.a.U.W.^.^.^.^.^.^.^.^.^.W.U.U.N.k.H = 8 t t + v v * i y ; l ` 9 V i t , %.E.^.`.`.`.`.`.`.`.`.`.`.`.`.`.`.`.^.W.` 1 u w = ^ ^.`.`.'.[.[.[.[.].`.`.`.`.`.^.^.^.W.E.6.0 h u u O S b - m e ; v ^ ; t u 8 = P W.^._._._._._._._._._._.^.^.W.E.F.e.-.u ; t ",
"w q 9 :.0.N.U.^.^.^.^.^.^.^.^.^.^.^.Y.U.N.0.9 0 u t 8 =  .v * i t ; l 6.l h m i , z U.W._.`.`.`.`.`.`.`.`.`.`.`.`.`.`.^.W.` 1 i t ; ^ ^.`.'.[.[.[.[.[.[.'.`.`.`.`._.^.^.W.E.D 8 u u 8 = @.D = m y ; v :.f ; u u , 0 u.^._._._._._._._._._._.^.^.W.E.U.a.0.u = 1 ",
"w 8 0 :.0.N.Y.W.^.^.^.^.^.^.^.^.^.^.W.U.F.' ; u t t = h z.v = i t = l 6. .s V i t , %.W./.`.`.`.`.`.`.`.`.`.`.`.`.`.`.^.W.` 1 i w ; H ^.`.'.[.[.[.[.[.[.'.`.`.`.`.`.^.^.W.u.0 t u u + h x.D = m i ; v u.` * 0 u u ; H ^._._._._._._._._._._.^.^.W.W.U.N.0.p = = ",
"w u 9 O.0.k.U.Y.W.^.^.^.^.^.^.^.^.^.E.U.a.u q y t 8 = | c.v - i y ; l 6.6.b h i i , x Y.^.`.`.`.`.`.`.`.`.`.`.`.`.`.`.^.W.` 1 i t ; H ^.`.'.[.[.[.[.[.[.].`.`.`.`.`.^.^.W.H 1 u u 8 O  .C.v = N i ; D a.u.h ; u z h 9 F./._._._._._._._._._.^.^.W.W.Y.N.0.u = , ",
"w u 9 %.0.a.J.Y.W.^.^.^.^.^.^.^.^.^.Y.U.{ ; h t t = f c.c.v - i i 3 h 6.c.@.h V i w 3 3.W./.`.`.`.`.`.`.`.`.`.`.`.`._.^.E.` ; i w = ^ ^.`.'.[.[.[.[.[.[.[.'.`.`.`.`.^.^.F.u 0 u u O h S.Q.D = V n ; D a.a.| ; 0 u j 1 ` ^.^._._._._._._._./.^.^.W.W.U.N.0.u = 4 ",
"w u 0 %.0.a.F.Y.W.^.^.^.^.^.^.^.^.W.Y.M.u 3 t t 8 * ` c.c.v ; i i 7 h c.c.c.S j i y = v K.^./.`.`.`.`.`.`.`.`.`.`.`._.^.E.` = w w = [ ^.`.'.[.[.[.[.[.[.[.'.`.`.`._.^.^.| 3 t u 8 O @.Q.Q.D = V n , D c.F.J.v ; u i 0 h J.W.^._._._._._././.^.^.W.E.U.k.0.u ; j ",
"w u u %.0.e.J.Y.^.^.^.^.^.^.^.^.^.E.U.{ ; h t t = 9 c.c.c.v 3 j i 7 x c.c.c...0 i i 4 ; @.W.^.`.`.`.`.`.`.`.`.`.`.`./.^.E.` = w w = [ ^.`.'.[.[.[.[.[.[.[.].`.`.`._.^.W.x 1 y u = q C.K.Q.D ; C m 1 D F.U.Y.:.; 0 u h 3 @.W.^._._._._._._._./.^.^.W.U.k.0.u = z ",
"w u q %.0.a.F.Y.W.^.^.^.^.^.^.^.^.Y.F.u 7 u t 8 O H C.c.c.v 3 j y 1 q 3.c.c.Z.h u i t = z H.W._.`.`.`.`.`.`.`.`.`.`./.W.Y.P = w w =  .^.`.].[.[.[.[.[.[.[.[.`.`.`.^.^.6.f h t 0 + [ Q.K.Q.~ ; A M 0 D J.U.U.F.h 3 u j 1 V E.^.^._._._._._._._.^.^.W.U.a.7.u ; S ",
"w u u O.7.e.F.U.E.^.^.^.^.^.^.^.^.Y.` 3 h t t , 7 c.Y.Y.H.v 3 j y 0 ; ^ c.J.Y.| 0 j y 4 1 | E.^.`.`.`.`.`.`.`.`.`.`./.W.Y.H = 8 w -  .^.`.].[.[.[.[.[.[.[.].`.`.`.^.^.D v z t = 3 b.Q.Q.Q.^ 1 F M u D F.Y.Y.Y.| ; t u 0 1 u.^.^._._._._._._.^.^.^.W.U.a.3.u ; S ",
"w u u O.0.e.N.U.E.^.^.^.^.^.^.^.^.M.u 1 i t 8 . F Q.Y.Y.H.l 7 V y q h x.F.Y.U.F.l q u 0 , z Z.^._.`.`.`.`.`.`.`.`.`.^.W.Y.H = 4 t ;  .W.`.'.[.[.[.[.[.[.[.'.`.`._.^.c.h h u t . b !.!.!.^.^ 3 F m u S F.U.Y.U.F.l 0 u t = H W.^.^._._._._.^.^.^.W.W.Y.k.3.u ; z ",
"5 u u O.0.e.N.U.Y.^.^.^.^.^.^.^.W.R , w t t = * u.~.E.Y.H.D 7 V y q l c.F.Y.Y.Y.[ ; u u 1 4 ..W.^.`.`.`.`.`.`.`.`.`.^.W.U.H = 4 t 1 @.W.`.'.[.[.[.[.[.[.[.'.`.`.^.^.` v z u 1 & z.!.!.!.^./ 1 A m t x Z.U.U.U.Y.@.7 u u 1 0 c.^.^._._._./.^.^.^.^.W.Y.N.7.u = z ",
"5 u u O.3.0.N.Y.U.W.^.^.^.^.^.^.F.u ; t t w . z W.^.^.E.C.[ 3 j y 0 z u.F.Y.U.Y.c.9 u u 8 , z C.^._.`.`.`.`.`.`.`.`.^.W.U.H = 4 y 3 @.W.`.'.[.[.[.[.[.[.[.'.`.`.^.K.u u u u O f Q.!.!.!.^./ 1 A m 8 l c.U.U.U.U.F.h 0 u t = P W.^.^.^.^.^.^.^.^.^.W.Y.a.7.u = j ",
"5 u q | 3.0.N.J.Y.^.^.^.^.^.^.^.| 1 1 t t 1 o @.^.^.^.W.C.[ 1 i B 8 v 6.F.Y.Y.W.E.b = j t 1 0 ..E.^.`.`.`.`.`.`.`.`./.W.Y.H = 4 y 1 @.W.`.'.[.[.[.[.[.[.[.'.`./.^.| 1 u u 0 . ..^.!.!.!.^.^ 1 A n 8 l a.U.U.U.Y.Y.^ 7 u u 1 u F.W.^.^.^.^.^.^.^.^.W.Y.N.0.z = u ",
"5 u 0 | 3.0.a.F.E.^.^.^.^.^.^.W.x ; t t t + 0 Y.^.^.^.W.H.[ ; t B 8 l 6.F.Y.W.W.W.6.= l u 0 1 S C.W.^.`.`.`.`.`.`.`.^.W.Y.P = 4 y 1  .W.`.'.[.[.[.[.[.[.].`.`.^.E.z 0 u u * 9 Q.!.!.!.!.^.^ 1 A n 8 x c.U.U.Y.E.Y.6.7 t u 8 , | W.^.^.^.^.^.^.^.^.W.Y.N.0.z = i ",
"w 8 0 { :.0.a.J.E.W.^.^.^.^.^.u.0 0 y t j = D ^.^./.^.^.K.[ ; t i 7 h u.K.W.W.W.W.E.l = u u 4 0 @.E.^.`.`.`.`.`.`.`.^.W.Y.P = 4 w 1  .W.`.].[.[.[.[.[.[.'.`._.^.:.7 t u 0 . / ^.^.^.^.!.^.^ 3 A e 4 x a.J.Y.W.W.Y.J.l 0 u t , F W.W.^.^.^.^.^.^.^.W.Y.N.0.x = j ",
"5 8 7 ] :.0.a.F.U.W.^.^.^.^.W.H 3 V i t 8 * :.^._.`.^.^.Q.[ ; t i 3 h u.K.W.W.W.W.W.@.* 0 i t 1 S H.W.^.`.`.`.`.`.`.^.W.Y.` = 4 w 1 / W.`.[.[.[.[.[.[.[.`.`.^.^.Z 8 u u = a Q.^././.^.^.W.H 3 V w < x a.J.Y.K.W.W.W.` 3 u u 1 8 7.W.^.^.^.^.^.^.W.W.Y.N.u.V = j ",
"5 0 7 ] :.0.a.F.U.W.^.^.^.W.F.u u i t t O l ^._.`.`._.^.~.[ 1 w i 3 h u.K.W.W.W.W.W.Y.0 ; i y 1 8 :.W.^._.`.`.`.`.`.^.W.Y.` ; 4 w 1 / W.`.].[.[.[.[.[.'.`._.^.u.0 t u 0 .  .^././././.^.Y.F 3 i w < l u.F.[ / W.W.^.F.h h u 8 = D Y.W.^.^.^.^.^.^.W.E.N.e.Z = j ",
"w 0 7 ] :.0.a.J.U.Y.^.^.^.W.| 1 t t t 3 o 7._.`.`.`.`.^.~.[ 1 w i 3 h u.Y.W.W.W.^.W.W.` - j i 8 , D K.W.^.`.`.`.`.`./.W.Y.` = 4 w 1 / W.`.].[.[.[.[.[.'.`._.^.H 8 u u ; > Q././.`./.^.Q.Y.D 3 y 5 1 h u.c.k  .W.^./.^.| u u y < 4 3.W.^.^.^.^.^.^.W.E.F.e.Z = u ",
"w 8 7 { 3.0.e.F.U.E.^.^.^.F.z 1 t t 4 . v ^.`.`.`.`.`.^.E.` 1 w y = h u.Y.W.W.^.^.^.W.c.7 h i 8 1 8 :.W.^./.`.`.`.`./.W.Y.` ; 4 w 1  .W.`.].[.[.[.[.[.`.`._.Z.q t u t . D ^./././.`.^.W.Y.D 1 t 5 1 0 3.c.c.Y.^./././.E.z t u t , V Y.W.^.^.^.^.W.W.Y.J.e.D = t ",
"w q 1 { 3.0.e.F.U.E.^.W.Y.P 1 w t 0 . f S.`.`.`.`.`.`.^.~.[ 1 t t = h a.Y.W.^./._.^.W.Y.D > j 4 1 1 S K.W.^.`.`.`.`./.W.Y.` ; 4 w 1  .W.`.'.].[.[.[.[.`.`./.` 1 u u 3 & x.^././._._./.W.Y.D 1 t 5 1 9 *.F.W.^././._.`._.@.0 u u 4 1 O.E.W.^.W.W.W.W.E.J.e.D = t ",
"t q 7 } 3.0.e.U.U.U.Y.Y.{ 7 8 t t = 9 K._.`.`.`.`.`.`.^.W.| 1 t t = h a.Y.W.^././.^.W.R.:.= 7 1 1 1 0 3.E.^./.`.`.`./.W.Y.` ; 4 w 1 _ W.`.'.[.[.[.[.].`.`.Y.u 0 u t . c Q.^./././.^./.^.Y.D 1 t 4 1 7 3.Y.W././._.`.`._.^.x t u t < u F.W.W.W.W.W.W.E.U.a.D ; w ",
"t 8 0 | 3.w.k.U.U.U.Y.7.0 t t t 8 * :._.`.`.`.`.`.`.`._.^.@.1 t t = h a.Y.W.^.^.^.^.W.W.c.9 * 1 1 0 , ^ C.W.^._.`.`./.W.Y.` = 4 w 1 _ W._.'.[.[.[.[.].`.`.| 1 u u 1 & #.Q.^./.`._././.^.Y.F ; u 4 3 7 u.E.W./._.`.`.`.`.`.3.0 u u 8 , P Y.E.W.W.W.W.Y.U.a.D 1 t ",
"w 4 0 | 3.e.N.U.U.U.U.H 1 j t t , q ^.`.`.`.`.`.`.`.`._.^.@.1 t t ; x a.Y.W.^.^.^.^.^.W.c.9 0 1 1 u 1 z x.J.W.^._.`.^.W.Y.P = 4 w ; ( W._.'.[.[.[.[.].`.^.z 0 u u o a v.^./.`.`.`._./.^.W.F ; u 4 3 0 a.Y.W./._.`.`.`.`.`.W.h t u t , 0 u.Y.W.W.W.W.Y.J.a.D 3 t ",
"w 8 0 | 3.e.F.U.U.Y.N.z < t t t * ^ `.`.`.`.'.'.`.`.`._.^...; 8 y 3 Z a.Y.W.^././.^.^.W.Y.H 9 1 1 1 1 q @.Z.Y.W.^.^.^.W.U.Y = 4 w 1 ( W./.'.[.[.[.[.'.`.2.1 t u 7   ( Q.^.`.`.`.`.`./.^.W.H = u 4 4 h c.Y.W./._.`.`.`.`.`._.' 1 u t < , F U.Y.W.W.W.Y.F.a.D 3 t ",
"w u 0 | 3.e.J.U.U.U.7.0 4 t t 8 * C.`.`.`.`.`.'.`.`.`._.^.@.; 8 y 3 Z a.Y.W./._./._.^.W.W.c.h ; 1 1 1 1 F Z.U.Y.^.^.^.W.Y.H = 4 w ; ( E.^.`.[.[.[.[.`._.S h u u * : v.^./.`.`.`.`.`.^.Y.U.D = u 4 4 h a.U.W./._.`.`.`.`.`.`.C.7 t u 8 = 8 u.Y.E.W.W.E.J.k.D 1 t ",
"w u 0 | 0.a.U.U.U.U.P 1 8 t t O h `.`.`.`.`.`.'.`.`.`._.^.:.1 4 y 3 x a.Y.W.^.`./._.^.^.W.J.` ; 1 1 1 1 0 F a.U.E.W.W.E.Y.H = 4 w 1 / E.^.`.].[.[.'.`.Z.q D u 0   ~ ^.^.`.`.`.`.`.`.^.` H D = w 4 1 h u.F.W./.`.`.`.`.`.`.`.^.v 3 u y 1 , H U.E.W.W.Y.U.N.D , t ",
"e u 0 O.0.a.F.Y.U.*.0 1 t y 1 O x.`.`.`.`.'.`.`.`.`.`./.^.:.1 4 y 3 x a.Y.^._.`._._.^.^.W.Y.u.q = 1 1 1 , t 0.N.U.E.E.E.Y.P = 4 w 1 ^ Y.^.`.'.[.[.'.`.^ 7 u u * : Q.^._.`.`.`.`.`.`./.a.u.D = w 4 1 l a.F.W./.`.`.`.`.`.`.`._.6.; 3 u 8 , i a.Y.W.W.Y.U.N.D , t ",
"e u q %.0.a.N.J.a.u , 8 t t O h ).`.`.`.`.'.`.`.`.`.`._.^.@.3 w y 7 l c.Y.^._.`.`./.^.^.W.W.F.F = 1 1 1 , z 0.0.N.Y.E.E.E.` = 4 w 3 / Y.^._.'.[.[.'.^.u 8 u 0   ^ ^._.`.`.`.'.`.`.`./.^.W.S = 8 4 1 v a.F.W.^.`.`.`.'.'.'.`.`.^.S * 8 u 8 1 O.Y.W.Y.Y.U.N.H , y ",
"y u u 3.0.e.a.N.O.1 1 t t t O [ `.`.'.'.`.`.`.'.`.`.`._.^.:.3 t y 0 l c.Y.W._.`.`._._./.^.W.Y.u.q ; 1 1 1 8 } <.a.U.E.E.E.[ = 4 w 1 / U.^._.`.].].'.| 1 u u = - H._.`.`.'.'.'.'.'.`./.^.W.x = 8 4 1 v u.F.E.^.`.`.`.].[.[.'.`._...= 0 u u 4 D U.Y.Y.Y.U.U.P = t ",
"y w q :.0.e.e.e.Z ; 8 t 0 = 9 W.`.`.'.].].'.'.'.`.`.`._.^.:.3 u t 0 l c.Y.W./.`.`.`.`._.^.^.W.J.` 1 1 1 1 1 D <.e.J.Y.E.E.[ = 4 w 3 ` U.^._.`.'.'.^.u 8 u t . D ^.`.`.'.'.'.'.'.'.`._.^.W.S = 8 4 = v u.F.W.^.`.`.`.].[.[.].`.`.K.0 8 u u u 8 3.U.U.U.U.U.` ; i ",
"e w q :.7.0.e.*.7 = 8 w 8 . [ `.`.'.].].[.].].'.'.`.`./.^.3.3 t t 4 x c.Y.W.^.`.`.`.`.`./.^.W.Y.c.j ; 1 1 1 0 %.e.J.Y.E.W.` + 4 w 3 ^ J.W._.`.`.`.:.1 t y = * b.`.`.'.'.'.'.'.'.'.`._.^.W.S = w 4 = v u.F.W.^._.`.`.].[.[.[.'.`.`.[ ; y u i 4 D J.U.U.U.U.| 1 V ",
"e w q :.0.<.0.F = 0 8 u 9 9 ~.`.`.'.[.].].].'.'.`.`.`./.^.3.3 w w 1 x a.Y.^._.`.`.`.`.`.`./.^.W.J.| 3 1 0 4 1 F 0.F.U.E.E.| = 1 w 3 H F.W./.`.`.^.x 8 y u . v ^.`.'.'.'.'.'.'.'.'.`._.^.W.D ; w 4 , v u.F.W.^._.`.'.[.[.[.[.].'.`.W.h 0 u u 8 8 0.U.U.U.U.H 1 C ",
"y u u 3.0.<.%.7 7 i 8 q -  ._.`.'.'.].].].].].'.`.`.`._.^.3.3 w w 1 l a.E.^._.`.`.`.`.`.`._.^.^.Y.c.z 1 8 8 1 t %.a.U.U.E.| = 1 t ; D F.W.^.`._.6.q j u h - x./.`.'.'.'.'.'.'.'.'.`._.^.W.D ; w w , v u.F.W.^._.`.'.[.[.[.[.[.].'.`.@.s j u t , Y F.U.U.U.H 1 C ",
"e u u 3.0.0.H = 4 8 t 7 9 Q.`.`.'.[.].].].].].'.`.`.`.`.^.3.3 w w 1 x a.W.^.`.`.`.`.`.`.`.`._.^.W.Y.| 3 0 8 8 1 F 0.N.F.U.| = 8 t = D N.W.^.^.W.x v j u - f ^./.`.'.'.'.'.'.'.'.`.`._.^.W.D = w w , v u.F.W.^.`.`.'.[.[.[.[.[.[.].`.^.z h u u < u 0.J.U.Y.H 1 C ",
"e u u :.3.:.q ; 8 8 h > [ ^.`.`.].].].].].].].].'.`.`.`.^.:.; t t 3 x a.W.^._.`.`.`.`.`.`.`.`._.^.W.F.h 1 8 8 1 t %.a.F.U.| = w y * D N.W.^.^.:.f S u 0    ./.`.`.'.'.'.'.'.'.'.`.`./.^.W.S = w w , v c.F.W.^.`.`.].[.[.[.[.[.[.[.'.`.3.h j u 8 , ` M.J.J.H 1 C ",
"e u u :.3.` = 4 8 t 9 9 Y._.`.'.].].].].].].].].'.`.`.`.^.3.; t t 3 Z c.W.^._.`.`.`.`.`.`.`.`.`.^.W.W.` 1 0 8 0 1 F 0.F.U.| = y i * S N.E.W.E.x q j u * > Q._.`.`.'.'.'.'.'.'.'.`.`.^.W.W.S = w w 1 S a.F.E.^._.`.].[.[.[.[.[.[.[.].`.^.D u u t , j 0.a.a.F 1 A ",
"e t u :.:.h 3 u 8 8 * [ /.`.`.'.].].].].[.].].].'.`.`.`.^.:.1 w w 1 x Z.W.^.`.`.`.`.`.`.`.`.`.`._.^.W.a.q 1 8 8 1 0 o.N.U.] = i i * x N.E.E.6.7 t y t   ! ^.`.'.'.'.'.'.'.'.'.'.`.`./.W.E.S = w w 1 b u.F.E.^.`.`.].[.[.[.[.[.[.[.[.'._.u.h u t 1 < ] a.a.F 1 A ",
"e w q %.` = 0 t w , 9 E.`.`.'.].].].].].].].].].'.`.`.`.^.@.; 8 w , x c.W.^._.`.`.`.`.`.`.`.`.`.`.^.^.Y.F 1 8 8 4 1 V 0.N.{ = m i * l a.E.Y.D 7 t y = & x.^.`.'.'.'.'.'.'.'.'.'.`.`.^.W.Y.S = w w 1 b u.F.W.^._.`.].[.[.[.[.[.[.[.[.'.`.^.D h 8 0 , z u.a.H 1 S ",
"e 8 0 [ h = 0 8 u - ^ _.`.`.`.].].].].].].].].[.'.`.`.`.^.@.; 8 w , v Z.W.^._.`.`.`.`.`.`.`.`.`.`._.^.W.u.0 4 8 0 1 0 } w.P = m i * l a.U.:.0 l u t   c S.^.`.'.'.'.'.'.'.'.'.`.`.`.^.W.Y.D = w w , S u.F.W.^._.`.`.].[.[.[.[.[.[.[.'.`._.:.h 8 0 1 4 O.a.H 1 V ",
"e 4 0 H ; q t 8 1 ; H.`.`.`.`.].].].].].].[.].].'.`.`.`.^.@.; 4 w , D H.W.^._.`.`.`.`.`.`.`.`.`.`.`./.^.Y.D 1 8 8 4 1 D 0.K = m i * l 0.k.z 7 j y ; % #.Q.`.`.'.'.'.'.'.'.'.'.`.`.`.^.W.E.H = w w , S u.F.W.^./.`.`.].[.[.[.[.[.[.)./.`./.Y.h q 8 4 , D a.H ; i ",
"e 4 3 h ; u 8 8 o D /.`.`.`.`.].].].].].].].].].].`.`.`./.:.3 8 w , ~ H.W.^._.`.`.`.`.`.`.`.`.`.`.`.`.^.W.:.1 0 8 0 , 8 O.K = m i * h 0.O.; 8 u t   d v.!.`.'.'.'.'.'.'.'.'.`.`.`._.^.W.Y.H = w w 1 S u.F.W.^._.`.`.].[.[.[.[.[.[.@.@.`./.^.D 1 0 0 1 u 3.H = t ",
"e < ; = q t 8 ; ; Z._.`.`.'.`.].].].].].].[.].[.].`.`.`._.:.; 8 w , ! H.W.W._.`.`.`.`.`.`.`.`.`.`.`.`.^.W.F.h 1 8 8 1 O D H = m i * h -.z = t u 1   ) S.^.'.'.'.'.'.'.'.'.`.`.`.`.^.^.W.Y.H = 8 w 1 S u.J.W.^._.`.`.].[.[.[.[.[.[.`./.`./.^.:.; 0 0 0 0 Y P = w ",
"e 2 O = 8 8 u * H ^._.`.`.`.'.].].].[.].].].].].].'.`.`.^.@.; 4 w ; ! F.W.W._.`.`.`.`.`.`.`.`.`.`.`.`._.^.R.` 1 0 8 0 = q D + m i = h ] ; u u t * 6 v.^.`.'.'.'.'.'.'.'.'.`.`.`._.^.^.W.Y.H = 8 4 1 S u.F.W.W._.`.`.].[.[.[.[.[.[.].'.`._.^.J.0 1 8 0 0 j H = w ",
"n 4 . 1 8 t s - c.^.`.`.`.`.'.].].].].].].].].].].'.`.`.^...; 8 w ; ! F.W.^.`.`.`.`.`.`.`.`.`.`.`.`.`.`.^.W.u.0 1 8 8 , ; z = i i = b z 3 j w 8   ( ^.`.`.'.'.'.'.'.'.'.'.`.`.`._.^.^.W.Y.H = 8 4 1 S u.F.E.^./.`.`.'.].[.[.[.[.[.[.'.`.`.^.W.S ; 8 0 0 8 u = t ",
"m 2 * 8 8 h - z W.^.`.`.`.`.'.'.].].].].].].].].].'.`.`._.| ; w e = D F.W.^._.`.`.`.`.`.`.`.`.`.`.`.`.`._.^.R.x O 0 8 0 = 0 = i t ; h ; j t 4 = : S.^.`.'.'.'.'.'.'.'.'.'.`.`.`./.^.^.W.Y.H = 8 5 1 S 0.F.W.^./.`.`.`.'.[.[.[.[.[.[.'.`.`./.^.:.; 4 8 0 u = O w ",
"M u = 8 t 0 * :.W./.`.`.`.`.`.`.].[.].].].].].].].'.`.`./.| ; t e = S Z.W.^._.`.`.`.`.`.`.`.`.`.`.`.`.`.`.^.W.:.* 3 8 8 1 = = i t = O ; t w 4   ! ^.`.'.'.'.'.'.'.'.'.'.`.`.`.`.^.^.W.W.U.H = 8 4 1 v 0.F.Y.^._.`.`.`.'.[.[.[.[.[.[.'.`.`._.^.K.q 1 8 0 u q X w ",
"M i O 1 u = f K.^._.`.`.`.`.`.'.'.].].].].].].].].`.`.`./.| 1 t e = D F.W.^./.`.`.`.`.`.`.`.`.`.`.`.`.`.`.^.W.F.u * 8 8 4 + = i t = * w w w = & c.^.`.'.'.'.'.'.'.'.'.'.`.`.`./.^.^.W.Y.F.H ; 8 w , v 6.F.Y.^./.`.`.`.`.'.[.[.[.[.].'.`.`./.^.W.H = 0 0 8 0 X w ",
"M w * = q *  .Y.^._.`.`.`.`.`.`.'.].].].].].].].].`.`.`.^.@.1 i y = ^ F.W.^._.`.`.`.`.`.`.`.`.`.`.`.`.`.`./.W.Y.` O 4 8 1 O = m y = , t 2 <   v W.^.`.`.'.'.'.'.'.'.'.`.`.`._.^.^.W.W.F.k.F = w w 1 v 6.F.Y.^./._.`.`.`.`.].[.].].`.`.`._./.^.W.u.7 1 0 0 ; X i ",
"M 8 = = ; 9 x.Y.^./.`.`.`.`.`.`.'.'.[.].].].].[.'.`.`.`.^.@.1 i y = ^ F.W.^._.`.`.`.`.`.`.`.`.`.`.`.`.`./.^.W.W.u.3 ; 8 0 = = i i 4 8 t w = * :.W.^.`.`.`.`.'.'.'.'.`.`.`.`./.^.^.W.U.k.w.D ; i t , x u.F.Y.^././._.`.`.`.'.'.`.`.`.`.`._./.^.E.U.S = 0 u = * V ",
"m w ; - & ~ b.E.^.^.`.`.`.`.`.`.`.'.].].].].].].'.`.`._.^.@.1 i y = ^ Z.W.^./.`.`.`.`.`.`.`.`.`.`.`.`.`./.^.W.W.F.V * 8 1 O = i u 7 0 y t * f F.W.^./.`.`.`.`.`.`.`.`.`._./.^.^.W.W.U.a.0.D ; V t , x 7.a.Y.W.^./._.`.`.`.`.`.`.`.`.`.`./.^.W.E.J.O.3 1 4 X * V ",
"M 8 3 O 3 3.Z.E.W.^.^._.`.`.`.`.`.`.`.'.'.'.'.`.`.`.`.^.W.O.1 y t = ^ a.Y.^.^.`.`.`.`.`.`.`.`.`.`.`._.^./.^.^.W.F.3.1 1 1 O = B t 3 8 u 1 * H U.W.^.^./._._.`.`.`.`._./.^.^.^.W.W.U.N.e.<.F = j w , x 3.u.J.W.^././._._._.`.`.`.`.`._././.^.W.E.F.u.h ; 4 O * V ",
"M 8 - . F w.k.U.E.W.^.^.^.^._.`.`.`.`.`.`.`.`.`.`.`.`.^.Y.@.4 t w = H u.Y.W.^._.`.`._._._._._._./.^.^.^.^.W.W.Y.n.a.D = 1 O = V 0 3 0 0 * 9 0.F.Y.W.^.^.^.^.^.^.^.^.^.^.^.W.W.W.U.N.e.>.O.F - z w , l :.7.Z.Y.E.^.^./.^.^./._./././.^.^.^.W.W.Y.M.u.H = q * = V ",
"M 4 . 7 %.4.a.F.Y.E.E.W.W.W.^.^._._.`._._./.^.^.`.`._.W.Y.[ 1 i t = H -.c.E.W.^.^._.^.^.^.^.^.^.^.W.W.W.W.W.Y.F.n.h.$.1 1 O = z 0 3 u = * H 0.a.F.Y.W.W.W.W.W.W.W.W.W.W.W.W.Y.F.N.w.<.%.| H = j w , j ] :.a.F.Y.W.W.W.W.W.^.^.^.^.^.W.W.W.Y.J.M.u.7.} u 0 - = V ",
"M 4 * H %.4.4.a.N.F.U.Y.E.E.W.W.W.W.W.W.W.Y.a.U.W._./.Q.C.^ 1 i t ; H %.u.F.Y.W.W.^.W.W.W.W.W.W.W.R.Y.Y.J.F.F.n.h.4.-.V O O = j t ; 7 * f } -.0.e.N.F.U.U.U.U.U.Y.Y.Y.W.Y.U.F.a.0.>.%.} | H = j y , u ] %.u.a.F.Y.Y.Y.Y.Y.E.W.W.E.Y.Y.Y.U.F.a.u.0.*.} R z O ; C ",
"n 2 3 ` ] } | %.-.4.e.a.a.a.c.Z.Z.F.F.Z.6.z 8 D :.a.Z.Z.6.F 1 i t = z K { %.6.u.u.u.a.a.a.u.u.u.u.u.u.u.u.u.u.4.-.%.} ] h O O u j 1 . * F I { } } } } *.3.-.-.3.0.a.a.3.:.-.3.%.} } I I R D ; i y , u P ` | %.3.u.u.u.2.u.u.u.a.a.a.a.a.7.-.-.-.%.} E R F X ; V ",
"2 , = t i u t t y u u i j i u t u j j i 8 1 , , 8 t 0 u u u i i 4 * O , t i i i y t t t u u u u t u u u u u u u u t u u q * O * 3 1 = = 1 8 8 8 8 8 8 8 8 8 8 8 8 F F 8 8 8 8 8 8 4 4 1 1 , 4 A V < = 1 4 8 w t t u t t t u i i i i i i i i i i i i i y 8 + = 4 ",
"w w t t y y y y y y y y y y y y y y y y y y y y y y y t t y m y 5 4 4 4 w y y t t w w w w w w w w w w 5 w 5 5 5 5 2 5 w w w w < w i t w w t t t t y y t t t i 2 < i V w 5 5 w w w t w 5 4 2 5 t t 4 2 < < 2 4 4 4 w t t y i i n i n i i i i i i i n n y w w w w ",
"2 2 2 2 2 < 2 2 < < 2 2 2 2 2 2 2 2 2 2 2 2 2 2 2 2 2 2 2 2 < 2 2 2 2 2 2 2 2 2 2 2 2 2 2 < 2 < 2 2 2 2 2 2 2 2 2 2 2 2 2 2 2 2 2 2 2 2 2 2 2 2 2 2 2 2 2 2 y i w 2 2 2 2 2 2 < < < < < @ @ @ @ , , , , , , , , , , < < < < < 2 2 2 < < < < < < 2 2 2 < < < 2 2 ",
"< < < 2 2 2 2 2 2 2 2 4 5 2 5 5 5 2 2 5 5 5 2 2 2 2 2 2 2 < < < < < < < < 2 2 2 < < 2 2 2 2 2 < < < < < 2 < 2 2 2 2 2 2 2 < < < 2 < < < 2 2 2 2 2 2 2 2 2 2 2 t w < < < < < < < < @ @ @ @ @ @ @ , = = = , < < < < 2 2 2 2 2 2 2 2 2 2 2 2 2 2 2 2 2 5 5 5 2 < < ",
"= X O * = O = O * * = = = = = = = = ; ; = = + + = + = = O X O O O O O O O * = = = = = = = = = = ; = + O O O + = ; ; , 1 3 1 < < < < < 1 1 1 1 1 , , , ; = ; 8 1 4 4 1 1 1 , , , , ; = = + X X X 1 ; * = ; 1 1 + + + = , , < < , , = + + + + + + + + + + + O . O ",
"h = 3 Z Z Z D D H H ^ H H H P H ' ' ' ' ` ' H H H H H H l * ; 1 7 - q b b b b D D D H ' ^ ^ P ` { { { ` ` ` { { { o.{ } | O.o.} { { O.%.%.%.:.:.:.:.:.` 9 9 O.7.7.3.3.3.-.O.o.o.} ] I I H 3 = 8 y 8 3 F K I R P P H H R R ` P H H ^ H H D F H F D D Z Z 9 . 1 8 ",
"y u ; R { O.:.0.a.a.a.N.N.N.N.F.J.U.U.U.U.U.N.N.N.a.0.,.H ; 4 5 w 8 x :.:.3.a.N.F.J.U.U.U.U.U.U.U.U.U.U.F.N.N.N.N.N.N.M.a.a.N.F.U.U.F.J.F.U.U.U.U.Y.U.U.H 9 0.J.U.U.U.U.U.U.U.U.N.e.0.<.O.x = w w < 7 I E } -.0.0.a.N.N.V.J.U.U.U.U.U.U.U.V.V.V.N.k.0.7.H & t t ",
"t t = H o.*.u.N.F.F.U.U.Y.Y.Y.E.E.E.E.E.E.Y.Y.U.N.N.a.-.R 3 4 5 w 8 h :.3.a.F.U.Y.Y.W.W.W.W.W.W.W.W.W.W.U.U.U.U.U.U.U.J.J.J.U.U.Y.Y.Y.Y.U.U.Y.W.W.W.W.W.7.H F.E.W.W.W.W.W.W.W.W.U.F.a.<.%.Z O 4 5 , 7 I E %.0.e.k.N.N.J.U.Y.W.W.W.W.W.W.Y.Y.U.U.N.N.w.,.P * h t ",
"t 8 * R O.3.N.U.Y.Y.Y.E.W.^.^.^.^.^.^.^.^.^.W.W.Y.U.N.0.' 3 2 5 w 8 u :.a.J.Y.W.W.^.^.^.^._._._._./.^.W.W.W.Y.Y.W.W.W.E.W.W.W.W.W.W.W.W.W.W.W.W.^.^.^.^.W.W.^.^.^././.^.^.^.^.W.W.Y.J.e.-.Z O w 5 < 7 I %.0.N.J.U.Y.R.W.W.^.^.^.^.^.W.W.W.W.W.W.Y.U.N.0.{ * 8 t ",
"e 8 * ` *.u.J.E.E.W.^.^.^./._._._._._._._.^.^.^.^.W.U.a.R 3 4 5 t t h 0.F.Y.W.^._._._.`.`.`.`.`.`._._._./.^.^.W.^.^.^.^.^.W.W.W.^././.^.^./._._._._._.`._.`.`.`._.`.`.`.`._._.^.^.W.Y.N.0.Z + w 8 4 7 ] -.k.U.R.W.W.W.^./._._._._._._._._./.^.^.W.W.U.a.} = 8 t ",
"e w ; ] 3.a.U.Y.W.^.^.^._.`.`.`.`.`.`.`.`.`._._./.^.Y.N.{ 3 4 5 t t z F.U.W.^._._.`.`.`.`.`.`.`.`.`.`.`.`._._._._._._._._._._._._._._._._._.`.`.`.`.`.`.`.`.`.`.`.`.`.`.`.`.`._./.^.W.J.w.D * w t 0 9 %.w.N.R.W.^./.^._.`.`.`.`.`.`.`.`.`.`.`._.^.W.W.N.%.; 0 t ",
"t w ; { 3.N.Y.W.^./._._.`.`.`.`.'.'.'.`.`.`.`.`._.^.E.N.{ 3 2 2 t t l J.W.W._.`.`.`.'.'.'.'.'.'.'.'.`.`.`.`.`.`.`.`.`._._._._._._._._._.`.`.`.`.`.`.`.'.'.'.'.`.`.`.`.`.`.`.`.`._.^.W.U.e.D O w t 8 0 -.a.U.W.^./._._.`.`.`.'.'.'.'.'.'.'.'.`.`._.^.^.U.%.3 8 t ",
"e t ; | u.F.Y.^.^._._.`.`.`.'.'.'.'.'.'.'.'.`.`.`.^.W.F.| 3 4 5 y t z U.W.^._.`.`.'.'.'.'.].].].'.'.'.`.`.`.`.`.`.`.`.`.`.`.`.`.`.`.`.`.`.`.`.`.'.'.'.'.'.'.'.'.'.`.'.'.'.`.`.`._.^.W.U.k.D + 8 w 8 q 7.N.U.W.^._.`.`.`.`.'.'.'.'.'.'.'.'.'.'.`.`.`./.W.3.3 q t ",
"e t 3 | u.J.Y.W.^._._.`.`.'.'.'.].'.'.'.'.'.'.`.`./.W.U.O.3 4 2 y t l U.W._.`.`.'.'.'.].].[.[.[.[.'.'.`.`.`.`.`.`.`.`.`.`.`.`.`.`.`.`.`.`.`.`.'.'.'.'.'.'.'.'.'.'.'.'.'.'.'.`.`.`./.^.Y.N.F = w t 8 q 0.N.Y.W./._.`.`.`.'.'.'.'.].].].].].'.'.'.`.`._.^.u.7 s t ",
"e t 3 O.a.J.Y.W./._.`.`.`.'.'.].[.[.[.[.].].'.'.`._.W.U.%.3 4 2 y t x Y.^._.`.`.'.'.].[.[.[.[.[.[.[.].'.'.`.`.`.`.`.`.`.`.`.`.`.`.`.`.`.`.`.'.'.'.'.'.'.'.'.'.'.'.'.'.'.'.'.`.`.`._.W.Y.N.F = 8 t 8 q 0.N.Y.W./._.`.`.'.'.'.'.[.[.[.[.[.[.].'.'.'.`.`.^.a.9 s t ",
"e t ; | a.U.Y.W.^._.`.`.'.'.'.[.[.[.[.[.[.[.].'.`._.^.Y.*.7 4 5 y y x W.^.`.`.'.'.'.[.[.[.[.[.[.[.[.[.].'.'.'.`.`.`.`.`.`.`.`.`.`.`.`.`.`.`.'.'.'.'.'.'.'.'.'.'.'.'.'.'.'.'.`.`.`./.^.U.N.F = 8 w 0 u 0.N.Y.^./.`.`.`.'.'.'.'.[.[.[.[.[.[.[.[.'.'.`.`.^.a.9 q t ",
"e e = ' N.U.E.^._._.`.`.'.'.].[.[.[.`.K.].[.].'.'._.^.Y.*.7 2 5 i u x W._.`.`.'.'.].[.[.[.[.[.[.[.[.[.[.'.'.'.`.`.`.`.`.`.`.`.`.`.`.`.`.`.'.'.'.'.'.'.'.'.'.'.'.'.'.'.'.'.'.'.`.`.^.W.U.N.F = 8 w u h 0.N.Y.^._.`.`.`.'.'.'.[.[.[.[.[.[.[.[.[.].'.'.`.^.M.9 q t ",
"e r = H U.Y.W.^.^._.`.`.'.'.].[.[.[.'./.].[.].'.'.`.^.Y.%.3 4 w i t z Y._.`.`.'.].[.[.[.[.[.[.[.[.[.[.[.].'.'.'.`.`.`.`.`.`.`.`.`.`.`.`.`.'.'.'.`.'.'.'.'.'.'.'.'.'.'.'.'.'.'.`.`.^.W.U.N.F = 4 w q h 0.J.W.^._.`.`.`.'.'.'.[.[.[.[.[.[.[.[.[.[.'.'.`._.F.q 0 t ",
"e m = S F.a.W.^.^._.`.`.'.'.].[.[.[.[.[.[.[.].'.'.`.^.W.O.3 w e w t u u._.`.'.'.].[.[.[.[.[.[.[.[.[.[.[.[.'.'.'.'.`.`.`.`.`.`.`.`.`.`.`.'.'.'.'.`.'.'.'.'.'.'.'.'.'.'.'.'.'.'.`.`./.W.U.N.D * 4 8 0 h a.U.W.^._.`.`.'.'.'.[.[.[.[.[.[.[.[.[.[.[.'.'.`._.F.0 8 t ",
"r N ; x K.3.W.^._._.`.`.'.'.].[.[.[.[.[.[.[.[.'.'.`.^.W.:.3 w t e t 7 3._.`.'.'.'.[.[.[.[.[.[.[.[.[.[.[.[.'.'.'.'.`.`.`.`.`.`.`.`.`.`.`.'.'.'.'.'.'.'.'.'.'.'.'.'.'.'.'.'.'.`.`.`./.W.U.N.Z = 4 w 1 q O.F.W.^.`.`.`.'.'.'.].[.[.[.[.[.[.[.[.[.].'.'.`._.K.7 8 t ",
"n i = z ).c.W.^._._.`.`.'.'.'.[.[.[.[.[.[.[.[.'.'.`._.W.6.7 w w e y 0 6.^.`.'.'.].[.[.[.[.[.[.[.[.[.[.[.[.].'.'.'.`.`.`.`.`.`.`.`.`.`.`.`.`.`.`.'.'.'.'.'.'.'.'.'.'.'.'.'.`.`.`.`.^.W.U.N.Z = 8 5 4 3 l u.^./.`.`.'.'.'.'.[.[.[.[.[.[.[.[.[.[.'.^.`.`._.K.0 8 y ",
"i i = D (.u.^.^._._.`.`.`.'.'.[.[.[.[.[.[.[.[.'.'.`._.W.u.7 w e e y u Z.^.`.'.'.[.[.[.[.[.[.[.[.[.[.[.[.[.[.'.'.'.`.`.`.`.`.`.`.`.`.`.`.`.`.`.`.'.'.'.'.'.'.'.'.'.'.'.'.'.`.`.`.`./.W.Y.N.Z = 8 8 4 3 H F.^./.`.`.'.'.'.'.[.[.[.[.[.[.[.[.[.].'.] ~.`._.K.0 8 y ",
"y j 3 D @.F.^.^._._.`.`.`.'.'.[.[.[.[.[.[.[.[.'.'.`.^.W.u.7 w y i t u Z.^.`.'.'.[.[.[.[.[.[.[.[.[.[.[.[.[.].'.'.`.`.`.`.`.`.`.`.`.`.`.`.`.`.`.`.`.`.`.'.`.'.'.'.'.'.'.'.`.`.`.`.`._.W.Y.N.Z = w w 4 u 0.U.W.^._.`.`.'.'.'.[.[.[.[.[.[.[.[.[.].'.`.`._./.Y.0 8 i ",
"i j 9 I u.Y.E.^._.`.`.`.'.'.'.].[.[.[.[.[.].].'.'.`./.W.u.9 t i i t u Z.^.`.'.'.].[.[.[.[.[.[.[.[.[.[.[.[.].'.'.`.`.`.`.`.`.`.`.`.`.`.`.`.`.`.`.`.`.`.`.'.'.'.'.'.'.`.`.`.`.`.`._.^.W.U.k.Z = w t 4 u 0.F.W.^./.`.`.'.'.'.].[.[.[.[.[.[.[.[.[.'.'.`./.^.K.q y i ",
"i z 0 O.a.J.Y.^./._.`.`.'.'.'.'.].'.'.'.'.'.'.'.'.`./.W.u.0 t i i t h F.^.`.`.'.].[.[.[.[.[.[.[.[.[.[.[.].'.'.`.`.`.`.`.`.`.`.`.`.`.`.`.`.`.`.`.`.`.`.'.'.'.'.'.`.`.`.`.`.`.`.`._.^.W.U.N.Z = t t 8 u 7.N.E.^._.`.`.`.'.'.].[.[.[.[.[.[.[.[.].'.'.`./.^.F.u y i ",
"i z f | 0.F.Y.^./._.`.`.`.`.'.'.'.'.'.'.'.'.'.'.`._.^.W.u.0 t i i t h F.^._.`.'.'.].[.[.[.[.[.[.[.[.[.[.].'.'.`.`.`.`.`.`.`.`.`.`.`.`.`.`.`.`.`.`.`.`.`.`.`.'.`.`.`.`.`.`.`.`.`._.^.W.U.N.Z = t t 8 q -.a.U.W./.`.`.`.'.'.'.].].[.[.[.[.[.[.'.'.'.`._.^.F.u y i ",
"i l s | 0.N.Y.^.^._._.`.`.`.'.'.'.'.'.'.'.'.'.`.`._.^.W.u.0 y i i w h F.^._.`.'.'.'.[.[.[.[.[.[.[.[.[.[.'.'.`.`.`.`.`.`.`.`.`.`.`.`.`.`.`.`.`.`.`.`.`.`.`.`.`.`.`.`.`.`.`.`.`.`./.^.W.U.N.D = w t 8 q -.e.F.W.^._.`.`.`.'.'.'.'.'.[.[.[.].'.'.'.`.`./.^.Z.q t y ",
"i u 0 | 0.Z.Y.W.^./._.`.`.`.`.`.`.'.`.`.`.`.`.`._._.^.W.u.8 t i i y l Z.W._.`.`.'.'.'.].[.[.[.[.[.].].'.`.`.`.`.`.`.`.`.`.`.`.`.`.`.`.`.`.`.`.`.`.`.`.`.`.`.`.`.`.`.`.`.`._._./.^.W.W.J.k.Z * w t 8 q O.0.N.Y.^./._.`.`.`.'.'.'.'.'.'.'.'.'.'.'.`._.^.W.u.0 t u ",
"n t 7 ` 3.a.U.E.^.^./._._._.`.`.`.`.`.`.`.`._._._.^.W.Y.0.8 t i i i z a.E.^.`.`.`.`.'.'.'.'.'.'.'.'.'.`.`.`.`.`.`.`.`._._._._._._._._._._._.`.`._._.`.`.`._.`._._._._././.^.^.^.W.W.U.N.e.Z = w t 8 > ] 0.a.U.W.^.^._.`.`.`.`.`.`.`.`.`.`.`.`.`._.^.W.Y.a.0 t t ",
"e w 3 H O.0.N.Y.E.W.^.^././././._._._._./.^.^.^.^.W.E.U.7.0 w i i N z u.U.W./._.`.`.`.`.`.`.`.`.`.`.`.`.`.`._._./.^.^.^.^.^.^.^.^.^.^.^.^.^././.^.^./././.^.^.^.^.W.^.^.^.^.^.W.W.W.U.e.0.Z * w t 8 > ` -.e.N.Y.W.W.^.^._./.^.^.^.^._.`.`.`._./.^.W.W.U.a.h 8 t ",
"e w 1 ` | 3.0.a.J.Y.Y.W.W.W.W.W.W.^.W.W.W.W.W.E.E.Y.Y.F.0.u w i i V z 7.F.W.W.^.^.^./._._._._._._._./.^.^.^.^.^.^.^.W.W.W.W.W.W.W.W.W.W.W.W.W.W.W.^.^.^.^.W.W.W.W.F.F.W.W.W.W.E.Y.U.a.<.<.V * t t 8 > ] -.0.k.U.Y.Y.W.W.W.W.W.3.` F.W.^.^.^.^.^.W.R.J.N.e.z 8 y ",
"w 2 ; F ` O.3.3.7.u.a.F.F.F.Z.Z.Z.Z.F.J.F.F.Z.Z.Z.Z.a.u.O.u < y i i u %.7.a.F.J.E.E.E.E.Y.Y.Y.Y.Y.Y.Y.K.K.J.F.F.F.F.F.F.Z.a.u.u.u.a.a.N.M.M.a.a.a.a.a.a.a.a.a.u.O.V { a.F.F.F.F.a.a.0.<.<.z O 8 t 8 = H R o.-.<.u.a.a.a.u.u.a.O.4 V u.J.Y.Y.F.F.a.a.a.0.%.z 8 t ",
", = = 1 0 0 0 0 0 0 0 u u u 0 q q u u u u q 0 0 0 u 0 8 1 = + = , = ; u 0 0 0 q u u u u u u u u 0 u u u u u u q q u u h u 0 0 8 8 0 0 0 0 0 0 8 8 8 0 0 0 8 0 8 8 1 8 i p i i p i D 0.-.K 0 = , 8 w , 4 8 8 t t t t w 8 4 4 8 0 1 , 8 0 u u q q 0 0 q q 0 3 = 1 ",
"8 8 8 4 8 w w w w w w w w w w t t t t t t t w 4 4 4 4 5 w w 8 4 4 w 4 2 4 4 4 w w w w t t t t t t t y y i i i y y y y i i y t y t t t t w t t t t t t i t y y y t y t t w w w t t i A m i y y y y i i y y y y i i y y y t y y y y t t t y y y y y t w w 5 5 w w ",
", @ @ @ # # @ < < , < < < < < < < < < 2 < < < < < < < , < < < , @ # @ @ @ @ < < < < < 2 2 2 2 2 2 2 2 2 2 2 2 2 2 2 2 2 < < 2 2 2 2 2 2 2 2 2 2 2 2 2 2 2 2 2 2 2 2 2 < < $ # $ # # # # # # # # # # # # # # # # $ $ < 2 2 2 2 2 2 2 2 2 2 2 2 2 2 2 2 2 < $ # # "
};
