/* XPM */
static char *texture16[] = {
/* columns rows colors chars-per-pixel */
"128 128 159 2 ",
"   c #161215",
".  c #191417",
"X  c #171318",
"o  c #1A1619",
"O  c #1E191D",
"+  c #211B1F",
"@  c #1F1C20",
"#  c #221D22",
"$  c #262125",
"%  c #282327",
"&  c #272228",
"*  c #2B252B",
"=  c #2E292E",
"-  c #312728",
";  c #312B2F",
":  c #2E2A31",
">  c #332D33",
",  c #382E36",
"<  c #342E39",
"1  c #353135",
"2  c #3B3235",
"3  c #393837",
"4  c #363339",
"5  c #3A353A",
"6  c #3B383C",
"7  c #3B383F",
"8  c #3C393D",
"9  c #3C3A3D",
"0  c #3C393E",
"q  c #3D393E",
"w  c #3C393F",
"e  c #3D3A3F",
"r  c #3E3B3F",
"t  c #3C393D",
"y  c #403637",
"u  c #413738",
"i  c #41393B",
"p  c #40383B",
"a  c #40393D",
"s  c #40393C",
"d  c #403A3C",
"f  c #423A3C",
"g  c #433A3C",
"h  c #433C3F",
"j  c #423D3F",
"k  c #443C3E",
"l  c #423A3C",
"z  c #483D3F",
"x  c #3C3741",
"c  c #3C3940",
"v  c #3C3840",
"b  c #3E3941",
"n  c #3E3A40",
"m  c #3E3A41",
"M  c #3E3B41",
"N  c #3F3B41",
"B  c #3F3B42",
"V  c #3F3A42",
"C  c #3F3C42",
"Z  c #3F3C43",
"A  c #3E3A41",
"S  c #403C42",
"D  c #403C43",
"F  c #403D43",
"G  c #453E41",
"H  c #413D44",
"J  c #403D45",
"K  c #403D44",
"L  c #413E44",
"P  c #413E45",
"I  c #423E44",
"U  c #423E45",
"Y  c #423F45",
"T  c #413E46",
"R  c #423E46",
"E  c #423F46",
"W  c #423F47",
"Q  c #413D43",
"!  c #493F40",
"~  c #433F49",
"^  c #474043",
"/  c #424046",
"(  c #434047",
")  c #444147",
"_  c #444146",
"`  c #4A4245",
"'  c #4A4346",
"]  c #434048",
"[  c #434148",
"{  c #444148",
"}  c #444149",
"|  c #454248",
" . c #444249",
".. c #454249",
"X. c #454349",
"o. c #464349",
"O. c #45414B",
"+. c #46414B",
"@. c #45424A",
"#. c #45424B",
"$. c #46434A",
"%. c #46424B",
"&. c #46434B",
"*. c #47434B",
"=. c #47444A",
"-. c #46444B",
";. c #47444B",
":. c #47444B",
">. c #47434D",
",. c #46424C",
"<. c #47444C",
"1. c #464349",
"2. c #4D4548",
"3. c #48434C",
"4. c #48454D",
"5. c #49464E",
"6. c #49454E",
"7. c #49464B",
"8. c #4B484E",
"9. c #50474A",
"0. c #51484B",
"q. c #514A4D",
"w. c #4B4650",
"e. c #4B4750",
"r. c #4C4751",
"t. c #4B4750",
"y. c #4C4953",
"u. c #4E4D53",
"i. c #4F4C54",
"p. c #4F4C56",
"a. c #4C4A51",
"s. c #504D56",
"d. c #534E52",
"f. c #584F52",
"g. c #515056",
"h. c #525057",
"j. c #545156",
"k. c #585256",
"l. c #545359",
"z. c #55535A",
"x. c #56535A",
"c. c #57555D",
"v. c #56545A",
"b. c #59575E",
"n. c #5A555A",
"m. c #5C595E",
"M. c #605A5E",
"N. c #5E5C62",
"B. c #615E64",
"V. c #656064",
"C. c #6B6466",
"Z. c #636369",
"A. c #6A6568",
"S. c #716A6C",
"D. c #6C6B72",
"F. c #73777C",
"G. c #7A747F",
"H. c #827A7A",
"J. c #7D7781",
/* pixels */
"8 8 c * $ > { E c 7 c S > E c.i.{ x 6 > : $ # # # # & & * = 4 c > > > > > > > > : : : : * & = > > > > > > : # # = : : : : > > > 1 4 4 4 4 4 4 4 6 6 6 6 4 G 6 6 4 2 2 2 g 2.0.> o o o > 1 ; ; > ; ; ; * + + * 1 1 1 1 1 1 1 1 8 8 4 1 1 1 1 4 4 = = 1 E E E E E ",
"8 8 E 4 $ 4 { { { { { ] E <.s.s.a.>.{ 6 > & # # # # & & * > 4 > > > > > > > > > > : : : * * > > > > > > > > * # = : : : : > > > > 4 4 4 4 4 6 6 6 6 6 i u 6 6 6 4 4 2 2 i ` 0.i O o o * 1 > > > > ; ; = $ # > 1 1 1 1 1 1 1 1 1 1 1 1 1 1 1 1 4 > = -.-.E E E E ",
"c c ( ( : 6 { { { { { { E E E ] >.>.{ 4 > * # # # # & & * > : : : > > > > > > > > : : : : : > : : > : > > : : * = : : > > > : > > 1 4 4 4 4 6 6 u 6 i i 6 6 2 4 4 2 2 2 2 k 9.4 o o o # 4 > ; ; > > > > * * 1 1 1 1 1 1 1 1 1 1 1 1 1 1 1 4 4 6 1 4 b.-.E E E E ",
"E ( { -.c E 5.{ { { { ] E E E E { >.>.6 > = # # # # & & * : : : : > > > > > > > > : : = = : : : : : : > > : > > > : : > > : : > 1 1 4 4 4 4 4 4 u i g g u 6 6 2 1 2 2 2 4 2 ^ % o o o $ 8 > ; ; ; > > > = > > 1 1 1 1 1 1 1 1 1 1 1 4 4 4 4 8 8 6 -.z.{ E E E E ",
"E { { { <.5.5.{ { { { E E E E E E { 5.c : = # # # # $ * : : : : : : > > > > > > : : : = = : : : : : > > > > > > > : : : : : > > > 1 1 4 4 4 4 6 6 i j j i 6 4 2 2 2 4 4 4 2 j # o o o # 6 4 ; > = > > = = > > = > 1 1 1 1 1 1 1 1 1 4 4 8 c c C E z.h.{ E E E E ",
"E { { { 5.5.-.{ { { ] E E S S S E { w.3.> = # # # # & : : : : : : : : > > > > : : : : = = : : : = : : > > > > > : : : : : > > > > 1 1 4 4 6 6 6 6 6 j j i 6 4 4 2 2 4 4 4 2 i # o o o + > h > > = > > = ; ; ; = > > > 1 1 1 1 1 1 1 4 8 c c E E { b.h.{ E E E E ",
"E { { { -.{ { { ] E E E E S S S S ] w.r.c = & # # & : 1 > : : : : : : : > : : : : : = * * * = = * = : > > > > > > : : : > > > > > > 1 4 4 4 6 6 4 6 j j i u 4 4 2 2 4 4 2 2 j # o o o o $ 4 * * = ; > > > > > > = > > > 1 1 1 1 1 4 4 8 c S E ( { z.u.) E E E E ",
"E { { { { { { ] E E E E E S S S S E >.r.{ > * # # & : 1 1 : : : : : : : : : : : : = * * * * * * * = : : : > > > > : : : > > > > > > 1 4 4 4 4 6 6 6 i j i i 6 1 2 2 2 4 4 2 i $ o o o o o # $ $ # * > ; ; > ; > = ; > 1 1 1 1 4 4 6 8 c S E ( { { r.5.E E E E E ",
"E ] { { { { { ] E E S E E S c S S E ] 5.5.6 & # # & * 4 4 > > : : : : : : : : : : * * * * * * * * * = : : > > > : : : : > > > > > 1 1 4 4 4 4 6 6 6 j g g j 2 1 2 2 2 1 , 2 j $ o o o o = c.C 4 > > > ; > > > > > > 1 1 1 1 4 4 4 8 c c E ) { { { { ) E E E S E ",
"S E { { { { { ( E E S S S S S S S E E { r.4 # # # $ > E 6 > > : : : : : : : : : = * * * * * * * * = : : : : : > : : : : > > > > > 1 1 1 4 4 4 6 4 6 j g g i 2 1 2 2 2 4 , 2 j $ o o o O 1.m.4 1 1 > ; = > > = ; > 1 1 1 1 4 4 3 8 8 c c E ( { { { ) E E c c c S ",
"S E ] { { ] E E E S S S S S S S S S E { w.4 # # # $ s.a.4 < > > > : : : : : : : = * * * * * * * * : : > > > > : : : : > > > > > > 1 1 1 1 4 4 4 4 6 g g g i 2 2 2 2 4 , , 4 6 % o o o O -.7.4 4 1 1 1 > > 1 > 1 1 1 1 1 4 4 4 8 8 8 c c E { { { { E c c c c c c ",
"S E E E E E E E S S C S c S S S S S E E >.> # # # $ z.{ 4 < < > > > : : : : : : = = * = = * * * * = : > > > > > : > > > > > > > > 1 1 1 4 4 4 4 4 i g g g g 6 2 2 4 , , , , 2 % o o o o 1 ) 8 7 1 1 1 1 1 1 1 1 1 1 1 4 4 4 8 8 8 c S E { { { { E c c 8 8 8 c c ",
"S E E E E E E E S S c c 8 S S S S S c S E : # # # $ a.( 4 < < < > > : : : : : : : : : : : = = * = = = > > > 1 > > > > > > > 1 > 1 1 4 4 4 4 4 6 6 i g i g g 6 2 2 , , , , , 2 * o o o o $ 4 8 7 1 1 1 1 1 1 1 1 1 1 4 4 4 4 8 c S E E E { ) ( E S 8 8 8 8 8 8 c ",
"C E E E E E E E E E c 6 c S S S S S c 8 c = # # # # w.{ 4 < < < < > > : : : : : : : : : : = = > > > > > > 1 1 1 1 1 > > 1 1 1 1 1 1 4 4 4 6 4 6 6 i g g g i 6 2 2 , , , , , 4 * O o o o # 1 8 8 1 1 1 1 1 1 1 1 1 4 4 4 4 4 8 S E E E E E E C c c 8 8 7 4 6 8 8 ",
"8 c S E E E E E E E 8 S { E S S c c c 8 8 : # # # # { ) < < < < < < > > : : > > > : : : = = 1 1 > > > > > > 1 1 1 1 1 1 1 4 4 1 1 1 1 4 4 4 6 6 6 6 i i 6 6 4 2 2 4 , > > > > * o o o O # 1 C 4 1 1 1 1 1 1 1 1 4 4 4 4 4 4 8 S E E E E E c 8 8 8 7 6 4 4 4 4 8 ",
"7 8 8 E S E E E E E 8 { { E S c 8 8 8 8 8 > # # # # 6 E < < < < < < < > > > > > > : : : : > > > > > > > > > 1 1 1 4 4 4 4 4 4 1 1 1 1 4 4 4 4 6 6 6 6 4 6 6 4 4 1 ; $ # + # # O o o o O # 1 S 1 1 1 1 1 1 4 4 4 4 4 4 4 4 4 8 C E E E E S c 8 7 4 4 4 > : > 4 4 ",
"4 4 8 c S S S E E E S { { E c 8 8 8 8 8 8 > # # # # : c < < < < < < < < < > > > > > > > > > > > > > > > > 1 4 4 4 4 4 4 4 4 4 4 4 4 4 4 4 4 4 6 6 6 6 6 6 4 6 4 4 > * ; 2 y 1 % O o o o # 8 8 1 1 1 1 4 4 4 4 4 4 4 4 4 4 4 8 C E E E c c 8 8 8 4 4 > = 6 C 4 4 ",
"1 4 4 8 8 8 8 S S S S ) E C ) S 7 8 4 4 8 > # # # # 4 E 4 4 < 4 4 4 < < < < < > > > > > > > > > > > > < 4 4 4 4 4 4 4 6 8 8 8 8 8 4 4 4 4 4 6 6 6 6 6 6 6 4 6 6 2 4 4 2 j z z ; + o o o # 8 1 1 1 1 4 4 4 4 4 4 4 4 4 4 4 6 8 S E E S c c 8 8 8 4 > : C a.4 4 4 ",
"1 1 4 4 8 8 8 c c c S S C { E 4 4 4 4 6 8 1 # # # # { { 4 4 4 4 4 4 4 < < < < < < < < > < < < < > > < < 4 4 4 4 4 4 4 8 8 8 8 8 8 4 4 4 4 4 4 6 6 6 6 6 6 6 6 i i 2 4 4 6 6 k > O o o o # 4 1 1 1 4 4 4 4 4 4 4 4 3 4 4 3 6 8 c c E c c c c 8 8 1 > -.8.6 < < 4 ",
"1 1 4 4 4 6 6 8 8 8 c 8 ( E 4 4 4 4 4 4 8 > O O # # 6 { 4 4 4 4 4 4 4 4 < < < < < < < < < < < < < 4 4 4 4 4 4 4 4 4 6 8 8 8 8 8 8 8 8 4 4 4 4 6 4 4 6 6 6 6 i g g j i i i i g > O o o o # 4 1 1 1 4 4 4 4 4 4 4 4 4 4 4 4 6 8 c c c c c c c c 7 1 -.( 4 > < < < ",
"> > 1 4 4 4 4 6 8 8 8 8 S 7 4 4 4 4 1 1 4 > O O O # = 8 4 4 1 > 1 4 1 4 4 4 4 < < < < < 4 4 4 4 4 4 4 4 4 4 4 4 4 4 4 4 8 8 8 8 8 8 8 8 7 8 8 8 8 8 6 4 4 6 6 g g g g g j j g > O o o o + 4 4 1 1 4 1 1 4 4 4 6 8 8 4 4 4 4 4 8 c c c 8 8 8 8 4 4 4 1 > > > > > ",
": : 1 1 1 4 4 4 4 4 4 6 7 4 4 4 4 1 1 1 4 > O O O # * > : = * * : > > 5 6 4 < < < < 4 4 4 4 6 6 6 4 4 4 4 4 4 6 4 4 4 4 8 8 8 8 8 8 8 8 8 8 8 8 8 6 6 6 6 6 6 i g g g g j j g ; O o o o + 1 4 1 1 1 1 1 4 4 4 8 8 8 4 4 4 4 4 4 8 8 8 8 8 8 4 4 4 < < > : : : : ",
": > 1 1 1 1 1 1 1 1 1 4 4 4 4 4 4 1 1 1 4 > O O O $ r.5.E c 5 5 5 6 x 6 4 4 < < < < 4 4 6 6 x 6 4 4 6 8 6 6 8 8 8 8 8 8 8 8 8 8 8 8 8 8 8 8 8 8 8 6 6 4 6 6 6 i i i g j j j g ; O o o o # 1 4 1 1 1 1 4 4 4 3 8 8 8 8 3 4 4 4 4 8 8 8 8 8 3 4 4 1 < < < > : : : ",
"> 1 1 > > > > 1 1 1 1 4 4 4 4 1 1 1 1 1 4 > O O # # 6 a.{ V x x 6 6 4 4 4 4 < < < < < 4 6 6 6 6 6 6 c c c c c 8 8 8 8 8 8 8 8 8 8 8 8 8 8 8 8 8 6 4 4 2 2 4 6 6 4 4 6 i i j g ; O o o o # > 4 1 1 1 1 4 4 4 6 8 8 8 4 1 1 6 8 8 8 6 4 8 8 4 4 4 4 4 4 1 > : : : ",
"1 > > > > > > > 1 1 4 4 4 1 1 1 1 1 1 1 4 * O O # # & a.{ x x x x 4 4 4 4 4 4 < < < < 4 6 6 c c c c c c c c c 8 8 8 8 8 8 8 8 8 c S S S c 8 8 8 8 8 6 2 2 2 6 4 4 4 4 6 6 6 i > O O o o # : 4 1 1 1 1 4 4 4 8 8 8 7 4 c ( { E 8 8 6 4 7 4 4 4 4 4 4 1 < > : : > ",
"> > > > > > > > 1 1 1 1 1 1 1 1 1 1 1 1 1 $ O O O # $ a.~ x x x x 4 4 4 4 4 < < < < 4 6 x V E E E E E c c c 8 8 8 8 8 8 8 8 8 c S S S S S c 8 8 8 8 6 2 4 4 4 4 4 4 4 6 2 4 2 ; O O o O # : 4 1 1 1 1 4 4 8 8 8 8 c { ( S c 8 8 8 8 4 4 4 4 4 4 1 < < < > : > 6 ",
"> > > > > > > > 1 1 1 1 1 1 1 1 1 1 1 1 1 $ O O O # $ ( J x x 6 6 4 4 4 4 4 4 < < 4 4 6 c E E E E E E S c 8 8 8 8 8 8 8 c c 8 E E S S S S S C 8 8 8 6 2 4 4 4 1 4 4 4 4 4 4 4 * O o o o # > 1 1 1 1 4 4 4 8 8 8 8 c c c c 8 8 8 8 4 4 4 4 4 4 4 < > < > > > 4 4 ",
"> > > > > > : > 1 1 1 1 1 1 1 1 1 1 1 1 1 * O O O # $ 6 V x 6 4 4 4 4 4 4 6 4 4 4 4 6 6 c E E E E E S C c 8 8 8 8 c c c 8 8 S { E S S S S S S 8 8 8 6 2 4 4 4 4 1 4 4 1 4 4 4 % O o o o # 1 1 1 1 1 4 4 4 8 8 8 8 8 c 8 8 8 8 8 8 4 4 4 4 4 1 < < > > : : : : > ",
"> > > : > > > > 1 1 1 1 1 1 4 4 1 1 1 1 4 * O O O # $ 6 V x 6 4 4 4 6 4 6 6 6 4 4 6 6 6 c E E E E E c c c 8 c c c c c c c 8 { ) S S S S S S S c c 6 6 4 4 4 4 4 4 1 4 1 4 4 4 % O o o o $ 4 1 1 1 1 4 4 4 4 8 8 8 8 c c c c c c 8 8 4 4 4 4 1 1 : : : : : : : : ",
"> > > > > > > 1 1 1 4 4 4 4 4 4 4 4 4 4 4 * O O + # $ > x x 6 4 4 6 x 6 6 6 6 6 4 4 6 6 c E E E E c c c 8 8 c c c c c c c c { E S S S S S S S S 8 8 6 6 4 4 4 1 1 1 1 1 4 4 4 $ o o o O * 1 1 1 1 1 1 4 4 4 6 8 8 8 8 c c c c c c 8 3 4 4 4 4 1 : = = : = = : : ",
": > : > : : > > 1 4 4 4 4 4 4 4 4 4 4 4 4 * O O O # # = x x 6 4 6 6 6 6 6 x x 6 6 4 6 6 6 c E E E c c 8 6 6 c c c c c c c 8 E S S S S S S S S S 8 8 6 4 4 4 1 1 1 1 1 4 1 4 6 % o o o O $ 1 1 1 1 1 1 4 4 4 4 4 8 8 c c c c c c c 8 8 8 6 4 4 > : : : = = = : : ",
": : : > > > > > 1 1 4 4 4 4 4 4 4 4 4 4 4 * O O O # # = 6 x 4 6 6 6 6 6 6 c c x 6 6 4 6 6 c E E E c 8 6 4 8 c c c c c c c 8 8 8 8 S c S S S S S c 8 4 4 4 4 4 4 1 1 1 1 1 4 6 % o o o O # > 1 1 1 1 1 1 4 4 4 8 8 8 c c c c c c c c 8 8 4 4 4 1 > : : = = = : : ",
": : : > > > > 1 1 4 4 4 4 4 4 4 4 4 4 4 4 * O O O # # * 6 x 4 6 6 6 6 x x c V c c x 6 c V c E E E c 8 4 6 8 6 6 8 c c c c 8 8 8 8 8 8 c S S S S S 8 4 4 4 4 4 4 4 1 1 1 1 4 6 * o o o + # = 1 1 1 1 1 1 1 4 4 8 8 8 c c c c c c c c 8 7 4 4 4 > : = = = = = = = ",
": : : > > > > 1 1 4 4 4 4 4 4 4 4 4 4 4 4 * O O O # # * 5 x 6 4 6 6 6 x c c V c c c c c E c c c c 8 4 4 4 4 6 4 6 8 c c 8 8 8 8 8 8 8 S S S S S S C 8 4 4 4 4 4 1 1 1 1 1 1 6 ; o o o O # * 1 1 1 1 1 1 1 4 4 8 8 c c c 8 4 c c c 8 7 4 4 4 1 > : : : = : : = = ",
": : > > > > > 1 4 4 4 4 4 4 4 4 4 4 1 1 4 $ O O O O # # > x 6 4 6 6 6 6 c c c c C c c c c c 8 8 8 4 4 4 4 4 4 4 4 8 c 8 8 8 8 8 8 8 c S S S S S S S 8 4 4 4 4 1 1 4 1 1 1 4 6 = o o o O # * 1 1 1 1 1 1 1 4 8 8 8 c c c 4 4 c c 8 8 3 4 4 1 < < > : : = * = = = ",
": : > > > > 1 4 4 4 4 4 4 4 4 1 1 1 1 1 : # # # O O # # = x 4 4 6 6 x c c c c c c c c C c c c 8 6 4 4 4 4 4 4 4 6 8 8 8 8 8 8 8 8 8 8 8 8 c S S S 8 4 4 4 4 4 1 1 1 4 1 4 1 6 % o o o o # $ 1 1 1 1 1 1 1 4 8 8 8 c c c 4 8 c 8 8 8 4 4 4 4 < < > : : : = = = = ",
": : > > > 1 4 4 4 4 4 4 4 4 4 1 1 1 > = * # & $ # O O # : 6 4 4 6 6 x c c c c c c c c c c c c 8 4 4 4 4 4 4 4 4 4 8 8 8 8 8 8 8 8 8 8 8 8 8 8 c c 8 4 4 1 1 1 > > 1 1 1 4 4 4 + o o o o O $ 4 4 1 1 1 1 4 4 8 8 c c c 8 4 c c 8 8 8 8 4 4 1 1 < : : : : = = = = ",
": : > > > 1 4 4 4 4 4 4 4 4 4 1 1 1 > 1 1 * * # # O O O * 4 4 4 6 x 6 c c c c c c c c c c c c 8 4 4 4 4 4 4 4 4 4 8 8 8 c 8 8 8 8 8 8 8 8 8 8 8 8 8 4 1 1 > > > ; > > 1 4 4 > # # o o o o # 4 4 1 1 1 1 4 4 8 8 c c c 6 4 c c 8 8 8 8 3 4 4 < < : : : = = * = = ",
": : : > 1 4 4 4 4 4 4 4 4 4 4 1 4 7 7 4 4 > * # # O O O $ > 1 1 1 4 6 c c 6 c c c E c 8 c c c 8 4 4 4 4 4 4 4 4 4 8 8 8 c c c c c c c c c c 8 8 8 4 4 1 > > > > > > > 1 1 4 ; = > # o o o # 4 4 1 1 1 1 4 4 8 8 c c c 4 E E c c 8 8 8 4 4 4 < < > : : : = : = = ",
": : : > 1 4 4 4 4 4 4 4 4 4 1 1 1 1 1 1 4 4 = # O O O O # * > > 1 c x c 6 6 6 6 c E 4 > S c c 6 4 4 1 1 4 4 4 4 4 4 8 8 c c c c c c c c c c 8 8 8 8 4 1 > > > > > > > 1 1 4 > = > $ o o o # C 1 = * > 4 4 4 8 8 c c 8 4 { S c c c 8 8 4 4 4 < > > : : = = = * = ",
": : : > 1 1 4 4 4 4 4 4 4 4 4 1 1 1 1 1 1 4 = # O O O O # $ : > { E 6 c 6 6 6 6 c c : : c c c 4 4 4 1 1 1 1 4 4 4 4 6 8 8 c c c c c c c 8 8 8 c 7 6 1 1 > > > > ; > > 1 1 4 > = > * o o o o $ $ * > 1 4 4 4 8 8 c c 8 4 E c c c 8 8 3 4 4 1 1 < > : : = = = * = ",
": > > > 1 4 4 4 4 4 4 4 1 1 1 1 1 1 1 1 1 4 : # O O O O + # * 4 w.c 6 6 6 x 6 6 c 6 # = c c 8 6 4 4 1 1 1 1 4 4 4 4 4 8 8 8 8 8 c c 8 8 8 8 8 6 4 1 4 > > > > > > > > > > > 1 > 1 * o o o o * c 4 1 1 1 4 4 3 7 8 8 8 8 c c c 8 8 8 4 4 4 4 < < > > : = = = : = ",
"> > > 1 1 4 4 4 4 4 4 4 4 1 1 1 1 1 1 1 4 8 1 # O O O O O # $ c a.E 4 4 4 6 6 8 c = # > E c 8 8 4 4 4 1 1 1 1 4 4 4 6 8 8 8 8 8 8 8 8 8 8 8 8 4 4 1 1 > > > > > > > > > > ; > 4 4 * o o o o S 8.4 1 1 1 1 4 4 4 8 8 8 8 8 8 8 8 6 4 4 4 4 4 < < > : : = = : = = ",
"> > > 1 1 4 4 4 4 4 4 4 4 1 1 1 1 1 1 1 4 8 4 $ O O O O O = E <.E 4 1 1 1 4 6 S 4 # # 4 5.c 8 6 4 4 1 1 1 1 1 4 4 4 4 8 6 6 8 8 8 8 8 8 8 8 4 4 4 1 > > > > ; = ; ; ; > 1 $ > 4 4 * o o o o 4 ) 1 1 1 1 4 4 4 7 8 8 8 8 8 7 4 4 4 4 1 1 1 < 1 > > : : : : : = = ",
"> > > 1 1 4 4 4 4 1 1 1 1 1 1 1 1 1 1 1 4 4 8 = # O O O O > 8 4 > > 1 1 4 6 E { = # $ > 5.c 8 4 4 4 1 1 1 1 1 1 4 4 4 4 4 4 4 6 8 8 4 8 8 4 4 4 1 > > > > = = = = = = 4 = + ; 4 4 * o o o o = ) 4 1 4 4 4 4 4 8 8 8 8 8 8 4 4 4 4 1 > : : > > : : : : : : : = $ ",
"> : > 1 1 1 4 4 4 1 1 1 1 1 1 1 1 1 1 1 1 4 8 8 $ # O O # = = : : : : > 4 c E > # $ * = { Z 8 4 4 4 1 1 1 1 1 1 1 4 4 4 4 4 4 4 4 4 4 4 4 4 4 1 > > > > ; = = = = = > ; + + = 4 4 % o o o o # c 4 1 1 4 4 4 8 8 8 8 4 1 4 3 4 4 4 1 > : : = : : : : : : : = $ # ",
"> > > > 1 1 1 4 4 1 1 1 1 1 1 1 1 1 1 1 1 4 4 ( : O O O $ $ $ : : : : : : : = $ # & * = c c c 4 4 1 1 1 1 1 1 1 1 1 4 4 4 4 4 4 4 4 4 4 4 1 1 1 > > > ; = = = = = > > $ + # * 4 4 $ o o o o o > 4 1 1 4 4 3 8 8 8 4 4 = * 4 4 4 4 1 > : = = * = : : : : : * # = ",
"1 > > > 1 1 1 1 4 4 4 1 1 1 1 1 1 1 1 1 4 4 7 ( = O O O # # # = : : = * * * * * * * * : 4 6 8 6 4 1 1 1 1 1 1 1 4 4 4 4 > > > 1 1 4 4 1 1 4 1 > > > = = = = = = = 1 = # + $ * 1 4 * o o o o o * 1 1 1 1 4 4 8 8 3 4 8 > # > 4 4 4 1 > : = = * = = = : : : $ # 1 ",
"> > > 1 1 1 1 4 4 1 1 1 1 1 1 4 4 4 4 4 4 8 C ( * o O O O O + * & & $ $ $ $ $ $ $ * * > 1 1 1 1 > > > > > > > 1 1 > = * * $ $ % = ; > > > ; ; = ; ; = = = = = = > > * + # * * 1 4 = o o o o o $ 1 1 1 1 1 4 8 7 4 4 8 = # $ 1 4 4 4 1 > : = = : = = : : = $ # : ",
"= > > 1 1 > : = * * * * * * & $ $ $ $ # # $ $ = * O o O O O O O O O O O O O O O # # $ = > > > > = = = = = = = = = = = = = # # $ % = * % $ % % % * * * * * * * * = = $ O o + $ > 4 = o o o o o # > 1 4 1 4 4 4 4 4 4 C % O # $ 1 4 4 4 4 > > : : : : : : * # # # ",
"$ $ $ $ $ # # O O O O O O O O O O O O O O O O O + # # # # O O O O # # # $ # # # # # + # $ $ * * * * * * * * * * * * * * $ o o # $ * * % $ $ # # # # # # # # # # # # + o o O # % * # o o o o o o # * > > 1 4 4 4 7 S S $ o # # $ > 4 4 4 4 4 1 > : = & $ # # # # ",
"O o o O O O O $ = = = = > 1 1 1 > = = : > > 1 1 4 8 8 ) S > 1 > = = = 1 > = * * $ * & $ $ $ $ $ $ $ $ $ # # # # O O O o o o o o o O o o o o o o o o o o o O 1 > % $ # + O O o o o O o o O + o o o o O + # $ $ $ * > 1 O o O # # + # + O O O o o o o o o o o O O ",
"# $ $ # O @ $ 5.S 8 8 8 8 8 8 4 4 1 1 1 4 4 4 4 4 4 8 -.S 7 C c c > 4 E 8 8 6 4 1 1 1 1 1 1 1 1 > > > > > S 7.8 * $ = = > 1 > = * % % O o o o o o o o o # B.J.7.) ` ` G 8 4 > * * * = $ O + + O o o o o o o o o O O O O o # # O . . o O O O + + O O O # # # + + ",
"1 4 1 * # @ & u.4 1 1 1 1 1 1 1 1 1 1 1 1 1 4 4 4 4 1 : 1 4 4 4 8 1 8 c 8 8 8 8 7 4 4 4 4 1 4 4 4 4 4 4 4 4 7 4 ; % 4 / -.-.( ( E S 8 = o o o o o o o # N.G.E > 4 u g k ! ^ ! g i j 2.> + + + # $ * = = = > 1 > > > > > = $ $ * 1 4 8 S E ) 7.) = = > 1 4 4 1 1 ",
"E ( 4 : $ @ # 7 4 1 1 1 1 1 1 1 1 1 4 4 4 8 8 S S 8 = * > 6 6 4 6 6 c c c c 8 8 8 8 4 4 4 4 4 4 4 4 4 4 4 4 4 4 4 1 3 S -.-.) ( ( ( 8 1 $ o o o O + * c.c.> : 1 2 2 y i i i i i i j ^ 6 # + + $ > q.q.2.2.2.2.' ` ` ` ^ k j 7.7.' 2.2.7.7.8.2.' 8 6 8 8 8 E E c ",
"a.8 > : $ @ $ 6 4 1 1 1 1 1 1 1 1 1 4 4 8 8 S S S 4 > 6 E S c 8 8 c c c c c C c c 8 8 8 8 8 8 7 4 1 1 1 4 4 4 3 8 8 3 S -.-.1.( ( S 3 1 > # o o O * 8 5.> : > 4 4 2 u u i i i i u i i i > # + # * G q.i i i i i i i u 2 2 2 2 4 1 1 4 4 1 4 4 2 4 4 4 6 6 S 8.5.",
"c 1 > = # @ $ 6 4 1 1 1 1 1 1 1 1 1 4 4 8 c S S S 8 s.c.a.S c 8 c c c c c S S S c c c c 8 8 8 8 4 > > 4 4 4 3 8 r 8 3 / -.-.-.( ( r 8 1 1 % o o O % > 4 1 1 4 4 4 2 y y u u i u u u u u i ; + # * 1 q.k i i i i i i 2 4 4 4 4 4 1 1 2 1 1 1 1 1 1 2 2 4 4 4 6 j ",
"1 1 > * @ @ & 6 4 1 1 1 1 1 1 1 1 1 4 7 8 S S E ( h.c.8.( S c S c S c S S S S S S S S c c 8 8 8 7 > 1 4 4 4 3 8 r 8 3 S 1.( ( ( S 8 3 3 ; # o o O ; 4 4 4 2 2 4 4 2 y i u y u u u u u u i > # # * > 2.^ g g g i i i 2 4 4 4 1 1 1 1 1 1 2 2 2 2 6 6 2 4 1 1 1 1 ",
"1 1 > & @ @ & 6 4 1 1 1 1 1 1 1 1 4 4 4 8 S E ) -.u.5.-.) ) E E E S S S E ) ) E S E S S S S 8 8 7 1 8 4 4 3 3 3 8 8 r S / S r r 8 8 3 1 $ # o o O > i 1 1 4 2 2 4 2 u g i u u u u u u u i ; # # * ; ' 2.z z k i i i i 2 2 2 1 1 1 1 2 2 2 2 2 2 6 6 6 4 1 1 1 1 ",
"1 1 > $ @ @ $ 4 4 1 1 1 1 1 1 1 1 4 4 8 S S E ) 7.5.7.7.7.-.) ) ) E E E ) { { -.-.) ( S c c 8 8 4 4 C 4 3 3 3 3 3 8 r r 8 8 3 3 3 3 1 $ O O O o O * 6 > ; 1 2 2 4 2 i g i i u u u u u u i * + # * > 2.9.z z z g g g g u 2 1 1 1 1 2 2 2 2 2 2 2 6 6 4 4 1 1 1 1 ",
"1 4 > # @ @ & > 4 1 1 1 1 1 1 4 4 4 4 8 S S E -.5.5.7.5.7.) ) ) ) ) ) ) 7.7.7.7.7.) ) S c c 8 8 4 4 C 4 3 3 3 3 3 3 8 8 3 3 3 3 3 3 = # o + # O O # 4 > ; , 2 2 2 y i g j i i i j i y u u * + # * ; 2.0.z z z z z k g 2 2 1 , 1 1 2 1 1 2 2 2 4 6 6 6 2 4 1 1 1 ",
"1 4 > # @ @ & = 4 4 4 1 1 4 4 4 4 4 8 S S S ) 7.5.5.5.5.7.7.) ) ) ) ) ) 7.7.7.7.{ ) E S c c c 8 4 4 S 4 3 3 3 3 3 3 3 8 8 3 3 3 3 1 # # O # O o O # 1 > ; ; 2 2 2 2 i j j j i k k u y u u % + # * ; 2.q.z z z g g i u 2 2 2 1 1 1 1 1 1 2 2 2 2 2 6 6 2 4 1 1 1 ",
"1 4 1 # @ @ & = 1 4 4 4 4 4 4 4 4 4 8 S S ) -.5.5.5.8.5.5.7.7.-.{ 7.7.-.7.7.7.) ) E S S c c c c 4 > 8 3 3 3 3 3 3 3 3 3 3 3 3 3 1 % # # # # O o O # > > ; ; 1 2 2 2 i j g j g G k i u u 6 $ + # * ; ' q.z k g i i i y 2 2 2 2 1 1 1 1 1 2 2 4 2 4 2 2 2 4 1 1 1 ",
"1 4 4 # @ @ $ * 1 4 4 4 4 4 4 4 4 3 S S S ) -.8.5.5.8.5.7.7.7.-.-.7.7.7.7.-.) ) E S S c S c c c 1 > 3 3 3 3 3 3 3 3 3 3 3 3 3 3 > 1 4 = * # o o o # > 1 ; ; 1 2 2 2 u i i g G G i i i i 6 # + # * ; S 2.z g i i 2 2 2 2 2 1 1 1 1 1 1 2 2 2 2 1 1 1 2 2 4 1 1 1 ",
"1 1 3 & O @ $ * : 4 4 4 4 4 4 4 4 8 S S S ( { 5.5.5.5.7.5.7.) ) ) -.7.7.7.-.) S S c c c c 8 c 8 4 / 3 3 3 3 4 4 3 3 3 3 3 3 3 4 4 S 8.8 * O o o o # > 1 ; ; , , 2 2 y i i G G i i u i g 2 # + + * ; 6 ` g i i 2 2 2 i 2 2 1 1 1 1 1 1 2 2 2 2 2 4 4 1 4 2 4 1 1 ",
"1 4 S = O @ @ # # $ = 1 4 4 4 4 7 8 8 S S S ) 5.5.5.5.5.7.) ) ) ) ) 7.) ) S S c 8 8 8 8 8 8 8 8 -.) 3 3 4 4 4 4 4 4 4 4 4 4 4 4 4 4 4 r 1 # o o o # > ; - ; ; ; 2 2 y u i g i u u u i g 2 # + # * ; 4 ^ i i u 2 2 i i 2 2 1 , 1 1 1 1 1 1 1 2 2 4 4 2 u i i 6 2 ",
"C r ( = @ @ # $ $ # # $ = > 4 7 8 8 c S S S { 5.5.5.8.8.7.) ) ) ) ) ) S S S c c 8 8 8 8 8 8 8 S u.8 4 4 1 1 1 4 4 1 1 4 4 4 4 3 3 4 4 1 4 = O o O $ 4 - - - ; ; 2 y u y 2 y y y u u i i 4 # + # * ; 4 ^ i i 2 1 2 i i u u 4 1 4 , 1 1 1 1 2 2 2 2 i k ` 2.2.2.^ ",
"( ) ) * O @ * = = 4 b.S 4 1 4 7 8 8 S S S E { 5.5.5.5.5.7.-.) ) ) ) S c { S c 8 8 8 4 4 6 4 4 ) 8.4 4 1 1 1 1 1 1 1 1 1 4 4 4 4 1 4 1 1 ; # o o o % 2 - - - ; ; 1 2 u y 2 2 y y u y y u 4 # + # % = 6 ! i i i 2 i i g i u 4 4 4 , 1 1 1 1 2 u i i g ` 0.0.2.2.' ",
"* > 8 $ O O * = 1 Z.N.E 8 8 8 7 7 8 S S S E ) 7.5.5.8.5.-.) ) ( E E c S { 8 8 8 8 4 4 4 4 4 4 S 8 4 4 1 1 1 1 1 1 > > 1 1 1 1 1 1 1 1 > # o o o o * 4 - - - - > 1 2 y 2 y 2 y y u y 2 y 4 # + + # * 6 G i u 2 2 4 4 2 1 ; * * * * * * * * * ; ; ; ; ; ; * * * = ",
"O O O O O # = 4 Z.Z.( 8 8 8 7 4 4 8 c S S S ) 7.5.5.5.-.( S S S S S 8 ) E 8 8 8 4 4 4 4 4 4 4 4 4 4 4 1 1 1 > 1 > ; ; > > 1 1 1 1 1 1 > # o o o o = 1 - - - - ; 1 2 2 2 y 2 2 2 2 2 2 2 6 $ + + # $ % % $ # # # # # # # O o O o o o o o O O + + + + # # + + + + ",
"1 4 S = O + = 8.F.c.( C 8 8 7 4 4 3 8 8 S S S ) 7.7.7.) S S S S S S 8 { c 8 8 8 8 4 4 4 4 4 1 1 4 4 4 1 1 1 > > ; ; ; ; ; 1 1 1 1 1 1 * o o o o o 1 , - - - - ; > 1 , 2 2 2 2 2 2 2 2 2 2 # + + + % * * $ $ $ $ * # # # + O O o O O o O # * = = = ; 1 8 c 4 * * ",
"{ -.D.-.o O $ 4 D.v.( S 8 8 4 4 4 4 8 8 c j S ) -.) ) S S S S S S S 8 ) 8 8 8 8 8 4 1 1 1 1 1 1 > 1 1 1 1 1 > ; ; ; ; ; > > 1 1 1 1 1 # o o o o O 2 > - - - - - ; , 1 1 1 1 1 1 2 2 1 2 2 # + + + ; k h G ` ` 2.' 1 ; = * $ # # # # + $ 1 4 4 1 1 7 8 E ( { { c ",
"-.-.b.8 O O # $ ) l.E 8 8 4 4 4 4 4 4 8 8 8 S E ) ) E S S S S S S 8 8 S 8 8 8 6 4 1 > > > > > > > > 1 1 1 1 > ; ; ; ; ; > 1 1 1 1 1 1 + o o o o O > > - - - - - - ; 1 2 1 1 1 1 1 1 , 2 2 # + + # * 2 u 6 j G ` ' ` ^ 8 4 > = * = * $ > -.c 7 4 4 6 7 7 8 8 C c ",
"{ a.N.1 o O # $ 4 c.S 8 8 4 4 4 4 4 4 4 8 8 S S S S S S j 8 8 8 8 8 8 8 6 4 4 4 4 1 > > > > > > > > > 1 1 1 1 > ; ; ; ; ; > > 1 1 1 > # o o o o + = ; - - - - - - ; 2 2 2 , 1 1 1 1 1 2 u # + + $ * 2 6 6 6 8 8 8 8 8 6 6 6 6 4 S > * c 5.8 4 4 4 4 4 4 7 8 8 c ",
"a.z.N.: O O # $ 4 c.E 8 4 4 4 4 4 4 4 4 8 8 8 S S S S S 8 8 4 8 8 8 8 6 4 4 4 4 4 1 > > > > > > > > ; > 1 1 1 > ; ; ; ; ; ; > 1 1 1 ; # o o o o + * ; ; ; - - - ; 2 1 2 1 1 1 , , , 2 y ^ % + + $ * 4 6 u u 8 8 8 8 8 4 4 4 6 S S > * 8 { 7 4 4 4 4 4 4 8 8 c C ",
"s.b.B.= O O # $ 4 v.E 8 4 4 4 4 4 4 4 4 8 8 8 S S S S S 8 8 4 4 8 8 8 4 4 4 4 4 4 1 1 > > > ; ; ; ; ; > > > ; ; ; = = ; ; ; ; > 1 1 * # o o o o o # * = = - - ; , 1 2 2 2 1 1 1 1 2 2 y ` * + + $ * 4 6 6 6 6 8 8 8 8 8 6 4 4 6 8 1 * > c 8 4 4 4 4 4 7 8 c E -.",
"h.c.b.* o O # $ : u.S 7 4 4 4 4 4 4 4 4 7 8 8 S S S S S S 8 8 4 6 4 4 4 4 4 4 4 4 1 1 1 > > ; ; ; ; ; ; ; ; ; ; ; = = ; ; ; ; ; > 4 # o o o O # # O o o o o + # # $ % % - - ; , 1 2 2 2 ! * + + # * 2 2 4 4 6 6 j j j 8 8 6 4 6 8 8 > > 8 4 4 4 4 4 7 8 c E { r.",
"h.v.h.$ o O # % * { S 7 4 4 4 4 4 4 4 4 4 8 8 S S S S S S 8 8 8 6 4 4 4 4 4 4 4 1 1 1 1 > > > > > ; ; ; ; ; ; ; = = ; ; ; ; ; ; > ; O O O o + = 4 S * $ # # $ % * % # + O O + + $ % - ; 2 % + + # = 2 4 1 1 4 6 8 8 8 8 8 6 4 8 8 S 8 1 8 7 6 7 4 4 8 c E ( -.a.",
"j.v.z.$ o O # * * E E 7 4 4 4 4 4 4 4 4 4 4 8 j S S S S S 8 4 8 6 4 4 4 4 4 4 4 4 1 1 1 > > > > > > > > > ; ; ; = = ; ; ; ; ; ; 1 > # # O o $ > C ) 4 1 1 4 4 c 8 4 4 4 1 1 S 2.' % + + # # + + # ; 2 4 4 4 4 6 8 8 j 8 8 8 8 8 j S ( c c 8 8 8 8 8 c C ( { 5.a.",
"z.b.v.* o O # * = E ( 8 4 4 4 4 4 4 4 4 4 4 4 8 S S S S 8 8 4 8 8 6 8 6 4 4 4 4 4 4 4 4 1 > > > > > > > > > > > ; ; ; ; ; ; > = * % # # O O = 4 E 4 4 4 4 c S E S 8 8 S 7.d.f.z.c.1 + + + + + + # 1 2 1 4 4 6 6 6 8 i 8 8 j 8 8 8 S ( S c 8 8 8 8 8 c E { 5.8.a.",
"j.b.v.* O O # * > 5.E 8 4 4 4 4 4 4 4 4 4 4 4 8 ) c > 8 8 7 4 7 7 4 8 4 4 4 4 6 8 1 1 4 > ; ; > > > > > > > > > ; ; > > > = % O   o # # o # 1 8 E < > < < 1 4 4 6 8 c S S S E 8.j.4 + + + + + + # 1 6 4 2 6 6 u 6 6 i 8 8 8 8 8 S S E E c c 8 8 8 c c E { 5.r.a.",
"h.z.z.* O O # * 4 b.( 8 4 4 4 4 4 4 4 4 4 4 4 j 7.8 $ > 4 7 4 6 6 4 6 4 4 4 4 6 4 = ; 4 > ; ; ; > > > > > > > > ; > > = # o     O = = # o * 8 c 4 < < > > > 1 4 4 4 4 8 8 S E 7.c.8 + + + + + + # 6 G 6 6 6 6 u 6 6 i 8 8 8 8 8 S S E ( ( S c 8 8 8 c E -.5.r.a.",
"h.h.s.& O O + $ ) N.E 8 4 4 4 4 4 4 4 4 4 4 S ) f.` $ * > 4 8 8 8 8 8 6 4 4 4 6 > $ * 4 > > > > > > > > > > > > > = O     o # = > 4 c # o > S 4 > < < < > 1 4 1 4 4 6 8 S E E { n.7.$ $ # # + + $ 7.2.4 4 6 6 6 6 6 i 8 c 8 j 8 S S ( ( ( E c 8 8 8 c E { 5.8.a.",
"h.h.s.= O O O $ 7.b.( 8 4 4 4 4 4 4 4 4 4 8 E 7.f.G # * * = > 1 4 4 4 8 6 4 8 4 $ + % > 4 4 4 1 > > = = = * $ # # O o O # = > > > > 8 * O 1 4 > < > > > > < 1 4 4 4 6 8 S E { 7.c.k.* * > = # + $ 4 G 4 4 4 6 6 6 8 8 S S c c S S E ( ( ( ( c 8 8 8 c C ( -.5.a.",
"h.h.h.c O O O $ -.N.{ C 4 4 4 4 4 4 4 4 7 4 4 8 { 8 # * * * * * * * = = = = > > # O # $ % $ * * $ # + + O O O O # # # $ $ > > > > > > * # 4 > > < < < > < < 1 4 4 4 4 4 8 ) 7.7.M.n.8 ` 1 1 $ + * = 8 4 4 4 6 6 i 8 S S S S S S ( ( ( ( ( ( E c 8 8 c c E { 5.8.",
"h.h.j.8.# o O # 8 c.) 7 1 1 4 4 4 7 3 4 1 = * * > = O # $ # # # # # # # # # # # + O O O O + # # # # # # # $ % * * * * = = > > = = = = = $ 1 > > > > < > > < 4 1 1 4 4 4 8 Y 7.2.S.H.H.' = * # + % * > 4 4 4 4 6 6 8 S S S S S E ( ( ( { ) ) ( c c c c c S ( 7.8.",
"h.j.c.E O O O O # = = * * * = = * * $ $ + O O O O + # * > % # # # * > > > = = * # O O + $ = > ; > = * * * * * * * * * * * * * * * * = ; * > > > > > > > > < 1 1 1 4 4 4 8 S 7.q.C.V.j # + + + + $ * > 4 4 4 4 4 6 8 8 S S S E ( ( ( ( ) { { ( S c c c c E ( -.8.",
"j.c.c.1 O O O O O O # # # # # # # # # * = > > > S 8.8.4 , > * # # 1 8 4 6 8 8 = # O O $ = 8 S = * * * * * * = * * * * * * * * * * * = = > > > > > > > > > > < > > 1 4 4 8 S ) ^ j = # $ # + + + # * ; 4 4 4 4 4 8 8 j 8 S S S ( ( ) ) -.7.7.( 6 c c c S ( ( { r.",
"j.c.j.* + O # % $ = 4 4 1 > 1 4 4 6 6 { 7.8 4 4 d.N.7., , , > $ $ 1 > ; ; > > $ # O + * 1 { 1 = * * * * = = = = = * = * * * * * * = = = ; > = > > > > > > > > > < 4 4 4 8 j E 8.n.S.h ; $ + + + # * = 4 4 4 4 4 8 8 8 8 8 c S ( ) -.7.5.8.8.8 4 C c c E ( ( -.r.",
"j.c.8.$ # # % > 8 8 > > > > > > > > > > > > > > > S 8.4 , , 6 > * > ; ; ; ; ; $ # + O = { E > = = = = = = = = = = = = = * * * = = = = = = > ; = ; > > > > > > > 1 1 4 4 8 S E E ) k.f.4 * + + + + $ * 4 4 4 4 4 8 j 8 8 8 8 S ( ) -.8.8.8.8.8 ( ( E S ( ( ( 5.8.",
"j.m.5.# # * * 8 E ; ; ; ; ; ; ; > > > > > > > > > , 4 , , , 5 8 ; ; ; ; ; ; ; $ + O O * E S > = = ; = = = = = = = = = = * * = = = = = = = = = = = ; = > > > > > 1 4 4 4 j S E E E 7.f.j.8 # + + + # * ) 8 4 4 4 6 8 6 6 8 8 S ( -.5.8.8.8.-.C r.( ( ( ( ( { 5.8.",
"j.m.E O # * = 4 8 ; ; ; ; ; ; ; ; > > > > > > , , , , , , , , 6 > ; ; ; ; ; ; # O O O # > 6 4 > > > > > > > > > > > > = = = = ; > > = = = = = = = = = > > > > > 1 4 4 8 S E E E E ) q.c.` # + + + # * d.8 4 4 4 4 4 4 8 8 8 S E ) 7.8.8.8.{ ( u.) ( ( ( ( { 5.8.",
"j.N.4 O O * > 1 c > ; ; ; ; ; ; ; > > > > > > , , , , , , , , , > > > > ; ; ; # O O O # = 4 6 > > > > > > > > > > > > > > ; > > > > > = = = = = = ; = = > > > > 4 4 4 8 E { ) ) ) { 8.k.` # + + + + % ` 6 4 4 4 6 6 6 8 8 8 S ( { -.5.8.8.7.s.v.-.( ( ( ( -.5.a.",
"j.B.1 O O * > 1 S > ; ; ; ; ; ; ; > > > > > > , , , , , , , , , > > > > ; = $ + O + # # * 1 8 , > > > > > > > > > > > > > > > > = = ; ; = = ; = = = = = ; > > > 4 4 6 S ) 7.7.7.5.5.8.k.) # + + + + # S 4 4 4 4 6 8 j 8 8 S E ( ) 7.8.8.8.u.b.b.8.{ ) ( { -.8.a.",
"z.B.1 O O * > 4 S ; ; ; ; ; ; ; ; ; ; > > > > , , , , , , , , , > > > > > > = $ + # # # * > c 6 4 4 > > > > > > > > > > > > > = = = = = = = = = = = = = = > > > 4 6 8 S ) 7.8.5.8.8.8.k.8 # # # + + # 8 4 4 4 4 4 8 8 8 8 S ( ( ) { 7.5.8.h.b.s.5.7.{ ) { 7.a.a.",
"z.B.1 O O * = 4 6 = ; ; ; ; ; ; ; ; ; > > > > > , , , , , , , > > > > > > > > * # O # $ * > S c 4 4 > > > > > > > > > > > > > = = = = = ; ; = = = = = = = > > < 4 8 j S ) 2.8.8.q.q.f.k.6 # $ # + + # 1 4 4 4 4 4 8 j 8 8 c S E ( ( ) 7.5.a.a.8.5.-.-.{ 7.5.a.a.",
"z.N.> O + * ; 1 > * = = = = = = = ; ; > > > > > , , , , , , , , > > > > > > > ; $ + # # * > c 6 , < > > > > > > > > > > > > > > > = > > > > ; = = = = ; = > > > 4 6 8 S ) 7.5.f.f.f.f.k.6 # # # + + * j 1 4 4 4 8 8 8 8 8 8 8 S S E ( { -.7.5.5.8.5.7.{ 5.5.a.a.",
"j.b.> O # * > 4 = * * * * * * * * ; ; ; > > > > > , , , , , , , , > > > > > > > % O # # * 4 6 > > > > > > > > > > > > > > > > > > > > > > > > = = = = = ; > > > 4 6 8 j S ) 7.q.f.f.k.c.6 # # # + + > 4 1 4 4 6 8 8 8 8 6 6 6 8 c S ( ( { ) { -.7.7.) { { { 8.a.",
"c.N.> O # * 1 6 * * * * * * * * * ; ; ; ; > > > > , , , , , , , , , > > > > > 4 = O + # * 4 4 4 > 4 4 > > > > > > > > > > > > > > > > > > > > > ; = * = ; > > > 1 4 8 8 S ) 7.5.d.f.j.m.6 # + + + + * 1 1 1 4 4 4 4 4 4 4 4 6 8 j S E ( ( ( ) ) ) { { ) { -.5.a.",
"b.Z.> O $ * 1 > * * * * * * * * * = ; ; ; > > > > , , , , , , , , , > > > > 1 6 6 * O # * 4 4 4 4 4 4 4 4 > > > > > > > > > > > > > > > > > > > = = = = > > < 1 4 4 6 8 S E ' 7.8.d.j.M.8 # + + + + $ 1 1 1 4 4 4 4 4 4 4 4 6 8 j S S S E E ( ( ( ) { -.-.5.5.8.",
"z.m.= O $ * = ; * * * * * * * * * = ; ; > > > > > , , , , , , , > > > > > > 4 8 S > O # * 4 4 4 4 4 4 4 4 > > > > > > > > > > > > > > > > > > > = = = = > > < 1 4 4 4 j S E ` 7.5.8.f.M.S # + + + + # > 1 1 1 4 4 4 4 4 4 4 6 8 8 c S S S S S ( ( ( { ) -.5.5.8.",
"j.m.> O # * = = * * * * * * * * * * = ; > > > , , , , , , > > > > > > > > > 1 c S > # # * > , 4 4 4 4 4 4 > > > > > > > 1 1 1 > > > > > > > > > > > > > > > < 4 4 4 8 S S E ` 7.5.8.f.M.) # + + + + # > 1 > 1 1 1 1 1 4 4 4 6 6 8 8 S S S S S ( ( ( ) -.-.-.8.a.",
"h.m.> O O $ 4 = * * * * * * * * * * * ; ; > > > , , , , , > > > > > > > > > 1 c S 1 # # $ > 4 4 4 , 4 4 4 > > > > > > 1 1 1 < > > > > > > > > > > > > > > > > 1 4 4 8 S E ) 7.7.7.8.f.m.' $ + + + + + = > > > > > 1 1 1 4 4 4 4 4 6 8 c S S E ( ( ( ( ) ) -.a.a.",
"h.c.; O o # 1 = * * * * * * * * * * * = ; > > 4 4 1 , , , > > > > > > > > > 4 S E 4 # # # # > 4 4 4 4 4 4 4 > > > > 1 1 4 1 1 < > > > > > > > > ; > > > > > > 1 4 4 8 S ) 7.7.7.7.8.d.n.8.$ + + + + + = > = > > > > 1 1 1 1 4 4 4 6 8 C S ( ( ( ( ( ) { -.5.a.a.",
"h.7.$ + O O O # # # $ $ * * * * * * * = > > 1 1 4 1 , , , > > > > > > > > > 4 S E 4 # # # # # * > > 4 4 4 > > > 1 4 4 1 1 4 4 1 > > > > > > > > > > > > > > 1 4 4 4 8 S { 7.7.7.8.5.q.n.j.* + + + + + * > = ; > > > > > 1 1 1 4 4 6 8 S E ( ( ( ( ) { { 5.5.8.a.",
"v.z.8 # O # # O O O O + $ * * * * * * ; > > 1 1 4 4 , , , > > > > > > > > > 4 8 S 4 # # # # # # $ = : = : > > > 4 4 4 4 4 4 4 4 1 > > > > > > > > > > > > 1 1 4 4 4 8 S ) 7.7.8.8.2.8.n.n.= + + + + + = = = = = > > > > 1 1 1 1 4 4 8 S E ( ) { ) ) -.5.5.5.r.a.",
"B.D.j.O O $ * * * = = * & * * * * * * = ; > > 1 4 4 4 , > > > > > > > > > > 4 4 6 1 # # # # $ * > c 4 > > > 1 1 1 4 4 4 4 4 4 4 4 1 > > > > > > > > > > > 1 4 4 4 4 4 8 S ) 5.8.8.8.8.f.M.> + + + + # 4 = = = = = = > > > > 1 1 4 4 4 8 S E ( ( ) { -.5.5.8.u.v.",
"v.Z.4 O O # = 6 4 > * # # & * * * * * * = > > > 4 4 4 , > > > > ; ; = = > > > > > 1 # # # * 1 6 8 4 > > > > < > > > 4 4 4 4 4 6 4 1 > > > > > > > > > > 1 4 4 4 4 4 4 8 S Y 7.8.8.8.8.a.M.6 + + + + $ 6 = = = = = = = = > > > 1 1 1 4 4 8 S E ( ) -.5.5.8.a.a.u.",
"z.B.= O O O 4 d.* # # # # * * * * * * * = > > > 1 1 1 1 > > ; ; ; ; = * = ; > > > > O o O : S > > > > > > > > > > > 4 4 4 6 6 6 4 4 < > > > > > > > > 1 4 4 4 4 8 6 8 8 S E ` 7.8.8.8.8.m.6 + + + + > C = * * * * * * * = = > > > 1 1 4 4 8 S E ( { -.5.5.8.8.8.",
"z.N.* O O O * 4 $ # # # # # & * * * * * ; > > > 1 4 1 4 > > ; ; = = * * * = ; ; > > O o O * 8 > : : > > : > > > > > 4 4 4 4 6 6 4 4 4 > > > > > > > 1 4 4 4 4 8 8 6 8 j S E 7.7.8.8.8.8.n.4 + + + + S 8 * * * * * * * * * = = = = > > 1 4 6 8 S E E ( { 5.8.a.a.",
"j.B.= O O O # > # # # # # # $ * * * * = ; ; > > > 4 4 4 > > > = * * * * * * = = = > O o O $ 6 : : = : : : : > > > > 4 4 4 4 4 4 4 4 1 > > > > > < < 1 4 4 4 4 8 8 8 j S S ) 7.7.8.8.8.8.k.4 + + + # 5.> * $ * * $ $ * * * * * = = = > 1 4 4 8 S S S ( { 5.r.a.a.",
"j.B.4 O O O # = # # # # # # # * * * = ; = = ; > > 4 1 4 > > > = * * * * * * * * = ; O o O # 4 > = * = : : : > > > > > < 4 4 4 4 4 4 1 > > > > > < 4 4 4 4 4 4 6 8 j S S E { 7.2.5.5.8.d.d.> + + + = 5.* $ $ $ $ $ $ $ * * * * * = = = > 1 4 4 8 S ( ( { 5.8.a.a.",
"h.B.C o O O O * # # # # # # # $ * * * * * = = > > > > > > > > ; * * * * * * * * = = O o O O > = * * * = : : : : > > > > 4 4 4 4 4 4 < < > > < < < 4 4 4 4 4 4 8 S S S E E 7.5.8.8.8.8.d.d.> + + + 8 S * $ $ $ $ $ $ $ $ * * * * * = = > 1 4 4 4 j S ( ) -.5.a.a.",
"s.B.-.O O O O & $ # # # # # # $ * * * = = = * = > > > > > > > ; = * * * * * * * * = O X o O : * * * * * * = : : > > > 1 4 4 4 4 4 1 1 < > > < 1 1 4 4 4 4 4 6 j S S S E ) 7.5.8.7.{ ) S 6 % + O # 8.1 * $ $ $ $ $ $ $ $ $ $ * * * = = = > 1 4 4 8 S E ( { 5.a.a.",
"d.N.-.O O O O $ & # # # # # # & * * * = = * * * ; > > > > > > ; = * * * * * $ $ * = O X o O = * * * * * * * : : > > > 4 4 4 4 4 4 1 < < < < > 1 1 4 4 4 4 4 8 S S E ) { 7.7.8.) 8 4 8 ' S # + O # G > * * * $ $ $ $ $ $ $ $ $ $ $ * = = > 1 1 4 4 8 S ( -.5.a.a.",
"u.c.8 O O O O # * # # # # # # * & # * * * * * * = ; > > > > ; ; = * $ $ $ $ $ $ * = O X X # * $ & * * * * * = : > > > 4 4 4 4 4 1 1 < > > < 1 4 4 1 4 4 4 6 j S E ) 7.7.7.2.5.7.8.f.j.) * + + O O * > * * * $ $ $ $ $ $ $ $ $ $ $ $ * = = > 1 1 4 4 c ( ) -.8.a.",
"u.-.* O O O O # & # # # # # # # # # * % * * * * = ; ; ; > > ; ; * * * * % $ $ $ % = O X o # # # $ $ $ $ $ * * : > > > 4 4 4 4 4 1 < > > > 4 1 4 4 4 4 4 4 8 j E ) 7.7.5.8.8.8.f.f.k.S > $ + + O o * > * & $ $ $ $ $ $ $ $ $ $ # # $ * * = > > 1 4 4 6 S ( ) 7.8.",
"4 * $ # O O O O * # # # # # # # # # % % % * = = * = ; ; ; ; ; = * * * * % $ $ $ $ = O X O @ @ @ # $ $ $ $ $ * = > > > 1 4 4 4 1 > < < > < 1 1 1 4 4 4 6 4 6 S ) 7.7.7.8.8.8.5.d.k.) 1 > * + + O o * > * & $ $ $ $ $ $ $ # # # # # $ $ * * = > > 1 4 4 4 8 S ) { ",
"> > 4 # O O O O $ # # # # # # # # # $ % % * * = * * = = = ; = * * * * * $ $ $ $ $ * O X O @ @ @ # $ $ $ $ $ * * : > > 1 4 4 4 4 < > > < < 1 1 1 4 4 8 8 6 8 S { 7.5.8.8.5.) 2.k.j.8 1 1 * + + O o * > * $ $ $ $ $ $ $ $ # # # # # # $ * * = = > > 1 4 4 4 8 8 4 ",
"4 1 = O # # O O # $ # # # # # # # # % % % * * = = * = * = ; = = * * * * % $ $ $ $ * O X o @ @ @ # $ $ $ $ $ $ * = > > > 4 4 4 4 1 1 > > < < < 4 4 4 S S j S S 7.7.8.8.5.) 1 2.k.j.8 1 1 * O O o o * > * $ $ $ $ $ $ $ $ # # # # # # $ * * = = = > 1 4 4 4 4 1 4 ",
"1 > = # * # O O # # # # # # # # # $ % % % * * * * * * * = * # * = * * * * $ $ $ $ * # X o @ @ @ $ $ $ $ $ $ $ & = : > > 1 4 4 4 4 1 < < > < 1 4 4 6 j E E E ) 7.5.5.8.7.8 > ) d.z.S 1 1 * o O O o * > $ $ $ $ $ # $ $ $ $ # # # # # # * * * = = > > 4 4 6 4 1 S ",
"1 > = * * # O O O # # # # # # # # $ % % % * * = * = * * = # O # * * * * * * % $ $ $ @ X X O @ @ $ $ $ $ # O # $ * : > > 4 4 4 4 4 4 1 > > < 1 4 4 6 j j E { 7.7.7.7.7.S 4 > S 8.f.) 4 1 $ o o o o % > * $ $ $ # O $ $ $ # # # # # # # $ * * = = > > 1 4 6 4 4 S ",
"1 > = * * # O O O O # # # # # # # $ % % % * = = = = = = = # O # # $ * * * * * $ $ $ # X X o O O @ # # # o o O $ * : > > 4 4 4 4 4 4 4 4 4 1 4 4 6 j k G ) 7.7.7.7.7.S 4 4 1 4 8 8 4 > > # o o o o $ 1 = $ $ $ o + $ $ $ $ # # # # # # # $ $ * ; > 4 4 8 8 8 8 E ",
"= * $ * * # o o o o O O O O O O O O # # # $ $ # $ $ $ $ $ O o o O O # # # # # # # # O X X X X X X X o X X X o O $ * = : > > > > = = * $ $ # # # $ % = > > > > = = = * * % # # # O O O O o o o o o O > > $ $ # o o # $ $ $ # # # # # O O O O O $ * > > = = * * > ",
"o o o o O O o o o o o o o o o o o o o o O O O O O O O o o o o o o O O O O O O O O O o X X X o o o X o o X X X o o o o o o o o O o o o . o o O + # # O O O o # # # # # # + + O o o o o o o o o o o o # $ # O o o o o O + O o o o o o o o o o o o O O O O o o o o ",
"O O o o o o o o o o o o o o o o o o o O O O O O O O O o O # & & * * * * * * * * * * * O o o O # = * # O O o o O O $ = : > c 4 1 1 > > > 4 8 ) j.A.V.4 # # # 1 S j j G ` 0.q.4 o o o O + O o o o o o o o o o o o o O O O O O O o O o o o o O o O O O o o o o o o ",
"# # # # O O # # # O O O O # # # # # # # # # O O O O O + # & * * * = : = = : > > > > > & O O @ * > > > = 6 > O O = 8 c 6 6 c 4 4 4 4 4 8 E E ) 7.7.7.S $ # = 2.j 6 j j ` k.M.q.# o o % > > = * % $ # # O o o o $ $ $ $ $ $ $ $ $ $ $ # $ $ * = * * # O O O + O O ",
"* = * $ O * : # # # # # # * * * * * * * * # O O O # # $ * * * = > > > > > > > > > > > : # @ # : : : : > c 4 O O > 4 > > > > > > 1 4 4 4 6 4 4 4 4 4 S > # G ` 6 6 4 4 j G 0.0.* o o # 1 1 1 1 1 1 1 1 $ o o # 1 1 = = = = = = = = > 1 S h.b.N.( * $ # $ : * * $ "
};
