/* XPM */
static char *texture11[] = {
/* columns rows colors chars-per-pixel */
"128 128 239 2 ",
"   c #2D2416",
".  c #2D2719",
"X  c #2E281A",
"o  c #322617",
"O  c #352817",
"+  c #312618",
"@  c #352B1B",
"#  c #3A2D1C",
"$  c #37301F",
"%  c #3D311E",
"&  c #3D3421",
"*  c #3B3524",
"=  c #42341E",
"-  c #49351F",
";  c #423622",
":  c #453924",
">  c #4B3C25",
",  c #443C2A",
"<  c #4A3E29",
"1  c #483622",
"2  c #513E27",
"3  c #47412E",
"4  c #4C412C",
"5  c #4F4027",
"6  c #534226",
"7  c #53442B",
"8  c #59462C",
"9  c #56482E",
"0  c #5B4A2D",
"q  c #5A4827",
"w  c #4C4531",
"e  c #4E4935",
"r  c #4F4C38",
"t  c #514731",
"y  c #5C4430",
"u  c #534C35",
"i  c #5C4C32",
"p  c #534E39",
"a  c #594F39",
"s  c #5C5136",
"d  c #56503A",
"f  c #5C543C",
"g  c #5F583F",
"h  c #614E2E",
"j  c #60472D",
"k  c #65522E",
"l  c #634B33",
"z  c #694D36",
"x  c #624832",
"c  c #635234",
"v  c #695535",
"b  c #6C5936",
"n  c #63563A",
"m  c #6C5339",
"M  c #645A3D",
"N  c #6B5B3C",
"B  c #675834",
"V  c #725D36",
"C  c #72563A",
"Z  c #735C3B",
"A  c #7B5D3E",
"S  c #6E603C",
"D  c #74623D",
"F  c #7A643E",
"G  c #7D693E",
"H  c #736036",
"J  c #5D5640",
"K  c #5E5A42",
"L  c #645C43",
"P  c #695E41",
"I  c #615740",
"U  c #745E41",
"Y  c #7B5B41",
"T  c #666047",
"R  c #6C6245",
"E  c #6C654A",
"W  c #6D674B",
"Q  c #736444",
"!  c #7A6643",
"~  c #756946",
"^  c #7C6A44",
"/  c #726748",
"(  c #736A4B",
")  c #7B6D4B",
"_  c #7B6648",
"`  c #7C714C",
"'  c #756C52",
"]  c #796F51",
"[  c #7C7353",
"{  c #7F7955",
"}  c #7E7659",
"|  c #6E6A50",
" . c #82643E",
".. c #87713E",
"X. c #836443",
"o. c #826D45",
"O. c #836E4C",
"+. c #8B6A46",
"@. c #857146",
"#. c #887346",
"$. c #84734B",
"%. c #8A754A",
"&. c #85794F",
"*. c #8D794C",
"=. c #8E7A47",
"-. c #94744A",
";. c #927C4D",
":. c #9A7B4D",
">. c #957948",
",. c #837654",
"<. c #8B7551",
"1. c #847A53",
"2. c #8B7D52",
"3. c #847C5B",
"4. c #897E59",
"5. c #80775A",
"6. c #937E52",
"7. c #977E55",
"8. c #906E46",
"9. c #857C61",
"0. c #887F61",
"q. c #A07B4E",
"w. c #95814E",
"e. c #9A844E",
"r. c #8D8156",
"t. c #87805C",
"y. c #8C825C",
"u. c #948253",
"i. c #9A8554",
"p. c #9C8956",
"a. c #92855B",
"s. c #99865A",
"d. c #95895D",
"f. c #9C8B5A",
"g. c #9E905E",
"h. c #A28C56",
"j. c #A18D5A",
"k. c #A68755",
"l. c #A3925D",
"z. c #AA945C",
"x. c #AB965A",
"c. c #B29B5E",
"v. c #B6985C",
"b. c #A3894C",
"n. c #B5A05F",
"m. c #8C8463",
"M. c #8F866A",
"N. c #8F8861",
"B. c #928661",
"V. c #938A63",
"C. c #998D62",
"Z. c #958C6A",
"A. c #978A68",
"S. c #9C9264",
"D. c #9B936B",
"F. c #979268",
"G. c #A08E67",
"H. c #A39463",
"J. c #A99762",
"K. c #A69964",
"L. c #AB9B64",
"P. c #A2966A",
"I. c #A59A6B",
"U. c #AB9D6A",
"Y. c #A8966B",
"T. c #B29D63",
"R. c #B49D69",
"E. c #A49B71",
"W. c #A99D72",
"Q. c #ADA16D",
"!. c #AFA065",
"~. c #B5A265",
"^. c #BAA363",
"/. c #B3A46C",
"(. c #B7A86E",
"). c #BAAA6E",
"_. c #BBA66B",
"`. c #ADA373",
"'. c #ADA57A",
"]. c #A7A075",
"[. c #B2A573",
"{. c #B5A975",
"}. c #BBAC72",
"|. c #B3AA7C",
" X c #BAAD7A",
".X c #B4A677",
"XX c #BFB174",
"oX c #BCB07C",
"OX c #C2AC6B",
"+X c #C6A966",
"@X c #C8B26D",
"#X c #C3AE73",
"$X c #C3B374",
"%X c #CBB572",
"&X c #CBB975",
"*X c #C3B57A",
"=X c #C6B97B",
"-X c #CBBC7C",
";X c #C9B579",
":X c #D2BB77",
">X c #D2B16D",
",X c #C2985A",
"<X c #D3C37D",
"1X c #D7C379",
"2X c #CFC07D",
"3X c #E3C77B",
"4X c #BCB384",
"5X c #B7AD81",
"6X c #C2B583",
"7X c #C6B984",
"8X c #CBBD82",
"9X c #CABD8A",
"0X c #CEC182",
"qX c #CDC18A",
"wX c #D3C483",
"eX c #D5C987",
"rX c #DCCA84",
"tX c #D2C58C",
"yX c #D6CA8A",
"uX c #DACD8A",
"iX c #D9C682",
"pX c #DACC92",
"aX c #D5C895",
"sX c #DED299",
"dX c #D8CA8C",
"fX c #E4D58B",
"gX c #E7DA98",
"hX c #E1CE8A",
"jX c #EDE19C",
"kX c #F1E697",
"lX c #E6DBA5",
"zX c #E2D8B3",
"xX c #ECE3AA",
"cX c #F4EAA6",
"vX c #F3EAB4",
"bX c #FBF2BA",
"nX c #F2ECAA",
"mX c #DCD2A3",
"MX c #FCF4CE",
/* pixels */
"s c c c i 4 & & & # # # # # % ; : c c 9 7 > 6 8 h c c c h h h c c c 0 > b F H H k 0 0 7 1 : > > 6 = % % : M N n n n f a t 4 : > < > < 4 < 4 7 6 6 7 7 7 4 > & % @       + : t n N S S n n n n n c n B s 6 0 c c 0 6 > > 5 5 > < < > > : ; ; ; ; ; ; ; : 6 i t 9 ",
"s.u.*.*.%.Z ; # # ; c v l ; > 0 0 F z.j.i.u.u.i.h.z.z.z.z.z.z.z.z.c.T.o.c.@XOX_.^.^.n.c.x.h.h.x.T.n % : 7 C.9X9X9X9X9X7X6X X`.U.H.H.f.f.s.u.6.6.i.i.i.u.*.*.o.F c 1 # + @ 4 N ` 2.f.{.Q.f.f.f.f.g.H.K.u.b o.f./.L.H.l.l.H.J.J.J.H.J.L.U.U.H.f.f.i.u.u.i.f.j.u.u.",
"s.u.%.$.*.o.7 # # % N J.T.D ; 6 7 8 6._.z.p.k.i.z.z.z.z.T.R.^._.OX%X:X=.;.$X&X&X&X&X%X@XOXOXOX_.^.#.= : > 0 E.lXlXlXlXlXlXsXaXqX7XoX X{.I.d.s.s.f.f.f.f.i.u.6.6.! 0 : @ @ : i ) r.d.Q.qXL.l.K.L./.(.}.L.b b o.~.).).).).}.}.}.}.).}.$X*XwXuX-X$X#X).~.L.H.H.s.u.",
") %.D $.u.%.m # # # > %.z.:.8 % > > Z l.p.u.;.;.u.u.u.u.i.p.j.z.T.T.~.#.F i.T.~.L.J.J.z.z.l.p.i.h.;.> ; 5 > s '.4X6X4X4X|.'.E.D.V.m.t.1.) ^ ) ) ` $.<.<.&.$.O.s.%.v > # # : < L 1.r.C.{.[.U.U.U.Q.Q.Q.I.` 0 c i.l.g.l.H.H.H.g.f.f.f.f.l.H.L.L.L.H.u.%.$.^ _ Q Q ",
"P $.O.s.C.u.^ > # # : ! u.i.G ; ; > D i.u.%.#.o.o.o.o.o.%.%.%.6.i.i.i.#.H #.*.;.;.w.u.i.i.w.;.*.u.i.k = < 4 4 ( D.'.].D.D.V.V.m.t.3.{ ) ~ ~ ~ / / Q Q R R N R f.;.D 6 % # : < n ` ` ` 1.C.C.C.S.S.S.S.S.1.0 N $.$.$.$.` ) ^ ! ~ ! ) ! ^ $.2.2.2.$.Q N N n n n N ",
"N _ 6.G.P.s.$.i # # ; #.k.k.:.0 = 6 @.f.u.#.o.o.o.o.o.#.%.%.*.6.i.i.i.%.H #.*.*.;.w.;.=.=.=.%.#.#.i.G ; : 4 4 R E.'.'.P.D.Z.V.m.t.3.{ ) ~ Q Q R R P P P N N Q H.i.o.7 % # & < s ` ) ` 1.t.r.r.d.C.C.C.C.r.c D $.$.) ) ! Q Q Q Q ~ ) ! Q Q $.<.O.Q N N n n n n n ",
"N N ) P.H.u.o.0 # # ; $.i.i.i.F % > @.f.*.o.o.o.o.o.o.#.%.%.*.6.u.i.u.*.G #.*.*.*.*.*.%.#.#.#.o.^ #.#.6 ; 4 4 R E.'.'.D.Z.V.m.m.t.3.[ ) ~ Q R P P N N N N N N f.l.%.0 = # & < a / ( [ 1.1.2.3.r.a.a.r.a.a.N ~ $.$.^ ~ Q R R R Q Q ~ ! Q Q _ $.Q N N n n n n n n ",
"N N N $.2.%.! i # # % _ u.7.7.;.> > $.i.%.o.o.o.o.o.#.%.%.%.%.;.6.6.6.;.#.%.*.*.*.*.*.%.#.#.o.o.G F o.h = < 4 N P.'.E.D.V.N.m.t.3.1.[ ) ~ R P N N N N N N N n ) H.6.c ; # & < a / ( [ ` [ { 1.3.4.4.3.4.C.` ) $.` ! Q R R R R Q _ Q Q Q U U ! Q N N n n n n n n ",
"N N ) u.6.2.O.c % # # Z 7.6.*.6.v 6 %.*.o.^ _ ^ o.o.%.%.%.%.%.*.*.;.6.*.%.*.*.*.*.*.*.%.#.#.o.G G H V v ; : 5 s D.E.D.F.V.m.m.t.3.{ ) ~ / Q R N N N N N N N N R u.u.c ; # & < a / ) ` ` ` [ 1.1.2.3.2.3.V.1.` $.) ~ Q R R R R Q Q Q U U U U U U N N n n n n n N ",
"P N O.H.H.s.$.m ; # # U 7.*.*.*.#.c o.%.^ _ _ _ o.o.#.%.%.%.%.*.*.*.*.*.*.*.*.*.*.*.*.=.#.#.o.^ G Z k k > ; > s D.P.D.Z.m.m.t.3.3.[ ) ~ Q Q P N N n N N N N R Q O.#.c : @ & < a ) ` ) ) ` ` [ 1.1.1.1.1.y.1.` $.^ _ Q R R R R Q Q U U U U U U U Z N n n n n n N ",
"N U _ C.U.s.%.b ; # # U 6.*.*.*.*.^ o.o.^ _ _ _ o.o.o.%.%.%.%.%.*.*.*.*.*.*.*.*.*.*.*.*.%.#.o.o.G Z h h 6 ; < s Z.D.Z.V.m.m.t.3.1.[ ) ~ Q Q P N N N N P Q Q Q Q ^ o.c : + % < s ) ) ( ) ) ) [ { 1.{ 1.{ 1.` ` ) ! Q Q R R R Q Q Q Q Q U U Q Q U Z N m n n n N N ",
"N Q ^ C.U.f.2.Z > # # N %.$.$.%.*.%.o.o.o._ _ _ ^ o.o.#.%.%.%.%.%.*.*.*.*.*.*.*.*.*.*.*.=.%.#.o.G V h q 6 ; > f Z.V.V.V.m.m.t.3.3.[ ) ~ Q Q R P P P P Q Q Q _ _ o.o.c > @ # < s ( / / ( ) ) ` [ [ 1.1.{ 1.[ ` ^ Q Q Q R R R Q Q Q Q Q Q Q Q Q Q U N N n n n N N ",
"N Q ^ C.H.H.6.Z 6 # # 7 O.$.O.$.*.%.o.o.^ ! _ _ ^ o.o.o.$.%.%.%.%.=.*.*.*.*.*.*.*.*.*.*.*.;.=.#.^ H k 6 > = 4 [ V.m.m.m.m.m.t.3.3.[ ` ( ~ / R P N N R Q Q Q _ _ o.o.n > @ @ < n ( ( / / ) ) ) [ [ { 1.1.[ ` ) Q Q Q R R R R Q Q Q Q Q Q Q Q Q Q Q N N N N N P P ",
"N Q _ u.H.H.u.! 0 # # ; _ ) _ ) %.o.o.^ ! _ _ _ _ ^ o.o.#.%.%.%.%.*.*.*.*.*.*.*.*.*.*.*.;.u.;.%.o.F v 0 1 % f y.t.m.m.m.m.m.t.t.3.{ [ ) ~ ~ Q Q R R R Q Q Q _ _ o.o.v 6 @ @ : n ( ( / / ( ) ) ` ` 1.1.[ [ ) / R R R R R R R Q Q / / / / / Q Q Q Q R R P P P R P ",
"N N Q 2.s.C.u.! l ; # # N ) _ ) $.o.! ! ! ! ! ! _ _ o.o.%.%.%.%.*.*.*.*.*.*.*.*.*.*.*.*.6.u.u.u.;.o.V 0 1 ; a 3.t.t.m.m.m.m.m.t.3.{ [ ` ) ) ~ Q Q Q Q Q Q Q Q _ *.%.b 7 @ @ : N ( ( / ( ( ( ( ) ` [ ` ` ) / E R T P P P R R R Q Q / / / / / / / Q R R T T R T P ",
"N N R <.s.s.u.^ v ; # # 9 _ _ O.O.^ ! ! ! F F F ! _ o.o.%.%.%.*.*.*.*.*.*.*.*.*.*.*.*.*.6.u.u.i.z.h.G k ; ; 4 ( t.t.m.m.m.m.m.m.3.{ { [ ) ) ~ ~ Q / Q Q Q Q Q Q $.6.V 7 @ @ : L / ( ( / ( ( ( ) ` [ ` ) / E R T P M M L P P R R Q / / / / / / / / / / / Q R R P ",
"N N P ) u.u.u.O.m > # # > Q _ O.O.^ _ ! F F F F ! ^ o.$.%.%.*.;.;.*.*.*.*.%.%.*.*.*.=.;.w.u.i.p.c.@Xw.b : & 4 M 3.t.t.m.m.t.m.m.3.{ [ [ ) ) ) / / Q Q Q Q Q Q Q ! u.^ 0 @ @ : L ( ( ( ( / / / ) ) ` ) ( / E T P N M M M M L L P R / / / / / / / / / / / / R R P ",
"N N N P <.u.u.%.Z > # # > N Q O.o.^ ! F F F F F F ^ o.%.%.*.;.;.;.;.*.*.%.%.%.%.%.*.*.;.u.u.p.h.T.:XT. .1 & 4 s { 3.3.t.t.t.t.E.Z.{ [ [ [ ) ) ~ Q Q / Q Q Q Q N N $.%.0 @ @ : L ( ( ( ( / / / ( ( ) ( / E E P M M f f f g M M L T R / / / / / / / / / / / R R P ",
"N N N N Q 6.u.*.! 7 + # > n ! $.o._ ! F F F F F ! ^ o.%.*.;.;.;.;.;.*.%.%.%.%.%.%.*.*.;.w.u.p.J.T.OX%Xe.1 & 4 s [ { 1.3.t.t.m.V.m.{ [ [ [ ` ) ~ Q Q Q Q Q Q Q N N Q o.c @ @ : L ( / ( / / / / / / ( ( E E T L M M s s s f M M N P T R / / / / / / / / / Q R P P ",
"N N N N N ) u.*._ 8 + # 4 m O.$.^ _ ! F D Z Z F ! ^ o.%.;.;.;.;.;.;.*.%.%.%.%.%.%.*.*.;.w.u.u.j.T.~.%Xp.> & 4 s [ { { 1.3.V.t.{ [ [ [ [ [ [ ) ~ / Q Q Q Q Q Q Q N N ^ b @ + ; L ( / ( E E E / / / / E E E P M f s s d d s f f M L P T Q / / / / / / Q R T P P L ",
"N N N N N N $.*.! 7 + # 6 N $.$.o._ ! Z Z Z Z Z F ! o.%.;.;.;.;.;.;.*.%.%.%.%.%.%.=.*.6.u.u.u.i.z.h.=.o.1 % 4 N [ { { { V.y.` ) ` ` [ [ [ [ ) ~ / Q Q Q Q Q Q Q N N Q c @ + & I / / E E E E E E E E E E T N f s d p u u d s s f M N P R Q / / / R R R R P P P L ",
"n n n N N N Q %.Z > + # 9 b O.$.^ ! Z Z Z Z Z Z Z F o.%.*.;.;.;.;.%.=.%.%.%.%.%.%.%.*.;.u.u.u.u.i.V b V 1 # 4 Q ) ) ` y.V.` ( / Q Q / ) ` ) ) ~ Q Q Q Q Q Q Q Q N N N 6 + + & f E E E T R T T T T P P P N f s d p u u u u d d s f M M P R R R R P L L L P P L M ",
"c c c n n n N ^ m ; + % 9 c _ O.! Z Z Z Z Z Z Z Z F ! o.%.%.*.;.%.%.%.%.%.%.o.o.#.%.%.*.*.6.u.u.%.k v v 1 # 7 R R / ( 1.` R R R T R P P R Q / Q Q R R R S N N N N n c > + + # 3 L R T L L L L L N M M M f s d u u u u u u u p d d f n M L P P P n i M N L M M M ",
"c l l c c n n c i # + & 0 i N ! Z b m v m m m m Z Z Z F ^ o.%.#.o.o.D b b b Z D D F ! ! F F ^ o.H 0 8 0 = # : 7 t u s n N N N N n n s 7 > 4 9 i i s c c i i i 9 9 6 > ; + + @ & w M L N M M g f f s s s p u u u e w w e u u u u u p s f n M N M 4 : s M M M M f ",
"i i i i i N s 7 6 # + ; 0 i c m c i i i 0 i i i l l c c c c l 0 7 6 > > > > > > > 6 6 > > > > 1 ; = = 1 % @ # # % % % % % ; ; ; ; ; ; % % % % % ; ; ; : : ; ; = % % @ + . . . + & 3 u u u e w w w w w w 4 3 3 3 3 w w 3 4 w w w w e u u s f M s * : t s f f s s ",
"9 9 9 7 9 t 4 : > @ + % > 6 4 > ; ; & % % % ; ; ; ; ; ; ; = = = = ; ; = = = = = = = = = = = % # # # # # O O @ @ @ @ @ @ # # @ # # @ @ # # # # # # # % % # @ @ @ @ @ @ + . . . . . + @ @ @ @ @ $ & & & & & & $ $ & * & & & * * * * * * , < 3 3 * & & 3 4 9 t t t ",
"; ; ; & & % # # # + + @ # # # # # @ @ + O @ @ # # # # # # # # # # # % = = = = = ; 1 0 G ^ G D Z Z V V V c 8 6 6 8 0 0 0 0 0 0 0 6 7 N ^ 7 = > 7 c v D #.0 # 9 i i i 7 @ @ 3 3 4 < : & @ @ . . . . . . . . . . . . . . . . + + @ @ @ @ + @ @ @ @ @ @ @ $ & & & & ",
"# # # # O + + +       + + + + + + + + + + + + + + + @ # @ @ # = % # = = = = = = > 6 H OX:X%X@X^.z.p.i.h.p.e.e.w.e.i.p.h.l.z.z.l.h.l.~.}.n 0 b ! $.u.J.^.Z % Q a.1.` n + & 2.P.H.D.S.r.2.` / g 4 < < t g L M f f d u 4 , : , < < < < 3 3 , & & * * & & & $ @ + + ",
"> 9 o.O.b 2 > 0 0 0 > @ + # = ; ; > ; ; = ; > 2 7 8 v F F F V h 1 = 7 c 0 > = = > 6 0 l.wXwX-X~.h.i.w.;.i.u.i.p.h.p.h.p.i.p.i.i.j.R.*X Xh v ^ %.u.J._.^.N # s P.U.d.n + @ u I.4XoXoX X{.{.`.S.[ M R 1.F.D.D.D.F.F.N.t.1.3.m.t.y.y.y.Z.Z.Z.V.D.P.V.y.D.4.[ / u & ",
"6 c J.R.R.i.8.k.+X+Xz.8 # 1 C  . . .C v l v C A X.-.k.v.+X>X+X:.8 0 #.*.o.v > = 1 6 0 F l.l.p.w.;.;.=.#.*.%.$.#.#.#.#.#.@.#.#.=.i.z.T.H.8 Z %.;.z.T.c.T.N # 4 R W.d.n & @ : )  X|.'.`.`.`.[.U.r.1.1.y.N.V.V.F.F.D.D.V.N.V.E.Z.N.V.F.D.D.D.D.`.{.I.I.|.P.C.y.` > ",
"6 v z.z.:.-.+.+.k.+X+XV - - A k.k.q.-.8.X.A  .+.-.-.k.z.+X3X3X+Xc l i.j.6.D 7 = 1 5 0 V i.i.w.;.*.*.=.#.#.#.@.@.@.@.#.#.#.#.=.u.i.j.z.u.6 H %.;.T.J.h.z.N # 4 u [ C.R t & < u 3.t.t.t.3.1.1.3.1.{ ) W E E E E ) { { [ [ { t.t.t.t.N.V.F.F.F.Z.F.N.m.P.I.C.a.1.t ",
": c -.:.:.:.:.:.+.:.k.z - - C k.k.:.-.-.-.X.X.X.-.-.-.k.z.:XgX%Xh 0 $.p.i.o.h : ; > 7 Z w.w.;.*.*.*.*.%.#.#.@.@.@.@.#.#.#.#.;.i.p.p.j.%.6 H %.*.;.j.h.i.b # 4 u N t.y.P 3 < w { 3.3.{ ' ( W W ( E L K K K K K K I L L L L T E ( ) [ [ 3.3.t.t.t.t.t.m.P.S.y.3.L ",
": l A X.X.X.X.A A A A h - > A X.X.Y A C C C m m C A A X.+.-.z.:.> 7 o.6.f.%.v > = > 7 H ;.w.;.*.*.*.*.;.u.#.@.@.@.#.#.#.#.%.;.i.p.p.p.#.6 H %.*.*.6.j.i.b # 4 u f [ Z.t.f < 4 ) { [ W E T E E E L I K K K K K K K K K L L T R E ( ' [ { 3.3.t.t.t.t.t.d.C.t.3.E ",
"; 8 Z Z A A A A A A A C > j X.X.Y Y C m z z z z z z z z m A +.X.1 7 ^ *.i.*.H 7 = > 6 H *.*.*.*.*.*.%.%.$.#.@.@.#.#.#.#.%.*.;.i.J.j.i.o.6 D %.*.*.=.i.w.c # 3 u n [ m.F.[ 4 4 W ' E L L I I L I K K K K K K K K K K K L L T E E ( ) ] { 3.3.3.3.3.3.3.t.y.t.[ Q ",
"= 7 Z Z Z Z Z Z Z A C C 8 m Y Y Y C C z z z z l l z z z z A X.V ; 6 o.*.6.6.o.c : 1 7 D *.*.*.*.=.*.%.#.#.#.#.#.#.#.%.%.*.;.i.i.j.l.i.#.6 Z %.*.%.#.u.w.c # 4 u R 3.3.t.y.n 3 T W T L K K K f f f f f K K K K K K K K L L T E E E ( ' [ { 3.3.3.3.3.3.3.3.3.) Q ",
"& 7 C Z Z C Z Z Z C m m z C Y Y Y C m z z z l x x z z z z A Z m % > o.;.6.6.*.Z 6 > 0 G *.*.*.=.%.=.=.#.#.#.#.#.#.#.%.*.;.u.i.i.i.i.i.=.7 8 ^ %.#.#.;.u.c # < s [ t.} ' { ( 4 I E L K K f f f d d d f f K K K K K K K L L T R E E ( ( ) [ { 3.3.3.{ { { 3.3.) N ",
"& 2 m C Z C C C m m m m m m C A C C m z z z x x x l z z m Z C l @ > ! 6.6.6.u.o.c 6 0 o.%.*.*.%.#.%.*.#.#.#.#.#.#.%.=.*.;.i.i.i.i.i.i.u.0 6 Z #.#.#.*.i.c # < T 3.3.[ W T W s f L I J f f d d d d d d f J K K K K K L L L T T E E E ( ( ' [ { { { { { [ [ 1.) N ",
"; 2 m m m m m m m m m m m m C C C m z z l x x x x x z z C A C x + ; N ;.6.6.i.*.Z 0 v #.#.%.%.%.#.%.%.#.#.#.#.#.#.%.*.;.u.i.i.i.i.i.i.h.Z 6 H #.#.#.=.u.v # < { t.3.' E L K g f K J f d d p p p p p p d f f K K K K L L L L T T E E E E ( ) [ { { [ [ ] ] { ) N ",
"; 7 m m m m m m m m m z m C C m m m z z z x x x x x z z C A C 8 + ; n %.u.i.p.u.o.b Z %.%.#.#.#.#.#.#.#.#.#.#.#.%.*.;.;.u.i.i.i.i.p.h.h.#.7 ^ #.#.#.%.u.V % < { t.} ' E K J f f f d d d p p r e e r p d d f f K K L L L L L T T T T E E E / ( ] ] ) ( ( ( [ ) Q ",
"> 7 m m m m m m z z z z m m m m m m z z z l x x x l z m F ! C 7 + = l $.j.j.j.f.6.o.F %.%.#.#.#.#.#.#.#.#.#.#.#.%.*.;.;.i.i.i.i.p.h.h.h.w.b #.#.#.#.%.u.F = ; E t.[ W T K J d s d d d p p e e e e e r p d f J K K I L L L L T T T T R E E E E ( ( ( ( ( / ( ) Q ",
"> 6 m m m m m z z z z z m m m m m m z z z l x x x l z C X.A C 2 + % i ! i.j.j.j.j.6.#.%.%.%.#.#.#.#.#.#.#.#.#.#.%.*.;.u.i.i.i.i.h.h.x.p.i.#.#.#.#.#.%.6.G = & s 3.[ W T K f d d p p p p e e e e e e e p d d J K K I L L L L T T T T T E R E E E W W E E E / O.! ",
"6 7 C m m z z z z x l z z m m m m m z z z x x x x z z C X.A C 2 + # 0 Z %.u.j.j.j.f.6.%.%.%.#.o.o.#.#.#.#.#.#.#.%.*.;.i.i.p.p.h.h.h.z.i.i.j.6.#.#.#.%.u.^ = & 4 [ [ W T K d d d p p p p e e e e e e p p d f J K K L L L L T T T T T T T T T T E E E E T T T ) O.",
"9 l Z C m z z l x x x x l z z z z z z z l x x x x l z C X.A A 2 + # 8 b $.*.i.j.j.j.f.6.*.%.#.o.o.o.#.#.#.#.#.#.%.*.w.i.i.h.h.h.h.h.h.i.i.f.*.#.#.#.%.i.o.; % < E ] W T K f d d p p p e e e e e e e p p d d J K K L L L L T E E R T R T T T T T T T T P L L ( ) ",
"i n Y C m z z x x x y y x x l z z l x x x x x x x l z m X.Y A 7 + # 9 N #.%.u.j.j.j.j.i.6.%.#.o.o.o.o.o.#.#.#.%.*.;.u.i.p.h.h.h.h.h.h.p.u.%.#.#.#.#.*.i.%.> # < I ] W T K J d d p p e e e e e e e e p p d d f K K L L L T T T T R R R T T R T P L L L L L L Q O.",
"i m ! C m z z l x y y y y y x l l x x x x x x x l l z m X.X.A 7 + # 7 N o.%.i.j.j.j.j.p.6.*.#.o.^ o.o.o.#.#.%.=.*.;.u.i.i.h.h.h.h.h.h.i.i.;.%.#.#.#.=.p.;.> # < d | W T K f d p p p e e e w w e e e p p d d f J K L L T L T T R R R T T T L L M N N N M M M R ) ",
"i v Z C m m z z x y y y y y y x x x x x x x x x x x z C X.X.Y 8 + # 6 n ^ *.i.p.i.i.j.j.u.*.#.^ F F ! ! o.#.%.*.;.;.i.i.i.i.p.h.h.p.i.i.i.;.=.#.#.#.;.p.u.7 # : p | W T K f d p e e e w w w w w w e p p d d d f K K L L T L T R R T T T L N N N M M n n n M P ) ",
"8 x C C m m z z x y y y y y y y y x l l x x x x x l z C +.X.A 8 + # > l D *.u.i.i.i.i.i.u.%.o.! F F F F G o.%.*.;.u.i.i.i.i.i.p.h.i.i.i.u.;.=.#.#.#.=.p.u.8 @ ; u W E T K J p e w w w w w 3 3 w w w e p p d d f f K I M M P T T R R T T L M N N M f s s s s N _ ",
"2 6 m m m z z l x y y y y y y y y y l l l l l l l z m A +.X.A 7 + # > 8 m o.;.u.u.i.i.u.6.%.o.F F D Z Z D o.%.;.w.i.i.i.i.i.i.i.i.i.i.u.;.*.%.#.#.#.*.i.%.9 + % w E E L K f p e w 3 , , , < < , w w e r p s s s f g M N N N R T R R E T L M M n f s c c s s n R ",
"; ; x z z x x x x 8 8 8 8 8 8 8 7 7 8 8 8 8 8 y x x l C +.X.C 2 + # > > 0 Z %.6.6.6.6.6.*.#.! F Z Z v v Z ^ #.;.u.i.u.u.u.u.u.6.;.;.;.;.%.#.#.#.#.#.%.$.n 4 + @ < I L K f d p e 3 , , , : : : , , 3 w p s s s s s f M M n M N R R R R T L n f s s s a a a i a s ",
"# % > 2 2 > > > > 1 1 1 ; ; ; ; ; = = = = ; ; ; ; ; ; 1 2 2 > = @ # = 1 > 7 c v b b b b b v v c c h 0 8 0 c Z F ^ D Z Z Z Z D F F D D Z b c c n n v N Z i > + O & u d p p e w 3 < , : : : : ; ; : , 3 u s s s s s f n s s a s s s s a t 4 4 4 4 < < : : : ; ; ; ",
"# # # # % % # # # # # # # # # # # # # # # # # # # # # # # # # # + @ % = = ; 1 > > > > > > > > > > > > > > > > 6 6 > > > > > 6 7 7 8 8 7 > > > 1 1 1 1 > 1 % + + @ & : : , , : : : : & & & & & & & & : < 4 4 4 4 4 4 4 < > : : : ; ; & % % # # # # @ @ O O O O O ",
"0 6 6 1 # # > > > 7 0 v D G H V V b 0 0 0 0 0 0 h c v c c h : % % % % # # # % % = - - > 1 - = = = = = = 1 1 > 6 6 6 0 h k h > > 0 0 7 6 > > 1 = - - = # + + +     + + + @ @ @ @ @ + @ @ @ @ @ @ @ # # # # # # # # # @ # # # @ # # # % % % % % = > > > 7 V D H V ",
",Xk.b.V # = V #.#.=.w.h.z.z.z.x.x.x.x.z.c.T.~._.).).$X%X%XOXx.p.i.e.w.=.#.@...#.w.e.c.c.h.h.w.;.;.=.=.=.;.h.c.+X+X@X<X1X1X+XN v u.[.}.Q.l.p.*.^ D b 6 : : ; % = ; ; ; ; ; ; ; ; ; @ +       + + ; 7 c c c n c c h 0 0 c c c c v Z ^ #.*.w.u.u.i.i.p.b.z.@X:X>X>X",
"k.e.h.c # % 0 #.;.w.h.x.z.z.x.x.z.L.L.T._.$X-XwXwXwXwX<X<X<X-X%X@XOX_.^.^.^.^.OXOX%XfX$X1XfXfXfXrX1X<X<X<XhXgXfXkXcXbXcXgX:X$.^ j.J.tXsXuXwX-X$X$X_.J.f.u.%.G D ^ o.o.o.#.#.%.=.*.#.! b 0 : + = h @.J.~._.)._._.J.j.u.;.;.;.u.i.j.z.z.T.~.).).~.T.c.z.c.v.@XOXv.",
"#.#.%.0 # = > H %.*.;.w.w.u.i.h.z.L.L.~.).&X0X0XwXuXpXpXpXpXyX0X-X-X=X$X$X$X$X-X2XiX<X^.fXkXnXnXkXfXiX<X<X<XiX1XiXhXfXfXfX%X$.^ l.z.L.qXsXpXeX0X=X$X)./.J.f.u.%.=.;.w.i.p.p.p.l.z.c.J.J.j.G % ; b #.).=X0X0X0X*X).~.l.p.p.p.l.J.L.L.R.(.(.(.U.H.h.i.e.>.>.i.i.;.",
"#.#.#.v % ; 7 N N N N Z D ! ^ #.$.&.2.u.i.d.f.S.H.U.Q./././.L.J.J.J.J.J.J.J.L.).XX).~.eXnXnXcXcXfXiX<X1X<X<X<X-X$X$X$X&XrX%X@.^ p.l.~.=XtXqX8X8X=X$X).~.T.H.j.i.w.;.;.%.=.=.*.;.;.u.p.f.l.@.: # 7 F H.[.[.[.L.f.i.;.%.$.$.$.%.*.*.;.;.6.;.6.7.6.;.>.>.;.;.>.>.%.",
"#.#.#.D > > c N N N N N D Q ! ^ ` $.1.1.1.2.r.r.r.a.f.l.H.K.H.l.l.l.l.l.l.l.H.Q.}.(.).yXcXjXgXfXuXeXiX<X<X<X$X/.Q././.(.:XOX@.^ p.j.$XtX X`.I.P.H.H.S.g.f.f.f.f.i.*.%.#.#.#.#.#.#.=.u.i.f.*.7 ; 4 ! H.U.U.H.u.=.%.#.^ ^ ^ ^ o.#.#.%.*.*.*.u.u.u.u.6.6.6.6.;.-.%.",
"#.#.#.o.0 0 N N D Q Q Q ! ^ ` $.&.1.2.r.r.r.a.a.d.C.S.H.L.U.L.K.H.z.H.H.K.H.K.L./.U.Q.(.$XwXuXyXyXyXyXwX<X=X(.Q.U.L.U.Q.%XOX@.^ p.J.tXqX X`.H.C.d.a.r.2.1.&.` ` ^ ^ ^ ^ ^ o.o.^ @.#.*.u.i.i.s ; 7 $.H.U.K.f.u.;.*.=.%.#.@.#.#.#.#.%.*.*.6.i.i.i.i.u.u.7.6.;.%.%.",
"#.#.#.#.F Q Q Q Q Q Q ! ) ` $.$.1.2.2.r.a.a.d.d.C.S.H.I.U.Q.U.U.U.L.L.U.U.L.K.K.K.K.L.U.Q.}.0XyXyXyXeX=X$X$X(.U.L.J.J.L.OX_.^ ! i./.yX7X X`.D.C.d.a.r.r.1.&.` ^ ! Q D D F ! ! ^ ^ #.%.*.u.i.N > 0 *.l.H.l.f.i.u.;.*.=.#.#.#.#.#.#.%.*.6.i.i.i.i.i.i.i.u.6.>.%.%.",
"#.#.#.#.p.u.^ ^ ~ Q ! ^ ` ` $.&.1.2.r.a.a.d.d.C.S.S.H.I.Q.`.`.Q.Q.Q.U.U.U.U.L.K.K.L.U.U.U./.}.*X-X-X$X$X$XXX(.U.L.J.H.H.T.J.^ Q u.oXtX6X XQ.D.S.d.a.r.r.1.&.` ^ ! Q D D S D D ! ^ ^ #.%.;.i.u.N v ;.l.l.j.p.u.;.*.*.*.#.#.#.#.#.#.%.*.u.i.i.p.p.i.i.i.i.i.;.%.%.",
"#.#.@.#.J.i.` ) ! ~ ^ ^ ` ` $.$.1.1.r.a.d.d.C.S.S.H.H.U.Q.`.`.`.`.`.`.`.Q.U.U.U.U.U.U.U.U.Q./.(.).}.}.$X$X}./.U.L.H.H.H.H.H.^ Q u.7XqX4X{.P.S.S.C.d.r.r.1.$.` ~ ~ Q D D S S D D ! ^ o.#.=.i.f.$.H w.f.f.p.i.u.*.*.%.%.#.#.#.#.#.#.%.*.u.i.i.f.j.h.f.i.i.l.u.%.%.",
"#.%.%.%.H.u.` ^ ^ ^ ^ ) ` $.$.1.1.2.r.a.d.d.S.S.S.H.I.U.Q.`.[.{.{.[.[.[.Q.Q.U.U.U.U.U.U.U./././.(.}.XX$X$X}./.U.L.H.H.H.H.f.Q Q d.qX7X X`.D.S.S.S.d.r.2.1.$.` ~ ~ Q D D S S D D ! ! ^ #.%.u.l.f.$.i.p.p.p.u.6.*.=.#.#.#.#.#.#.#.#.=.*.u.i.s.h.h.j.j.i.i.u.;.%.%.",
"%.%.%.%.u.*.$.^ ^ ^ ^ ` ` $.$.1.1.2.r.a.d.C.S.S.H.H.I.I.U.`.{.{.{.{.{.[.Q.Q.U.U.U.Q.Q.Q././.(.(.(.}.XX$X$X}./.U.L.H.H.f.H.u.b N a. Xa.I. XI.D.S.S.C.a.r.1.$.` ~ ~ Q D D S S S D D ! ^ #.%.u.H.H.i.f.f.f.p.u.;.*.%.#.#.#.#.#.#.#.#.%.;.u.i.p.h.j.j.j.i.i.6.*.*.%.",
"%.%.%.%.#.$.$.^ ^ ^ ^ ` ` ` $.1.1.2.r.a.d.d.d.S.S.H.H.I.U.`.{.{.{.{.{.`.Q.U.U.U.U.Q.Q./.(.).}.).).}.$X$X$X}./.U.L.H.j.f.f.*.n 7 n 2.U.6XoXQ.D.S.S.C.a.r.1.$.) ~ ~ Q D S S S S S D ! ^ o.%.u.l.J.l.j.f.j.p.u.6.*.%.#.#.#.#.#.#.#.#.%.;.u.i.p.h.j.h.h.i.u.6.*.*.%.",
"%.#.#.#.%.$.$.` ^ ) ` ` ` ` $.<.1.1.2.r.a.d.d.d.S.H.P.I.U.`.{.{.{.{.[.Q.Q.U.U.U.Q././.(.).).}.}.}.}.$X$XXX}./.U.L.H.f.f.i.$.i 9 Q `.tXoX'.U.P.S.S.C.a.r.1.` ) ~ ~ Q D S S S S S D ! ^ ^ $.i.j.H.l.j.j.j.p.u.6.*.%.#.#.#.#.#.@.@.@.#.;.i.i.p.h.j.j.f.i.u.6.*.%.%.",
"%.%.#.%.%.%.$.$.` ) ` ` ` ` ` $.$.1.1.2.r.a.a.d.C.S.H.I.U.`.[.{.{.{.{.[.`.Q.Q.Q.Q././.(.).}.}.}.}.XX}.(.}.(./.U.K.H.f.i.u.^ i i ~ P.6X{.'.`.P.S.C.C.a.r.1.` ^ ~ Q Q Q S S S S S D F ^ &.u.u.f.l.l.f.j.f.p.u.;.*.%.#.#.#.o.o.^ ^ &.i.u.u.i.i.p.h.p.i.i.u.;.%.%.%.",
"%.%.%.%.#.%.%.$.$.$.` ` ` ` ` ` $.$.1.2.r.r.a.a.d.S.S.H.I.Q.[.{.{.[.`.[.`.`.Q.Q./././.(.).}.}.}.}.$X!.p.}.}./.L.K.j.f.u.6.! 9 9 Q a.U.{.{.`.I.S.C.d.r.2.$.` ~ ~ Q Q D S S S S S D F ^ @.%.;.i.f.j.f.f.f.f.u.;.*.*.#.#.@.^ ^ ^ ^ u.i.6.u.i.i.s.i.i.i.u.6.*.%.%.%.",
"$.$.$.#.#.#.%.%.$.$.` ` ` ` ` ` ` $.1.1.2.r.r.a.d.C.S.H.I.Q.`.[.[.`.`.`.`.`././././.(.).).}.}.}.}.}./.L.}.}./.L.H.f.f.i.2.D > 4 N 1.d.{.{.`.I.S.C.d.r.1.` ) ~ Q Q Q D S N N N S D Q ! ^ #.*.u.p.f.f.f.p.p.i.u.*.=.%.#.@.^ ^ ^ ^ o.#.*.u.i.i.s.i.i.i.7.;.%.%.o.o.",
"$.$.$.%.#.#.%.#.$.$.$.` ` ` ` ` ` $.1.1.2.r.r.a.a.d.S.H.I.U.Q.`.`.Q.Q.`.`.`././././.(.).}.}.}.}.}.(././././.U.L.H.f.f.i.*.Z > < N _ ) I.{.'.I.S.C.a.r.1.` ^ ~ Q Q Q S N N N N N D D ! ^ #.=.6.i.p.p.i.i.i.u.u.;.*.%.#.o.^ ^ ^ ^ o.#.%.6.i.i.i.i.i.i.6.*.%.$.o.o.",
"$.$.$.$.$.%.%.$.$.$.` ` ` ` ` ` ` $.$.1.1.2.2.r.a.d.C.S.S.P.U.Q.Q.U.Q.Q.`.`./././././.(.).}.}.}.(./.U.L.L.U.L.H.H.f.i.i.&.m > > n Q Q d.{.`.I.D.C.r.r.&.` ~ Q Q Q S N N N N N N S D F ^ #.%.*.u.u.u.u.u.u.u.u.*.%.#.#.o.^ ! ! ^ ^ #.%.;.u.i.i.i.i.i.6.%.%.o.o.o.",
"$.O.o.O.$.$.$.$.$.` ` ` ` ` ` ` ` ` $.$.1.1.1.2.r.a.a.d.C.S.H.I.I.I.I.U.Q.`.`././././.(.).}.}.(./.U.L.L.L.L.K.H.f.f.i.u.%.c : > n N N 1.{.`.I.S.d.r.2.$.) ~ Q Q S N N N N N N N N D D ! o.#.%.*.*.=.=.*.*.*.=.#.#.#.@.^ ! ! ! ^ ! ^ #.%.6.u.i.u.u.u.;.%.o.o.o.o.",
"^ ^ ^ ^ ^ ^ ^ ^ ^ ) ` ` ` ` ` ` ` ` ` $.$.$.1.1.2.r.r.a.d.C.S.S.H.H.I.I.U.U.Q.Q.U.Q././.(.(./.U.U.L.K.H.H.H.H.l.f.i.u.u.@.i ; > c c c ) `.`.I.S.d.r.1.$.~ Q Q S N N N N N N N N N S D ! ^ o.#.#.#.#.#.#.#.#.@.o.^ ^ ^ ! ! ! ^ ! ! ^ o.%.*.6.u.7.6.*.%.o.o.^ ^ ^ ",
"_ ! ! _ _ ! ! _ _ _ ) ` ` ` ` ` ` ` ` ` ` ` $.$.1.1.r.r.a.a.d.d.d.C.S.S.H.H.P.I.U.L.U.U.U.U.L.K.H.l.f.j.l.l.l.f.f.u.u.2.! 8 = > c c c Q P.I.D.C.d.r.1.` ~ Q S N N N N N N n n N N N D ! ^ ^ o.o.^ ^ ^ ^ ^ ^ ^ ! ! ! F ! ! ! ! ! ^ ^ ^ #.*.6.7.7.6.%.%.o.^ ! _ _ ",
"D N b N D Q Q Q Q Q Q ! ` ` ` ` ` ` ` ` ` ` ` ` $.1.1.2.r.r.r.r.r.r.a.d.d.C.C.S.H.L.L.L.L.J.H.f.f.f.f.f.p.p.f.p.i.u.u.$.Z 6 = 6 c c c m &.S.S.d.a.r.1.` Q Q N N N N n n n c c c n N N D ! ! ! ! ! ! F ! ! ! D D D D D D D D F ! ! ! ! o.%.6.6.6.;.*.%.o.^ ! ! D ",
"0 4 0 c n N N b N N N N Q Q n Q ) ) ) ~ Q ~ ~ ^ ) ` $.$.$.$.$.$.$.&.1.r.r.a.d.d.C.H.L.L.K.H.f.f.i.i.f.u.^ $.6.u.*.@.$.^ b > = 0 c c l n ^ d.d.a.r.1.$.~ Q N N n n c > 6 c c c c c c n n N N N N N N N N N N N b N b b b N N D D D N b N D F o.o.o.o.^ ! Z N b b ",
": ; : > > 6 7 0 i i i 0 0 9 : 6 c n n s n N N S R Q Q Q Q S S N N N S Q ` $.$.,.1.<.2.2.2.&.$.$.#.@.^ v 0 l N D Z i c b c 1 : i i i i n ~ ~ R N n n n i 9 7 4 4 > ; % % 1 > > > > > > > > > > > > > > > > > 6 6 7 9 7 8 8 0 i i 0 6 6 5 > > > > > > > > > 6 6 > ",
"# # # % = = = = ; : : : ; = = # = ; : 1 1 1 > 5 6 6 6 5 > > > > > > 6 6 7 7 7 7 7 7 0 0 0 0 8 8 0 7 6 > > > 2 6 6 6 6 6 > = = > > > > > 4 4 4 > > : : ; % % # # @ @ @ @ @ # @ # # # # # # # # % % % = % % = = c $.$.#.#.%.*.*.%.o.D F D Q N i > 2 6 > = = # = = ",
"F.3.4 O @ # # # # # # # @ @ O O O @ @ @ # % = = = = = = = = = = = = = = = = = : : 1 1 1 1 1 1 1 : : ; ; = = ; ; : : : : = = % % ; : ; ; = = % % % # @ o +             + % % % % 1 > > > 1 1 : > 0 D @.^ 0 = 6 v /.$X_.OX$X%X#X#X#X#X=XeXgXlXgXpXpXsXaX9X7X[.(.).",
"bXbX4X: O O O O O O O O O O O O O O O O @ s ` ^ F H H D Z 6 = = = = = = = 6 =.p.e.w.w.w.w.=.@.@...F H H F F q 6 6 q h k b V F H 6 = = 6 c c h 0 0 0 0 c b 6 @       @ > B b H F w.L.l.h.h.p.f.p.l.J.J.J.p.0 0 h H.-X=X=X;X$XOXOX).*X0XpXxXvXvXbXMXMXMXMXMXMXMXMX",
"bXbXvX*.= # % = = 1 > 6 9 i i i t 4 : # % 7 ) i.l.l.l.f.6.c 6 9 7 > = = 7 h w.<XrX1XrXrXrXrXrXhXrXiXiXrXfXgX_.x.x.n.+X&X1X1XfXjX_.k k e.^.^.n.^.^.OX:X1X^...6     + ; > 0 b F ;.l.L.L./.L.z.l.l.l.j.z.T.(.g.h h i.J.L.H.H.H.H.S.S.H.H.U.[.}.6X9XaXsXmXzXMXMXMXMX",
"xXbXbX X5 1 H F V G &.6.l.`.S.C.C.r.) s > ; i N ! u.U.L.%.N D ) $.N > > 0 ^ L.iXrXeXeXwXwXwXeXuXuXgXgXgXcXcXfX&X%X&XeXgXjXgXgXcXgXe...h.&X@X@X@X:XfXfXOXx.>.b #   # > > > 9 i $.z.f.d.r.2.&.&.2.u.i.l./.$X=XD c %.*.u.a.a.d.d.d.d.d.d.V.C.H.H.H.H.H.H.U..X6X9XaX",
"sXbXvX X7 > &.f.i.[.{.U.[.6X X`.U.I.a.) i % 7 i c N ^ u.D N ) 2.a.$.c 7 0 i.}.}.)./.L.H.H.H.L./.).}.*X$XeXcXfX%X@X%X&X-X2X<X1XiXfXn.=.}.=X).^.^.OX$XT.h.h.b. .; + % > > > 4 7 N u.u.2.$.$.$.$.$.$.1.r.s.g.}.u.n &.r.a.a.s.d.d.d.d.d.d.V.C.H.H.H.H.H.H.H.Y.Y.{.6X",
"aXvXxXH.6 : 1.{.U.U.U.U.[.[.{.[.U.S.4._ i & 4 i i c N ^ D N $.r.a.*.N 7 D L.Q.L.L.H.l.l.l.l.z.L./.(.).XX$XyXgX&X@X%X%X&X-X<X<X<XrX%X).=XXX(.T.c.c.c.c.c.c.x.#.6 # & : : > > 7 n u.r.&.$.$.$.$.$.&.2.2.u.s.S.f.D 2.a.a.d.d.d.d.d.d.d.d.V.C.C.H.H.H.H.C.C.P.U.[.6X",
"tXgXtX2.> > $.U.I.U.S.C.P.I.P.S.d.4.` _ i & : i i i c N N N $.r.a.2.D 0 %.l.l.l.j.j.j.j.l.z.l.J.L././.).$X$XuXrX%X&X-X2X-X<X<X<XiX<X*X=X$X_.L.L.c.c.c.c.^.z.=.6 # & ; : > > 4 n r.r.$.$.$.$.$.&.1.2.2.r.a.a.r.$.a.a.d.d.d.d.d.d.s.B.d.C.C.C.H.C.C.C.C.C.S.Y.W. X",
"9XpX*X1.> > ) C.C.C.d.s.a.d.a.r.1.) ( ( c ; : i 9 9 i n i n ` r.a.u.D b i.f.p.p.f.p.f.j.l.l.l.H.L././.(.}.$X=XeXiX<XwX<X<X<X<X<X1XwX=X=X$X/.U.L.L.J.c.c.^.c.=.6 # & ; ; : > 7 c 2.2.$.$.$.$.$.&.2.2.2.r.a.a.a.u.a.d.d.C.C.C.C.d.s.B.d.C.C.C.S.C.C.C.B.B.C.H.U.[.",
"6X9X}.$.> > ) V.V.a.r.r.4.2.1.[ _ Q P R n : : 9 7 7 i i > i $.r.a.$.b @.i.i.p.p.p.p.f.f.j.l.z.H.L.L./.(.}.$X<XeXeXeXwXwXwX<XwX<X2X<X-X=X$X/.U.L.K.H.c.c.^.c.=.> # ; ; ; : > 7 n 2.2.&.$.$.$.$.&.&.1.2.2.a.a.a.a.a.d.C.C.C.C.C.C.d.a.a.C.C.C.C.C.C.B.B.B.V.S.P.W.",
" X9X{.$.> > ) s.y.2.1.1.,.` ) Q R N n P N > ; 4 4 4 i 9 : i ` 2.$.b F 2.6.u.u.u.i.p.p.f.f.j.l.z.J.L./.(.XX=XwXyXuXeXeXwXwXwXwXwX-X-X-X=X$X[.U.L.H.H.l.l.c.x.F = # ; ; ; : > 7 n 2.2.&.$.$.$.$.&.&.&.2.2.r.a.a.a.d.d.C.S.S.S.S.C.C.B.B.V.C.C.C.C.V.B.y.y.B.C.H.U.",
"U.[.U.$.; : ) a.1.,.[ ) _ Q R P N f s s n > @ & : : 4 < & i Q Q D $.u.u.2.2.2.u.i.p.p.p.f.j.l.z.J.Q.(.).XX*XwXuXuXuXeXeXeXeXeXeX0X8X-X=XXX[.U.H.H.l.l.f.l.>.k = % ; ; ; : < 7 N &.&.&.$.$.&.&.&.&.&.1.2.2.r.a.a.d.C.S.S.S.S.S.S.C.B.B.B.V.V.V.B.B.a.y.t.y.B.C.P.",
"U.U.H.) ; ; Q ,.` ) ( / R P P N s 9 9 9 9 :     @ @ . . + < N C.{.[.f.6.<.<.2.u.u.i.p.p.f.j.j.z.L./.(.).$X=XeXuXuXuXyXeXeXeXeXwX0X-X-X*X}.[.U.H.H.l.f.f.p.@.0 # & ; ; : : < 7 N &.&.&.&.&.&.&.&.&.&.&.1.2.r.a.d.C.S.S.S.S.S.S.C.C.d.B.B.B.B.B.B.a.y.4.4.4.y.V.C.",
"S.P.C.) ; # 7 Q N N N N n n n i 4 > > > : %             + n I.7X7X[.d.2.<.<.2.2.u.u.i.p.f.j.l.z.L./.).XX$X8XyXuXuXuXeXeXeXwXwXwX0X-X-X*X[./.U.H.l.f.f.i.u.G 6 # & ; ; ; : > 9 N &.&.&.&.&.&.&.&.&.&.&.1.2.r.s.C.S.S.S.S.S.S.S.C.V.B.B.y.y.y.y.y.t.4.3.,.1.4.B.C.",
"C.C.s._ ; # % > > > > > 4 > > : ; % % % # +         + # > Q {.7X6XU.f.2.<.<.<.2.u.u.p.f.j.j.l.J.L./.).$X=XwXyXuXuXyXeXeXwXwXwX8X-X-X=X}.(.Q.L.H.g.f.i.u.u.F > # & : ; ; : > 4 N &.&.&.&.&.&.&.&.&.&.&.2.2.a.d.C.S.S.S.S.S.S.S.C.V.B.B.y.y.y.y.y.4.1.,.,.,.4.a.V.",
"C.C.7.Q ; ; > 1 > > > > : : : ; = % % # @ + + .     # % > 9 ~  X XI.C.u.2.<.<.<.2.u.i.f.j.l.z.J.L./.).$X0XeXuXuXuXeXwXwXwXwX0X-X=X=X*X}./.Q.K.H.f.f.u.u.u.G > # & ; ; ; : > > N &.&.&.&.1.1.1.&.&.&.1.2.r.s.C.S.S.S.S.S.S.S.S.C.a.B.B.a.y.y.y.4.3.,.,.,.1.4.y.B.",
"C.C.2.N ; $.*X*XoX}.}.}.}.(.(.~.L.p.;.=.=.=.#.G 6 # # @ # 7 n I.{.I.C.u.2.<.<.<.2.u.i.f.j.l.H.L.U.(.).*X0XeXuXuXuXeXwX0X8X0X-X=X*X$XXX[.Q.U.H.l.f.i.u.u.j.#.> # ; ; ; ; ; : > N &.&.&.1.2.2.2.1.1.1.2.2.a.d.C.S.S.S.S.S.S.S.S.V.B.B.B.B.y.r.4.4.,.,.,.,.3.4.r.a.",
"C.V.$.i & s 7XgXgXgXgXcXcXcXcXcXcXjXrX:X&X%X%XOXh.c ; @ @ > i d.[.I.f.u.*.%.<.<.2.6.i.f.j.l.J.L./.(.XX=X0XeXuXuXeX0X8X-X-X-X=X$XXX}.[./.U.K.l.f.i.u.u.u.z.w.> # ; ; ; ; ; ; > N &.&.&.&.2.2.2.2.2.2.2.2.a.d.C.C.S.S.S.S.S.S.C.V.B.y.y.y.y.r.4.1.,.[ [ ,.,.1.4.y.",
"C.s.Q 4 & < 2.gXhXpXpXgXgXjXjXgXgXjXfXrXrXrXhXfXiXz.Z ; + & t 2.I.S.s.2.$.$.%.2.2.2.u.f.j.l.H.L./.).$X=X-XeXeXwX0X-X-X=X=X*XXX X}.(.Q.U.L.H.f.f.u.6.2.*.j.i.> # ; ; ; ; ; : > n $.&.&.&.1.2.r.r.r.2.2.2.u.d.C.C.C.S.S.S.S.C.C.B.a.y.y.t.t.4.4.,.[ [ [ [ { ,.3.y.",
"C.2.m > % < a oXwX*X*X*X*X-X-X-X-X-X-X-X<XiXrXrXuXuXl.c + @ 4 ` C.s.2.<.$.$.$.<.<.2.u.p.j.l.H.L./.(.}.$X-XwXwX0X8X-X=X=X$X}.}.{.[.Q.U.L.H.H.f.i.u.2.*.*.i.e.> # ; ; ; ; ; : > c ` &.&.&.1.r.r.r.r.2.2.2.u.d.C.C.C.C.C.C.C.C.V.B.y.y.4.4.4.4.1.,.[ [ [ [ [ [ 1.4.",
"r.$.l : % < 4 ( `.W.E.P.S.S.C.V.V.y.a.a.a.C.U.}.*X7X#XN # + : R 2.2.%.$.$.$.$.$.<.2.u.i.f.l.H.L.U./.}.*X-XwXwX-X=X=X*X*X}.[././.Q.U.L.H.H.l.f.i.u.*.*.%.u.=.; # ; ; ; ; ; ; : 9 _ ` $.&.2.2.r.r.r.r.2.2.u.s.d.d.d.d.d.a.V.d.B.a.y.4.4.4.3.,.,.[ ) ( ( ( ( ] ,.3.",
"2.O.i : # : 4 ( W.E.W.W.P.S.B.a.4.4.4.4.1.1.1.r.I.I.2.9 @ + & N $.$.$.$.$.$.$.$.$.%.2.u.p.l.z.H.L./.}.=X-XwX0X-X$XXX}.{.[./.Q.Q.U.L.K.H.H.*.$.u.u.2.*.%.*.Z ; # ; ; ; ; ; ; : 6 R ) ) ` 1.Q ` r.r.r.2.2.r.a.d.a.a.a.` Q y.d.B.a.t.3.,.,.,.,.[ ( / Q Q Q / ( [ ,.",
"2.) 0 : # ; 4 [ W.W.W.W.P.C.a.4.3.3.1.1.1.1.,.2.I.d.Q : + + & n _ ! ~ ~ ! ! ^ ) $.$.$.<.u.p.l.H.L.(.$X-X8X0X0X-X=XoX[.Q.Q.Q.Q.Q.L.K.H.H.H.s.s.d.u.2.%.$.^ N = % ; ; ; ; & ; : > N ) ) ) R i R 1.r.2.2.2.r.a.u.r.2.` i 9 ,.B.B.y.4.1.,.[ [ ) ( ( Q R R R R Q ( [ ",
"1._ 0 : # # ; / P.P.I.I.S.V.4.1.,.,.,.,.1.,.` 2.S.1.N & + + & n Q Q Q Q Q Q Q ! ! ) $.$.<.u.f.l.U.}.$X-X-X$X}.[.[.[.Q.U.U.L.L.L.L.H.H.H.H.H.S.d.u.*.%.$.^ N % # ; ; ; & % ; : > s ( ) Q i 4 i ~ $.1.1.1.1.1.$.` ` n < > N 4.y.4.3.,.[ ) ( / Q R R P P N N P Q ) ",
"i 9 > % # # # n 2.1.,.,.( N s s n N N R R R P ~ ` Q 7 @ + + @ > 9 9 i i i i s c n n N Q Q Q ^ $.&.u.f.f.f.d.a.a.a.a.a.u.a.f.f.f.d.d.s.s.C.P.f.u.*.$.! D b 0 # @ # # # # # % & ; 4 n M t > ; : i n n n f s s i i t > : : 4 n N N N n n s s s s t 7 9 9 7 7 9 t s ",
"% # # # # # # ; 4 7 9 7 4 < < < < < : : : ; ; ; ; & @ + + + @ % ; : > : : > 5 > > : > < > > > > 4 7 7 9 i i i i i i i i i i i i i i 9 9 t N ) Q N 0 > : ; ; # O O O O O O @ @ @ # # # % # % % & & & & & & & ; ; & & & & ; : ; ; & & % % # # # % % % # % & # % % ",
"= ; = % % # % % % & ; : : : ; ; ; # # # = 1 > 2 2 > > 7 > ; 2 c i.l.l.l.j.i.p.u.o.c : : : : : ; ; ; : : : : : : : : : : : : : : ; ; ; & % % # # # # # # # # @ O + + O O + + + O O O O O O : 9 9 9 9 > % % ; 0 n B n n s s c 9 7 6 7 7 6 > ; # # # @ O O O @ @ @ ",
"p.f.j.f.f.f.j.l.f.s.) U.Q.j.f.i.u.;.#.%.%.-.-.-.-.8.+.X.m 1 1 > D i.j.j.l.R.*XyX).u.9 : : : n 1.1.R n 9 ; # @ @ # # # # # % % % ; ; ; = % # # O O @ ; Q 2.r.2.<.^ Q R S n a i 7 : % # : y.6XqXqX8X=XL.B ; : u.8X8XwXpXpXaXaXaXtXtXtXtX7X XU.C.s.2._ N c > @ : ( ",
"-X8XeXuXhXgXgXlXgX7X XxXvXpXwX-X;X#XOX_.R.z.k.k.q.-.+.X.Z > 1 1 8 N D Q Q ) s.H.).R.D > 7 R V.[.tX7X[.1.: @ O ; t s n N ^ $.$.&.2.2.6.u.u.$.m 0 ; ; : ! 8X8X0X-X$X[.Q.U.D.d.r.2.$.` D $.qXlXlXxXvXlX[.$.0 ; ` sXlXlXlXlXxXvXvXvXvXvXvXlXlXpXqX9X9X7X*X Xa.; 4 I.",
"[.|.|. X4X9XaXmX7XH.*XqXaXaX;X#X)./.R.R.R.R.k.7.8.X.! ! Z 2 1 1 i N N N D Q ! $.T.OX*.4 R '.'.S.9XaX7Xr.9 % # > N ` 3.r.K.U.H.H.H.H.J._.#X).7.-.! > : 9 [.*X[.H.H.U.P.D.C.2.$.) ( ( ) ` C.U.Q.[.{.}.Q.&.n : ` |.|.`.E.E.W.'.|.5X5X|.|.|.|.|.|.W.W.[. X XS.4 & ` ",
"E.E.E.'.'.'.'.|.'.P.E.E.E.`./.Y.G.A.B.7.<.<.<.O.O.X.! U Z 8 1 6 n n n N b D Q Q H.#Xl.9 3.4X'.Z.4XtX7XC.n > ; : n 1.3.D.W.W.U.H.H.H.R.$X:X-XR.-.%.9 : > 1.H.a.a.d.S.S.C.2.( T L L L L T E [ 3.C.H.L.U.s.S n C.I.D.D.Z.Z.Z.D.D.D.P.D.D.D.C.m.m.5.5.t.S.I.a.t & 4 ",
",.D.E.W.'.W.E.E.D.Z.D.E.E.P.P.G.A.A.s.6.<.<.<.O.O.X.X.Q U z 1 i c c c c N N Q Q 2.*XJ.i m.4XE.t.S.I.P.a.Q 7 & & 4 ) P.'.W.U.I.H.S.C.L.(.#X;X;Xk.-.b : > 1.d.r.r.2.r.d.a.` T I g f f f I L E ( { d.D.K.K.! ~ D.D.D.Z.Z.Z.Z.Z.D.D.D.D.Z.Z.m.4.3.} } 3.V.C.a.c : : ",
"E m.E.E.E.E.P.E.Z.Z.A.A.P.G.G.C.A.A.u.6.<.<.O.O.O.X.! U Z N l c l l c c n N D Q ) }.J.7 1.5XZ.t.d.a.y.3.( i & & ; ( 4X5X'.U.C.C.d.a.s.C.H.U.}.L.%.X.> > 1.r.1.,.,.) ) ` ) L f d s s s f K L E ( { d.U. X2.1.Z.Z.V.V.V.V.Z.Z.Z.D.D.Z.Z.m.3.3.} { { } t.C.V.R < < ",
"E 9.Z.P.P.Z.D.D.Z.Z.Z.Z.A.G.G.A.A.B.7.6.<.O.O.O._ ! U Z b n N l i i i c c b N Q ! [.j.> P D.t.3.4.3.3.1.` s : & & a '.4X|.U.S.d.a.a.d.C.H.H.U.U.*.#.0 7 1.1.,.,.) / R L L g f d p p d s f I L E ) [ a. Xa.t.m.m.m.m.m.m.Z.Z.Z.D.D.Z.m.m.3.} { [ [ { 3.V.S.,.7 3 ",
"E 5.m.Z.Z.Z.D.F.Z.Z.Z.Z.Z.F.A.A.B.7.6.<.<.O.O.) _ U Z N m c c l i i i l c n N N ! J.$.; t ] 1.3.3.2.3.1.,.N : & & : D.4X'.[.P.a.a.a.d.C.H.H.H.H.s.%.b n ,.,.) ) ( E L I f f d p u u d s f I L E E ( ) 3.t.} 3.3.4.m.m.m.Z.Z.D.D.Z.Z.m.3.3.{ [ [ [ [ { 4.I.C.i 3 ",
"E } 9.m.Z.Z.Z.Z.Z.Z.Z.Z.Z.Z.A.B.7.2.,.,.O.O.) _ _ U N n n c l l l i i x l c N N Q s.Q & 7 R 1.3.1.1.1.1.1.Q 4 & & : t.|.'.'.d.a.a.a.d.C.C.S.S.C.H.s.o.Q ,.) ) ( E L I f f d u u p u u d f g L T E W ( ( [ [ 3.3.3.m.m.V.Z.Z.D.Z.Z.m.0.3.3.[ [ ] [ [ [ 3.E.D.s < ",
"E [ 5.9.m.Z.Z.M.Z.Z.Z.Z.Z.M.B.7.6.,.,.,.O.) _ ^ _ U N n c c l i i i i i l c N N D ;.N & 4 R 1.1.,.1.1.1.1.` 9 & & ; ) '.W.D.V.a.a.a.V.C.C.C.C.C.P.[.C._ ) ) ( / L I f f d u u u e u u d f f I L E ( ( ( ' [ } 3.3.m.m.Z.Z.Z.Z.Z.Z.m.3.3.{ [ ' ' ' ] [ 3.D.S.n < ",
"E [ } 9.m.M.M.M.Z.Z.Z.Z.M.m.4.6.2.,.,.O.O.) _ ^ ! U N n c c x i i 8 8 i l c m N D %.c # 4 P ` ` ` ` [ 1.1.1.n & & ; R '.'.'.D.V.a.V.V.V.C.C.V.V.C.P.C.[ ) ( / E L f f s u u e e e e u p s f I L T E ( ' ' [ { 3.5.3.m.m.V.Z.Z.Z.m.9.3.3.[ ' ' ( ' ' { m.D.y.f < ",
"E ] } 5.0.M.M.M.Z.Z.Z.Z.M.m.3.,.,.,.O.O.) _ ^ ! U Z m n c l i i 8 8 8 0 i c n b Q %.7 % > P ) ` ` ` ` ,.1.1./ : & & t '.4X].D.V.V.V.V.V.V.V.m.V.V.t.3.[ ) ~ E L I f s d u u e e e e u u d f g L L E ( ( ' ] [ } 3.3.m.m.m.V.Z.Z.m.3.3.{ ' ( ( / ( ' [ y.V.` n < ",
"E ' [ 5.9.m.M.M.M.Z.Z.M.m.9.5.,.,.,.O.) ) _ _ U U Z n n c i i 8 8 8 8 0 i c n b Q $.> % 4 R ( ( ( ( ) [ 1.1.` 4 & & & [ |.E.D.Z.V.V.V.V.m.m.m.V.m.3.3.[ ( / T I f s d u u e e e e e u u d f f I L T E ( ' ] [ } 3.3.m.m.m.m.V.m.m.3.3.[ ' ( ( E E ( ' 5.4.( f < ",
"E ' [ } 9.m.M.M.M.M.M.m.9.5.,.,.,.O.O.) _ _ ! U U N n c l i 8 8 8 8 8 0 i c n N Q $.; ; s / / / / / / ) ` [ ` s & & & 4 D.'.D.Z.V.V.V.V.V.V.m.y.t.3.{ ) / T L g s d u u e e w e e e u u s f f I L L E ( ' ] [ { 3.3.3.m.m.m.m.m.3.5.} [ ' ( E E / ( ' 3.4.( f 3 ",
"L ' ] } 5.0.m.M.M.M.m.0.9.3.,.{ [ ) ) ) _ _ _ U U Z m c i i 8 8 8 8 8 0 i l c N Z ^ : a L T T R R R R / ) ` ` R : & @ & L D.D.Z.V.V.V.V.m.t.t.t.3.3.` ( E L I f d u u e e w w w e e u p s f g I L L E E ( ' [ [ } 3.3.3.0.m.9.9.3.3.{ ' ( E E E E / ( 3.4./ a 3 ",
"L ( ' [ 5.9.m.M.M.M.m.9.5.5.{ [ ) ) ) ) _ _ _ U U N n l i 0 8 8 8 8 8 i i l c c N D < L ) E P R R R T R ( ` ` ` s % @ @ : ( Z.Z.Z.V.V.V.t.t.t.3.3.[ ( E L I f d u u e w w w w w e e u p s f f g I L E E ( ' ' [ { 3.3.3.3.3.5.3.3.} [ ( / E E E E E ( 3.4.Q t 3 ",
"L W ' [ } 9.m.M.M.m.9.9.} [ [ ] ) ) ) ) ) _ _ ! Z N c l i 8 8 8 8 8 8 i x l c c m i ; u P P L L P L L T R / ) ` ^ : @ $ @ 4 [ Z.V.V.V.V.t.t.t.3.3.[ / T I f s p u e w w w w w w e e u u d f f g I L L E E ( ' ' [ { 3.3.3.3.3.3.} [ ' ( E E L L E E ( ,.,.Q w w ",
"L E ' [ } 9.m.m.m.0.9.5.[ ' ' ) ) ) ) ) ) _ _ Q N n c i 0 8 8 8 8 8 8 8 i c c c c > # 4 N P N M M M M L R R ( ` &.N % @ @ & s t.V.m.m.t.3.3.3.3.{ ) R L f d p u e w w w w 3 w w w e u u d d f g I L L E E E ( ( ' [ { { { { { { [ ' ' / E L L L T E ( [ ,.Q w w ",
"L E ' [ 5.9.9.0.9.9.5.[ ' ' ( / ( ) ) ) _ _ _ N m c l 8 9 9 9 9 7 7 8 8 i c l l c ; # : M P M M f n n M L R / ` &.$.9 @ @ $ , W m.t.3.3.3.3.3.{ ` / T I f d u e e w 3 w 3 3 3 w w e u u p s f f K I L L L T E E ( ' ' ' ' ' ' ' ' ' ( E T L L L T E W ' [ / w 3 ",
"L W ' ' 5.m.9.9.9.5.[ ' ( W E E ( _ ) _ _ _ Z n c l 8 7 6 6 6 6 6 6 7 8 0 i i l l % @ : f N M n f f f n M L T ( &.<.! ; @ @ & p { 3.3.{ { { { ) / T I f s u u e w w 3 3 3 3 3 3 w w e u p d d f f I I L L L L T E E ( ( ( ( ' ' ' ( E E L L L L L E ( ( [ / t < ",
"L W ' ' ] 9.9.9.} } ' ( E E E E N n _ _ ! U m c l 0 7 4 > > > > > 6 7 8 0 i i i i # @ : f M f f s s s f f n N R ` <.$.t $ @ % 3 L [ { [ [ ) ( / T I f s p u e w 3 3 3 3 3 3 3 3 w w e e u p d s f f f g I I L L L L E E E W ( ( ( ( E E L L I L T E ( ( [ ( t & ",
"I W ' ' ' ] } 5.} ] ( E L L L L t t U U Z m c l 0 7 > > > : : > > > 6 8 0 i i 8 6 @ @ 4 f n s s s s s s s s s f R $.$.u # @ @ 3 f T [ ) / / E L I f d u u e w 3 3 3 3 , , , 3 3 3 w e u u u u p s s s f f f f I I I L L L E E E E E E L L I I I L E E ] ,./ w & ",
"d E E E W ( ' ] ' W T I f f f f < < c m n c l i 7 > : : ; ; ; ; ; ; : > 7 0 8 9 > O # t s s s s s s s s s s a 7 t n n 4 @ . + : w u s f s s s p u e w w 3 3 3 < < , , , , , , , < 3 w e e u u u p p p d d s s f f f g I L L T E E E E L L I I I I I L ( ( f < & ",
"w p d d f J L L L f a u t 3 , , % # : > > > : : ; & % # # # # # # # # # ; : ; ; % O # : < 4 4 4 7 9 t t t 7 4 < : < > & + . . @ @ & @ & & $ # % % & & & % $ @ @ @ @ @ @ & & @ @ & & & & & * , < 3 3 3 3 3 3 w w w t u u s f f J I I I I L I n n n I I I a 4 : & ",
", , , , , , < 3 , , & & # # # # # # # # # # # # @ @ O O O O O O O O @ @ @ @ @ @ O O O O # & & ; : : : : : & & & @ @ @ + . . . . . . . . . . . . . . . . . . . . . . . . . . . . . . . + + @ @ $ $ & & & & & & & & : : , : : , < < < < 3 w w t t t t u w < , & & "
};
