/* XPM */
static char *texture10[] = {
/* columns rows colors chars-per-pixel */
"128 128 238 2 ",
"   c #241E17",
".  c #2E2317",
"X  c #2D241A",
"o  c #2F281E",
"O  c #262019",
"+  c #32271A",
"@  c #35291C",
"#  c #3A2D1D",
"$  c #302417",
"%  c #3E301F",
"&  c #342D21",
"*  c #392F20",
"=  c #353024",
"-  c #3D3223",
";  c #3D3628",
":  c #412E1C",
">  c #42321E",
",  c #4A361E",
"<  c #593E1D",
"1  c #433522",
"2  c #493721",
"3  c #453925",
"4  c #4B3B24",
"5  c #453C2B",
"6  c #4A3E2A",
"7  c #403728",
"8  c #523D23",
"9  c #463F30",
"0  c #4C412D",
"q  c #4F4027",
"w  c #544126",
"e  c #5A4426",
"r  c #53442B",
"t  c #59462A",
"y  c #56482E",
"u  c #5B4A2D",
"i  c #5E4827",
"p  c #4D4431",
"a  c #494232",
"s  c #514632",
"d  c #554A33",
"f  c #5A4D33",
"g  c #5A4F39",
"h  c #554D39",
"j  c #5D5136",
"k  c #5D533B",
"l  c #575039",
"z  c #634C2B",
"x  c #674B26",
"c  c #65512E",
"v  c #6B532D",
"b  c #72562C",
"n  c #785A2D",
"m  c #635435",
"M  c #6A5634",
"N  c #655836",
"B  c #6A5B35",
"V  c #62563A",
"C  c #685738",
"Z  c #65593D",
"A  c #6A5C3C",
"S  c #735C34",
"D  c #715E3B",
"F  c #795F33",
"G  c #614F30",
"H  c #6D6037",
"J  c #6E613D",
"K  c #746137",
"L  c #7A6236",
"P  c #73623C",
"I  c #7A663D",
"U  c #75683C",
"Y  c #7D6A3D",
"T  c #5C401F",
"R  c #645B42",
"E  c #6A5E41",
"W  c #6C6143",
"Q  c #6D654A",
"!  c #6F684E",
"~  c #736643",
"^  c #7B6741",
"/  c #766944",
"(  c #7B6C44",
")  c #716649",
"_  c #746A4B",
"`  c #7B6D4A",
"'  c #7E714C",
"]  c #7F7046",
"[  c #756D50",
"{  c #786F52",
"}  c #7C7353",
"|  c #7D7556",
" . c #5F5840",
".. c #836B3C",
"X. c #866A38",
"o. c #8B713E",
"O. c #97783D",
"+. c #805F2E",
"@. c #826E44",
"#. c #826F48",
"$. c #8B6E41",
"%. c #837245",
"&. c #8B7443",
"*. c #8D7846",
"=. c #84734A",
"-. c #8A754A",
";. c #86784E",
":. c #8C7A4C",
">. c #927643",
",. c #937B46",
"<. c #9A7D43",
"1. c #937C4C",
"2. c #997E4B",
"3. c #827651",
"4. c #857954",
"5. c #8B7D53",
"6. c #847C5C",
"7. c #8A7F59",
"8. c #917F52",
"9. c #A17F40",
"0. c #847B60",
"q. c #8F814D",
"w. c #958047",
"e. c #95824D",
"r. c #9C834C",
"t. c #9E8348",
"y. c #8E8056",
"u. c #8D825B",
"i. c #948353",
"p. c #9B8552",
"a. c #9C8A54",
"s. c #93855B",
"d. c #95895D",
"f. c #9B8B5C",
"g. c #958953",
"h. c #9E9259",
"j. c #AC8A46",
"k. c #A1854D",
"l. c #A48A4D",
"z. c #AB8D4C",
"x. c #A48444",
"c. c #AE904E",
"v. c #B5964D",
"b. c #A28651",
"n. c #A48B53",
"m. c #AA8E53",
"M. c #A38E5A",
"N. c #A88E58",
"B. c #AD9254",
"V. c #A5925A",
"C. c #AC945A",
"Z. c #AC995D",
"A. c #A49359",
"S. c #B29555",
"D. c #B69956",
"F. c #BB9D55",
"G. c #B49A5C",
"H. c #BA9C5A",
"J. c #B19659",
"K. c #BDA15D",
"L. c #BBA05A",
"P. c #8B8362",
"I. c #958A62",
"U. c #998E62",
"Y. c #948B66",
"T. c #9C926A",
"R. c #9E9164",
"E. c #A29363",
"W. c #AA9661",
"Q. c #AC9A63",
"!. c #A2966C",
"~. c #A6996E",
"^. c #A99B6D",
"/. c #B49D62",
"(. c #B89F64",
"). c #A59B71",
"_. c #A28B61",
"`. c #B5A264",
"'. c #BAA364",
"]. c #BCA964",
"[. c #BBA669",
"{. c #BCAC6A",
"}. c #B4A46B",
"|. c #BEB16C",
" X c #B6AA77",
".X c #BEB27C",
"XX c #AEA373",
"oX c #C09F51",
"OX c #C2A35D",
"+X c #CBAB5A",
"@X c #C4A658",
"#X c #D0B15E",
"$X c #C4A661",
"%X c #C4AA63",
"&X c #CAAC65",
"*X c #C3AB6A",
"=X c #CAAE68",
"-X c #C3B36D",
";X c #CCB36B",
":X c #CCB568",
">X c #D2B369",
",X c #D3BA6C",
"<X c #D8BA67",
"1X c #C3B472",
"2X c #C5BA72",
"3X c #C9BA77",
"4X c #D5BB73",
"5X c #D1B771",
"6X c #E0BE6A",
"7X c #DBC26D",
"8X c #CCC27C",
"9X c #DBC374",
"0X c #D9C778",
"qX c #DFD07B",
"wX c #E6CD76",
"eX c #E9D17B",
"rX c #EDD074",
"tX c #B5AC81",
"yX c #BCB387",
"uX c #A8A382",
"iX c #C7BB87",
"pX c #CDC285",
"aX c #D4CA87",
"sX c #D9D18D",
"dX c #DDD297",
"fX c #D6CB96",
"gX c #E8D784",
"hX c #E5DC9B",
"jX c #F0DA82",
"kX c #F3E695",
"lX c #F4E38E",
"zX c #E6DCAB",
"xX c #F3EBA9",
"cX c #F7F1A8",
"vX c #EFE8B2",
"bX c #DDD3A1",
"nX c #FCF5D9",
"mX c #F7EFC8",
/* pixels */
"- - - - - - - - - * & @ + + + + + + + + + + + + @ * 1 w t m B D P P K z w 2 > @ % m D P D A C C G u t u u u t 0 6 6 4 1 1 - - - 1 1 1 % # % 3 4 4 4 + . + # # # # @ @ @ # # # @ + + + @ @ + + + + + + + + @ @ # # # # # # @ # # % % @ + + + + @ 5 6 7 7 3 - - * ",
"# @ - - - 1 3 1 1 1 1 3 6 6 6 - @ @ - - 1 1 6 r f C I %.:.i.p.M.M.M.M.,.&...t @ > ..Z.{.`.G.G.C.N.a.p.e.e.p.p.r.e.p.a.p.a.a.a.p.p.e.e.e.r.r.m.B.D.e.3 @ t C C M M M M M S S S S M M v z i t w 4 4 4 4 4 4 1 # @ + + + + + 3 j j f f 6 # 1 2 3 3 3 3 1 1 - - * - ",
"7 - s V ~ ` ` ( ( ( ( ` ' ' ( N 6 r E ( ` %.i.p.p.a.M.V.C.W.Q./.'.1X*XD.D.B.i # > c `.1X/.G.Z.V.a.a.a.a.a.C.G.V.V.V.V.W.Q.}.}.1X}.Z.Z.Z.G.;XL.n.Z.i.6 3 S I I I L K S S K L Y ..o.o.o...X.X.......Y L L L S v w @ + @ 1 u Y %.%.%.` N 2 c K P P P P P B B Z V j ",
"* - 6 s Z ` ` 3.3.4.4.4.4.4.s.` 0 f ) _ _ ` 3.d.f.f.E.E.E.E.E.W.'.0X0X5X;X%Xv , 2 c C.Z.V.M.p.i.8.8.8.8.8.i.a.a.f.d.s.i.5.5.y.U.s.5.5.5.5.f.i.5.;.:.6 m :.1.:.&.%.....Y L L Y ....o.o.o.&.&.&.>.>.,.<.>.>.&...M # # u S K Y %.%.` ~ j 1 t P I I I I I I I P J A ",
"@ - 5 p s V ) ` 3.4.7.7.' 7.~.W 5 j _ } ' ` _ } 4.7.s.s.s.s.d.d.f.[.aXaX[.'.Y 2 4 K M.C.C.M.i.i.i.8.8.8.8.8.i.f.d.s.s.d.s.i.i.s.u.y.5.5.5.:.:.5.;.;.6 j E.XXE.d.i.i.:.:.&.&...o.o.&.,.,.,.,.<.,.t.t.t.k.n.n.r...w m K K I %.` / ~ A m 4 w Z D Z Z Z Z Z N A A Z ",
"- - 5 p d V ) ' 4.u.u.u.4.` 3.W 3 j } 4.3.} } } 4.u.u.s.s.s.s.d.d.M.W.Q.Q.`.:.8 w %.a.M.M.p.i.i.i.8.8.8.8.y.y.s.s.s.d.d.d.d.d.d.d.s.u.y.5.5.5.4.3./ 3 r 7.U.s.u.5.-.-.:.:.:.-.-.:.e.e.w.,.,.r.r.m.n.m.C.G.K.G.,.M K Y %.-.-.` / ~ Z N w 6 m m j j j j f f f j j ",
"- - 5 p f V W ' 7.u.s.I.s.4.4.3.r Z 4.7.7.4.4.4.7.u.u.s.s.s.s.s.d.f.V.V.W.W.e.z v :.i.p.8.:.8.i.i.8.8.8.8.y.y.y.y.s.d.d.d.d.d.d.d.d.d.u.y.5.5.5.;.Z 3 d 6.u.4.3.' ` ` ( ` ` ` ` %.%.%.%.%.-.:.e.a.V.Z.H.%X%X%X&.M I :.:.:.-.%.` ( ~ Z d 6 j j j j j f d d d d d ",
"X & 5 p f V W 3.7.s.I.U.U.I.I.s.V Z u.s.u.u.7.7.7.u.u.s.s.u.u.u.d.d.d.f.M.V.p.v S :.i.8.:.:.:.:.8.8.5.5.5.y.y.y.y.s.d.d.U.U.U.U.U.U.d.s.u.u.y.7.;.f 6 d 6.u.4.3.' ' ` ( ( ( ( ` ` #.` ` %.-.:.:.i.a.V.G.K.%X'.I B %.:.,.:.-.%.` ( / J N y j j j f f d d d s d r ",
"X & 7 p f Z ) 3.7.I.U.T.T.T.T.U.6._ I.I.I.I.s.u.u.u.u.u.u.u.u.u.s.d.f.f.d.f.f.Y @.8.8.:.-.-.=.-.:.5.y.y.y.y.y.s.s.d.d.d.U.U.U.U.U.U.U.d.s.u.u.7.;.j 0 d 6.u.4.3.' ' ' ( ( / ( ( ` ` ` ` %.-.:.:.g.a.N.C.G.$XG.D I -.:.1.1.:.%.` ( / ~ Z m j j j f f d d d p 0 p ",
"X & 7 0 j R _ 3.u.I.T.!.).).!.T.T.Y.Y.I.I.I.I.s.u.u.s.s.s.u.u.u.s.d.d.d.d.d.M.:.:.8.8.:.=.%.=.=.-.-.5.7.y.y.s.s.s.d.d.d.U.U.U.U.U.U.U.U.d.s.u.7.3.V p p _ u.7.4.3.' ' ` / / / ( ( ` ` ` #.-.:.1.g.a.A.N.C.$XK.%.-.:.:.1.1.:.-.` / ~ P A Z V j j d d d r s 0 0 0 ",
"X & 7 0 j E _ 3.u.I.T.!.).).).!.T.U.U.I.I.I.I.d.s.s.s.s.s.s.s.s.s.d.i.i.s.f.M.i.8.8.:.-.=.=.%.%.=.=.;.4.7.y.s.s.d.d.d.U.U.U.U.U.U.U.U.U.d.s.u.y.4.j p p R u.u.u.4.3.' ( / ~ ~ / / / ` ` %.-.:.1.i.a.a.A.V.G.K.e.:.:.1.1.,.:.-.` / ~ J Z Z N j j f d d s 0 0 0 0 ",
"X & 7 6 f W ` 4.u.I.T.!.).).).!.T.I.I.I.d.d.d.d.s.s.s.s.s.s.s.i.i.i.i.i.i.i.f.i.8.8.:.-.=.=.#.#.=.=.=.;.7.y.s.s.d.d.d.U.U.U.U.U.U.U.U.d.s.u.u.y.4.j p p R P.P.u.7.3.' ` / ~ ~ ~ / / / ` %.-.:.1.i.p.a.a.a.A.C.1.,.1.1.1.:.:.-.` / ~ J Z Z V j j f d d s 0 0 0 5 ",
"X + - 5 f W ` 4.u.I.T.!.).).).!.U.I.I.s.s.s.s.s.s.s.s.s.i.i.i.i.i.i.i.i.i.i.i.i.8.8.:.-.=.#.` %.%.%.=.=.4.5.y.s.d.d.d.d.U.U.U.U.d.s.s.u.u.u.u.7.4.j p p R P.P.u.4.3.' ' / ~ ~ ~ ~ / / ` %.-.:.1.i.g.a.a.a.a.p.1.1.:.:.:.-.-.%.( / ~ J Z Z V j j f f d r 0 0 5 7 ",
"X X - 5 f E ` 4.u.d.Y.T.T.!.!.T.Y.I.s.s.s.7.7.7.u.i.i.i.i.i.i.8.8.8.8.i.i.i.i.i.i.i.:.-.%.#.` ` %.%.%.=.;.7.y.s.d.d.d.d.U.U.U.U.d.u.u.u.u.y.7.5.4.j p p R P.u.u.4.3.' ' ` / ~ ~ / / / ` #.-.:.1.i.i.p.a.a.p.i.1.:.:.-.%.` ( / / ~ P J Z Z m j j f f d r 0 5 5 ; ",
"X & 7 0 f E ` 4.u.s.I.Y.T.T.T.T.I.s.s.u.7.4.4.4.5.5.8.i.i.i.8.8.8.8.8.8.i.8.i.i.i.i.:.-.#.` ` ` ` %.%.=.;.4.y.s.d.d.d.d.U.U.U.U.U.u.4.7.7.7.4.4.3.k p p R u.u.4.3.3.' ' ` / ~ / / / ( ` %.&.:.,.1.i.i.p.p.i.i.1.:.-.%.( / / ~ P P J J A V j j j f d d 0 0 5 5 - ",
"X * 5 p d Z _ 4.u.s.d.I.T.T.T.U.s.u.u.7.4.3.3.3.4.4.5.5.8.8.8.:.:.:.8.8.8.8.8.i.i.8.:.-.` ` ` ` ` #.%.=.;.4.y.s.d.d.d.d.d.U.U.U.d.s.7.4.4.4.4.4.4.j 0 0 k 4.7.3.3.3.' ` ( / ~ / / / ( #.%.:.:.:.,.1.1.e.e.i.1.,.-.` / / ~ ~ P J J J J Z V j j j f d d 0 0 5 5 - ",
"X & 5 s d V ) 3.7.u.s.I.Y.Y.U.I.s.u.4.4.3.3.3.3.3.3.3.4.7.5.:.:.:.:.:.:.:.#.=.i.8.:.:.=.` ( ( ` ` ` #.%.;.4.5.s.d.d.d.d.d.d.d.d.d.s.5.4.3.3.3.4.4.g 5 6 j ' 3.} ' ' ' ` / ~ ~ ~ / / / ` %.-.-.:.:.,.,.1.:.:.:.-.%.( ~ ~ P J J J J J J A Z j j j f d d 0 0 5 5 - ",
"X & 6 s s j W ` 4.7.s.s.I.I.I.s.u.7.4.3.;.;.;.=.=.=.;.3.4.:.:.:.:.:.:.:.=.P :.M.:.:.-.#.( ~ ~ ~ ( ( ` #.%.4.5.s.s.d.d.d.d.s.u.u.u.7.7.3.3.3.3.} 4.g 5 5 d ` ' ' ' ' ` ( ( / ~ ~ ~ / / ` ` %.-.:.:.:.:.:.:.-.-.%.` / ~ ~ J J J J J J J J Z V j j f d d 0 6 5 5 & ",
"O @ 5 s s d Z ) ' 4.u.s.s.s.s.u.7.4.3.=.#.` #.%.#.#.%.=.=.=.-.:.:.:.-.-.=.8./.i.-.=.=.` ~ ~ ~ ~ ~ / / ( ` 4.7.y.s.d.s.s.d.s.7.4.4.4.3.} ' ` ` ` | h 7 7 d ) _ ) ) / / ( / ~ ~ ~ ~ ~ / / ( ` %.-.-.:.-.-.%.%.%.` ( ~ ~ ~ J J J J J J J J J Z V j f d s 0 0 5 7 @ ",
"  + 5 s s s j E _ ' 4.7.7.u.u.7.4.3.=.` / / / ( ( ( ` %.%.%.=.-.:.-.=.=.=.8.i.=.=.=.%.( ~ ~ P P P ~ ~ ~ ( ;.5.7.s.s.u.y.7.7.5.3.3.' ` ` ` _ _ ~ _ s - 7 p Q ~ Q Q ~ ~ ~ ~ P J J J ~ ~ / / / ` %.%.-.%.#.` ` #.( ~ P J J J J J J J ~ ~ ~ ~ P Z j f d 0 0 6 5 - X ",
"  X 5 s s s d V W _ ' 4.4.4.4.3.' ` ( ~ ~ ~ ~ ~ ~ / ( ` ` #.=.=.-.-.=.=.%.=.=.%.=.=.#.( ~ A A A A A P ~ ( %.3.4.7.y.7.4.3.' ` ' ' ` _ ~ ~ Q W W ~ p & 7 0 Z E J J J ~ ~ P J J J J J P ~ / ~ ( #.%.%.` ` ` ` ` / P J J J J J J J J P ~ ~ ~ ~ J Z f d 0 0 5 5 - X ",
"  X 1 s s s s j Z W ) ` 3.3.` / ~ ~ ~ P A A E A A ~ ~ ( ( ` ` %.%.%.%.%.%.%.%.%.%.#.` ( ~ A Z N N Z A ~ ~ ` =.3.4.4.3.3.` _ ~ ~ ~ ~ W W E E W W W 0 o - - ; 6 s f j Z Z A A A J J J J P ~ ~ / ( ( / / / / / / P J J J J J J J J J Z ~ ~ ~ ~ ~ Z j d 0 0 5 5 * X ",
"  X - s s s s d j Z E E ) _ ~ Z A E Z A Z Z Z Z Z A Z ~ ~ / / ( ( ` ( ( ` ` ` ` ` ( ( / ~ Z Z Z N Z A ~ ~ ( ` %.=.' ` _ / Q E Z Z E Z Z V V Z Z V 5 o @ o @ - 5 5 5 0 d j m m N Z A B J J J P ~ ~ J J J P ~ P A N N Z Z A A A A m d ~ ~ ~ ~ ~ Z j d 0 6 5 5 # X ",
"  X - s s s s s f j V V Z E Z j j V V V j j V V V V N Z Z P ~ ~ ~ ~ ~ ~ / ( ( ( ~ ~ ~ P Z Z Z Z Z Z A ~ ~ / ( ( ~ W E W Z V j f f f d 0 0 s d s 0 - @ o o o & - - - - - 7 5 0 r d f j j m m Z Z Z m m m N Z N j f y d d y d f d - 3 ~ / ~ ~ J Z j d 0 6 5 7 @ X ",
"  X - 6 0 6 0 0 p s d f f f d s s d d d d s d d d d s s s d f f f f m m m m m m m f f d d u u u d f N N N Z m j w 3 6 6 1 - - - - - - - - - 1 1 - * @ o o o o o @ @ @ & & # # * - - - - - - 1 1 1 2 3 3 5 6 3 3 3 1 1 1 1 1 3 - + 3 m J ~ J Z d 0 0 3 - - * X X ",
"  O @ - - # # # * - - - - - - - - - - - - - - # @ + + . . + + + + + @ @ @ @ @ @ @ @ @ @ @ @ # # # # 1 1 1 1 > # + + + + + + + + + + + @ @ @ # # # - & & & @ X o @ & & & * - > 1 1 1 > # # # # @ @ @ @ @ @ + . . . X + + + + + + . @ # 1 3 2 - # d k # @ + X X X ",
"    X @ + + + + + + + X X X X X @ @ @ * # - 1 3 6 2 4 4 4 2 4 4 1 > 1 1 1 > > > > 2 w w w w 4 8 w t u z B B B B N N Z N m m m N Z m m m j m m m m j j f f 5 o - r f f j N B B A A B C M m f u t w w 4 2 1 % # + . . . . . . . . . . X X + @ @ # 0 s # @ X X X X ",
"0 0 0 r r r r s s s r 0 5 - X X 7 r f V N Z Z / ( @.@.-.1.1.r.r.t.t.t.t.t.r.r.2.&.L &.>.>.&.&.,.r.,.,.r.a.r.e.e.e.e.i.:.;.;.5.7.5.5.;.%.' ` ( / ~ ~ ~ ~ ` j & 7 m ~ ` ` :.8.:.-.=.#.( ( ( I P P D D D B M z z t # . . . . $ % q w 4 4 q w w w 4 3 1 % # # - 3 0 ",
"~ / ` ;.4.4.4.4.3.3.;.` Z d o @ 6 f N Z Z Z A ~ ` %.-.1.p.l.l.l.m.S.D.H.%X;X;XD.L e ..*.r.t.r.l.*.I Y &.C.'.a.:.;.;.-.=.;.;.5.y.y.5.7.4.3.} ' ' ` ' 4.7.u.R o = 0 W 5.d.f.f.f.p.i.i.5.:.:.8.:.:.:.-.:.:.5.:.:.:.A # # + + y N H I Y Y Y Y Y I B N m m c m m J / ",
"' 3.7.I.U.U.U.I.I.I.U.s./ Z - @ 7 d m Z Z Z V E ~ / ` =.1.1.e.1.1.e.r.G.;X4X;XB.z , B @.@.&.,.&.K K K K @.f.:.%.` ` ` ` ` ' ;.4.4.3.3.` _ ) ) W R R Q } 6.R @ & = 5 ' ~.~.^.^.^.^.^.^.^.~.E.E.E.M.f.f.E.W.Q.}.[.f.4 1 # # t I Y %.%.%.%.%.%.( Y K B B B B P / / ",
"' 4.s.tXyXyX XXX^.^.XX!.=.W - X - 0 f Z Z j f Z W ~ ( ` ` ` ` ` ` ` ` %.:.a.`.l.e , z @.@...@.I K B A A P ` ' ` ( ( ` ` ` =.;.4.4.4.| } _ ) W E R R R R _ R & & = = k yXiXtXtXtXtXtXtXXX^.E.U.U.d.d.d.d.E.W.}.3X^.w t 1 # 4 m B A P P Y / ( ( I H N m m A A J W ",
"Q _ ' u.Y.Y.P.6.4.7.U.!.4.Z - X - 3 s j V j f k E ~ ( ` ` ` ` ` ` ` ` ` %.-.i.k.z , i @.@.@.@.K A A A P / ` ` ( ( ` ` ` ' 3.;.4.6.6.6.6.} _ ) W R R R R W V & & = = 5 Q uXXXT.Y.P.u.P.6.4.| } [ _ _ 3.7.7.5.5.d.R.Y r.4 1 w d f f f f f f f j f d d d d d f j V ",
"W Q _ _ ' ` ) Q E R E 4.` f - X - 7 p s d j j j Z ~ ( ` ` ` ` ` ` ` ( ` %.-.i.G.@., B -.-.-.%.I J A B / ( ( ( ( ( ' ' ' ' ' } 4.6.6.6.6.6.| } ) W R R R R k & o = 5 5 7 R P.P.P.| } } [ [ _ _ Q W ) ' 5.7.5.5.5.7.C.p.6 4 r d f f f f f f f f d d d s d f j V Z ",
"W W _ _ _ ) ) W R R k E E s & X & 7 p s f k k k Z ~ / ` ` ` ` ` ` ` ` ` %.-.i.[.r.z -.:.:.:.:.:.1.%.P ` ( ( ( / / ` ' ` ` ` } | 6.6.P.6.6.6.| _ Q R R R R j & @ = 5 p 5 R P.Y.P.} [ [ [ _ Q Q W E W ` 3.4.3.3.=.=.:.:.u 4 r f f f f f f f f d d d d d d f j V Z ",
"W W ) ) ) ) ) W R k j V V 0 & X & 5 p d j k k V Z W ~ ` ` ` ` ` ` ` ` ` ` -.:.[.a.%.i.:.:.:.:.:.1.1./ ` ` ( / / / ( ( / _ ` ' | 6.6.6.6.6.6.6.| ) E R k k j & o & = ; 5 [ P.6.} [ [ [ [ _ Q W W E W / ` ' ' ` ` / ~ ` Z 4 d f f f f f f f d d d d d d d f j V Z ",
"W W W W Q Q Q W R k f j f 5 X O & 5 s f j k k Z A E ~ ( ` ` ` ` ` ` ` ` ` =.-./.[.p.i.i.i.:.:.:.-.=.` ` ` ` ( / / / / / / ` ' } 6.6.6.6.6.6.6.6._ W R k k h & & & = = p | } [ [ _ _ ) ) Q Q W E E E ~ ( _ ` _ / ~ ~ E m 6 f f f f f f f f d d d d d d d f j V Z ",
"R R R R W W W E R k f f s - X O & 5 s f j k k Z Z E W / ( ` ` ` ` ` ` ` ` %.-.a.1XM.p.i.i.8.:.:.-.%.` ` ` ` / / / / / / ` ` ' } | 6.6.u.6.6.6.6.} ) W R k d & & & = & h | [ [ _ Q Q Q Q Q W E R R E W ~ / / ~ ~ ~ E V j r f f f f f f f f d d d d d d d f j V Z ",
"R R R R R R R R R k f f s - X O & 5 p d j k k V Z E W ~ / ` ` ` ` ` ` ` ` %.-.:.Q.V.p.i.i.i.:.:.-.` ` ` ` ( / / / / / / ` ` ' | 6.6.6.6.6.6.6.6.} _ R k d 5 & & = = & h } [ [ Q Q Q Q Q W E E Z R R E ~ ~ ~ ~ ~ ~ Z V V j f f f f f f f d d d d d d d f f k Z Z ",
"R R R R R R R R R k j f s - X O & 5 p d j j j V Z E E ~ / / ` ` ` ` ` ` ` %.;.i.p.a.i.i.i.i.:.:.%.` ( ( / / / / / / / / / ` } | 6.6.6.6.6.6.6.} [ { R d a ; o & = = & s [ [ _ Q Q Q Q W W E Z Z Z Z R W ~ ~ ~ W E Z V V j f f f f f f f d d d d d d d f f j V Z ",
"E R R R R R R R Z k j f s - X O * 5 0 s f j j V Z Z E W ~ / / ( ` ` ` ` ` ' -.5.i.i.i.i.i.i.:.-.#.( / / / / / / / / / / ( ` } } | | | 6.6.6.| [ ! W Q R d 5 & & = = & p [ [ _ Q Q Q W W E R Z Z Z Z R R E E Z R Z Z V j f f f f f f j j j f d d d d f f f j k V ",
"R R R R R R R R R k k j s - X O # 1 0 s f j j k Z Z E W ~ / / / ( ` ` ` ` ` =.:.i.i.i.i.i.:.:.%.` ( / / / / / / / / / / ` ` } } } } } | | | } [ Q R R k h p = o & = & p [ [ Q Q Q Q W W E Z Z Z Z Z Z Z Z Z Z R R V V j f f f f f j j j j f f d d d f f d f j k ",
"k R R R R R R R k k k k s - X X - 5 0 s f j k j k Z Z E W ~ ~ / / ( ` ` ` ` ` -.:.i.i.1.:.:.%.` ` / ~ ~ / / / / / / / ` ` ` ` _ [ [ [ } } } } _ Q R R k d p ; o & = = 5 Q _ Q Q Q W Q W E Z Z Z Z Z Z Z Z V V Z Z V V j f f f f j j j j j j f f d d d d d d f j ",
"f j k k k k k k k k k k d - @ @ 7 6 p s d j j j j k V Z E J ~ ~ / / ( ` ` ` %.;.:.:.:.:.-.%.` ` ( ~ ~ ~ ~ ~ / / ~ ~ _ _ _ _ _ [ [ [ [ [ [ [ [ Q W R R k h p 5 o o & = ; W Q Q Q W W W W E Z Z Z Z V V V V V V V V V V j j f f f j j j j j j f f d d d d d d d d ",
"s d f j j k k j j j j k d - @ @ 7 0 p p d f j k j k k V Z E A W ~ / / / ( / U.d.%.-.-.%.%.` ( ( / ~ ~ W ~ ~ ~ ~ ~ ~ ~ ~ ~ ~ ) _ _ _ ! ! ! _ ! Q W R k k h p 5 & o & & ; R Q W Q W W W E R Z Z Z V V V V V V V V V V V j j f f f j j j j j f f d d d d d s s s s ",
"0 s d f j j j j d d d j s * + @ 7 p p p d f j k k k k k V V Z Z J ~ ~ / / / ;.;.` ` ` ` / / / ~ ~ ~ J J ~ ~ ~ ~ ~ ~ ~ ~ ~ ~ ) Q Q Q Q Q Q Q Q Q R k k k h p 5 & o o & - V W W W W W E E Z Z Z V V V V j V V V V V V V j f f f f f j j j f f f d f d d s s s p 0 ",
"0 0 s d f j j g d d d j s * X @ 3 p p p d d j k k k k k k k k V Z J P ~ ~ / ~ ( ` ` / ( ~ P P J J J J P ~ ~ ~ ~ ) ) ~ ~ ) ~ Q Q Q Q Q Q Q Q Q R k  .R k s a 5 & o o & = j E E E W E E R Z Z V V V j j j j j j j V j j j f f f f f f j j f d f f d d s s p 0 6 5 ",
"5 6 0 s d f j j h d d j s * X @ 5 p p p s d f j k k k k k k j j j Z A J J ~ ~ ~ / ( / / ~ A Z Z Z Z J J ~ ~ ~ ~ ~ ~ ~ ) ) ~ Q Q Q W Q W Q [ ! W [ Q  .d p a 9 & X o o & s Z Z R E E R R Z V V j j f f f f f f f j j j j f f f f f f f f f f d d d s s p 0 6 5 5 ",
"5 5 0 p d d d d f f d f p * X # 5 p p p s d f j k j j j j k j f f j V A A Z J ~ ~ ~ / ~ P J Z Z Z Z J J ~ ~ ~ ) ~ ~ ~ ) ~ ~ Q Q Q W W Q Q [ | 6.0.Q j d p a 9 & X o o & p Z Z Z Z Z Z V V V j j f f f f f f f f f j j f f f f f f f f f f f d d s s s 0 0 6 5 5 ",
"5 5 5 0 0 s s 0 p 0 5 0 p # X # 1 5 p p s d d f j j j k j k j f f f j V V f r A J ~ P P J A Z Z Z J ~ ~ ~ ~ ~ ) ~ ~ ~ ) ~ ~ ) Q W R R W Q Q { { ! R k h d p 5 & X o o & d d j Z Z V j j f j f f d d d d d d f f f j j f f f f f f f f f f d d s s s p 0 0 6 5 5 ",
"5 5 5 5 5 0 0 5 - * @ # - + X + @ # - 3 6 0 s s d d d d d d r r r r d d d d 3 f Z A A Z Z Z Z Z A J ~ ~ ~ ~ ~ ~ ~ ~ ~ ) ) ~ ) Q W R R R R R R R R k k d d 9 - o X X o - p 0 p d f d d s s d d s s s s s s s f f f j f f f f f f f f f f f d s s s p 0 0 0 5 5 5 ",
"* * - - - - - # + X X X + X . . . + + @ # # - - 1 1 1 1 - - - 1 - 1 1 1 1 1 1 3 6 6 6 6 6 6 0 0 w r y y d f j V Z V V Z Z R R R R R  . .R R R R R k h d p 7 & X X X o - 0 0 0 0 0 p s p 0 0 0 0 0 0 p p s s d d d d d d d d r 0 6 6 6 6 6 6 5 3 1 1 - - - - - - ",
"@ @ @ @ @ @ @ + X $ + $ X X . . . + + @ @ @ # # # # # > > > > > > > > > > % % % # # > w z u m B N N B N m m m N N Z W Z d 1 1 3 3 7 7 7 - - - ; ; ; - ; ; & & X X X X o & - 3 1 1 1 - - * * * # * - - - 1 1 1 1 1 1 1 1 1 - # @ @ @ + + + + @ @ @ @ @ @ @ @ @ + ",
"u z z z z v v v v b v v v v v v b n b v v v b n v > 4 o.O.O.O.O.<.<.<.x.<.O.O.o.i z X.z.&X:X,X9X9X0X0X0X9X9X0XhXzXvXvXhXh.5 K l.t.&.@.%.Y f 6 6 3 3 3 1 - - - 1 - - - - - - # # # # # - 1 1 1 1 - X + @ % 2 2 2 2 2 4 6 6 4 4 3 1 @ + + + @ y M m m M u u u u u ",
"X.o.O.O.<.x.x.j.z.j.j.x.9.O.x.x.j.z.j.j.j.j.c.F.z.w 4 z.+X+X+X+X+X+X#X<X#XoX@X@Xb X.j.@X9X0X0X0XwXqXqXgXqX0XgXxXvXvXmXcX`.f @.+X6X<X9X4X%XG.B.n.e.e.e.e.1.1.w.e.e.e.r.p.n.a.*.....,.k.r.>.o.X.L F 8 2 M I ..&.*.,.r.a.M.n.N.C.V.a.J 1 + + + r B I I I I Y @.Y Y ",
"<.<.x.B.F.@X+X&X&X+X@XF.F.F.@X+X<X<X#X#X#X#X:X9XD.c 2 z.7X<X<X<X>X<X<X7X<X>X&X@Xv b v.+X,X%X].%X%X{.-X2X-X2X2X8X8XaXhXxX`.f f D r.OXwXwX4X*X'.`./.G.G.C.C.C.Z.G.G.G.G.'.].].`.m.m.F.+XOXm.t.<.>.o.L e L ,.p.C.G.`.'.[.{.-X1X1X-X'.V.%.j # + 0 u m N N N J a.V.r.",
"r.r.r.l.B.F.OX%XOXOXL.F.L.OX&X<X7X7X7X7X7X<X<X4XS.S w l.&XD.H.+X&X>X,X<X,X+Xc.c.v T O.OXK.C.G.H.K.{.-X-X-X-X-X2X8X8XsXhX`.N d f m I W.Q.W.E.d.f.M.M.f.f.f.f.f.a.a.p.p.V.V.V.Z.C.C.S.S.S.l.r.t.t.2.S 8 z ,.G.-X3X3X3X3X8XaXaXsXaX8X1XQ.1.r + 0 f m m m m m N %.V.",
"I I I I Y &.*.,.,.,.,.,.,.1.r.C.D.G.D.D.H.K.D.C.C...i x.D.D.S.S.S.D.OX%X$XD.c.c.b < +.S.K.S.B.S.K.].{.{.|.-X-X2X2X8XaXhX1XB r f j K 5.7.7.5.5.7.5.5.5.5.5.5.5.5.5.%.( ` ( ` %.-.-.-.-.-.-.-.%.....v 8 e B Q.aXaXaXaXaXpXaXsXsXsXsXaX3X}.Z @ 0 m m m m m m m m ( ",
"@.K K K I ( %.&.&.&.&.&.&.&.*.r.n.m.m.n.m.B.B.C.J.&.z k.H.H.D.S.D.H.OX$X$XK.H.H.S < X.S.D.D.B.S.K.].].].].{.|.-X2X8XaXhXaX/ r d f K ;.5.y.y.y.5.5.5.5.5.5.5.;.;.;.;.=.] ] ] %.%.%.%.%.%.%.%.] @.Y v w B B -.`.Z.h.a.a.a.a.h.V.Z.Z.A.V.a.( # 0 m m m m m m m N B ",
"Y K K K K Y @.%.%.%.....@.%.&.r.n.m.m.n.m.m.B.C.'.n.v B.H.H.H.D.D.H.OX$X&X$X%X$XS v x.S.D.D.D.D.L.'.].].].{.{.-X2X8XaXhXdX-.t y f P 5.5.y.y.5.5.5.5.5.5.4.;.;.;.;.;.;.;.%.%.` ] ] ` ` %.] %.] :...M t K P %.g.e.q.:.:.q.q.i.g.g.g.q.q.q.%.3 6 j m m m m m m m N ",
"A B K K K I Y ....Y Y Y Y @.&.,.a.l.n.n.n.m.B.C.K./...D.H.H.H.D.H.OX$X&X&X&X&X%XF <.c.S.D.D.D.D.K.'.].].].].{.|.2X8XaXsXdXe.u r f ` 5.y.y.y.5.5.5.5.5.;.;.;.;.;.;.;.;.;.=.] ` ` ` ` ` ` ` ] %.e.,.L i K I :.q.q.:.:.:.:.q.i.g.g.e.q.q.:.-.r 3 j m m m m m m N B ",
"B B K K K K I I Y Y Y Y Y @.&.,.r.r.n.n.n.m.B.S.H.H.B.H.H.H.D.D.H.OX&X&X>X>X>X$Xk.D.D.D.D.D.D.L.K.].].].].].{.-X2X3X8XaXsXg.u r f ` 5.5.5.7.5.;.;.;.;.;.;.' =.;.;.;.' ' %.` ` ` ` ` ( / / ( ` :.a.*.i B ( q.q.:.:.-.:.:.q.g.g.e.q.:.-.-.%.f 1 f m m m m m m N B ",
"A B K K K K I I ......Y Y @.&.,.,.r.r.l.n.m.B.J.H.H.H.H.H.H.$XH.H.OX$X&X>X>X>X&XOXH.H.D.D.D.H.K.%X%X%X].].].{.-X2X2X8X8XaXg.m w f ( 5.5.5.5.;.;.=.' ' ' ' ' ' ' ' ' ' ` ` ` ` ( ` ( / / / / / ` :.a.Y c ( :.:.:.-.-.:.:.e.i.q.q.:.-.-.d.` d - f m m m m m m N B ",
"B B A B K K I I Y Y Y ..Y @.&.*.,.1.r.r.l.m.m.C.D.H.H.H.H.H.D.D.H.OX$X&X&X>X>X>X&XOXOXH.H.D.H.K.%X%X%X].].{.|.-X2X2X2X3XpXg.j 0 d ~ ;.4.;.;.;.;.' ` ` ` ` ` ` ` ` ` ` ( ( ( ( / / ( / / / / / ( ( %.e.K ( :.:.%.%.-.-.:.:.:.:.:.-.] -.:.P y * f m m m m m m N B ",
"A A A B K K I I ( ( Y Y Y @.&.&.*.,.1.r.r.n.m.B.S.D.H.H.H.D.S.H.H.OX$X$X&X&X>X>X&X$XOXH.H.H.K.$X%X%X%X].{.{.-X2X2X2X2X2X3Xg.u 4 y A ;.;.;.;.;.' ` ( ( ( / ( ( ( ( / / / / / / / / / / / / / / ( ( ( 1.%.%.-.-.-.%.%.-.:.:.:.:.:.%./ P P A 0 # j m N N m m m N B ",
"B B B K K K I I ( @.@.@.@.%.%.&.*.,.1.,.r.r.r.m.C.S.D.H.H.D.S.D.H.H.OX$X$X&X&X&X&XOXOXH.H.H.K.%X%X%X%X%X-X-X2X2X2X2X2X2X2Xi.f 2 y A ' ;.=.' ' ` ( / / / / / / / / / ~ / / / / / / / / / ( / ( #.( ( -.-.-.-.%.%.=.-.%.-.-.-.-.%.` Y I I B r # j N B B N N B B B ",
"B A B K K I I ( ( @.%.@.%.%.%.&.*.,.,.1.e.,.>.m.S.S.S.D.D.B.B.S.H.H.OXOX$X$X@X@XOXOXK.H.H.H.K.%X:X;X;X;X;X-X2X2X2X2X3X2X|.e.m 2 y Z ` ' ' ' ` / / ~ / / / ~ ~ ~ ~ ~ ~ ~ / / / / / / / / ( ( %.%.%.%.%.%.-.-.%.%.%.%.%.%.%.%.%.( ( P P P B r @ f N B B B B B B B ",
"B B K K I I / ` #.#.%.%.%.%.%.&.*.*.,.1.1.,.t.m.B.S.S.S.S.m.m.m.S.D.H.K.K.K.H.OXOXOXH.H.H.H.K.%X:X;X;X5X,X2X2X-X{.|.aXdX1X1.m 4 r A ` ` ` ` / ~ ~ ~ ~ P ~ J P P ~ ~ ~ ~ / / / / / / / / ( %.%.%.%.%.%.%.%.%.-.%.-.%.%.%.%.%.%.( / P J J Z 0 @ y B B H H B B B B ",
"A B K I I ( ( #.#.@.%.%.%.#.%.%.&.*.*.,.1.r.b.n.m.B.S.B.m.m.m.m.m.S.D.H.H.H.H.OXOXH.H.H.H.H.K.%X;X5X,X7X7X2X2X|.{.{.3XpX{.:.u 4 r Z ( ( ` ` / ~ P J J J J J J J J J ~ ~ ~ / / / / / / ( %.%.%.%.%.Y ( ( ( %.%.%.%.%.%.%.%.%.` ( / P A A N 6 X 6 B H H H H B B B ",
"A B K I / ( @.%.%.%.%.%.%.%.%.%.%.&.*.:.1.2.k.b.m.B.B.m.m.m.m.m.m.m.B.S.D.H.H.OXK.H.H.H.H.H.K.%X;X7X0X0X9X2X2X|.{.{.{.{.`.&.t 2 w Z / ~ / / ~ P J J J B A B B B J J J J P ~ ~ / / / / %.%.%.%.%.( ( ( @.*.-.( %.%.%.%.%.%.` ( ( I P A B m 5 X 3 B H H H B B B B ",
"B K I I ( #.%.%.%.%.%.%.@.%.%.%.%.&.*.*.,.1.r.k.n.m.m.m.m.m.m.m.m.m.m.m.B.D.H.H.H.H.H.H.H.H.K.%X,XqXgXqX9X2X2X|.{.{.{.{.Z.@.4 1 0 m ~ ~ P J J J A B B B B B B B A B B J J W ~ / / / ( %.%.%.` ( ( / Y -.g.-.( %.%.%.%.%.( / Y P P J A B j 3 X 3 B H H H B B B B ",
"B K I I ( #.%.@.#.%.%.@.Y Y Y @.%.%.*.,.,.1.1.r.k.m.m.m.m.m.b.b.b.b.b.b.n.m.S.D.D.D.D.H.H.H.H.$X5XgXgX9X2X-X|.{.{.{.{.`.V.I 1 1 0 j J J J B A B Z N Z N Z Z N N Z Z B B J J ~ ~ / / ( ` ( ( Y ( Y U U U Y Y ( ` %.%.%.( / I I K P J Z B f - X 3 N H H B B B B B ",
"B K I ( #.%.%.%.Y @.@.Y Y Y Y Y #.%.%.*.*.,.,.1.r.n.m.m.n.b.b.k.b.k.k.k.k.b.m.m.B.B.B.S.S.S.S.S.%X0X5X{.[.{.{.{.{.{.`.`.g.M # 1 4 f Z Z B B N Z Z N Z Z Z N N N Z Z Z B B B J ~ P U Y / Y Y Y ( Y U U U U U / ( ( ( %.` / P K J J A B B f - X 3 m B B B B B B B ",
"B K ^ #.=.=.=.%.B K Y I K K Y Y Y Y @.%.*.*.,.,.,.k.n.n.b.b.k.r.r.k.r.t.<.2.k.n.b.n.m.m.m.n.k.n.m.`.`.Z.Z.Z.`.`.`.`.`.V.%.t @ 1 4 u m m N N N N N N N N N N N N N N Z Z N B B J P I U U U U U Y U U U U I U U Y Y ( %.%.` P P B B N N N d - X 3 m B B B B B B B ",
"B K #.-.=.-.=.%.M c Y K D D D I Y Y Y @.%.&.&.*.,.2.k.k.b.b.r.r.2.2.<.>.>.>.<.t.t.t.r.k.k.k.2.r.L *.V.a.a.a.a.V.V.Z.Z.i.m 1 @ > 4 y j j j j j j j j m N N N N N N N m m V Z Z A J P P U U U U U U U U P J P U U Y %.%.%.%./ P A N B N j s & X - f N N N N N B B ",
"Z D / #.( P P P t 4 B S K K D D K K K Y @.&.&.&.&.,.,.r.r.2.2.,.,.>.>.$.$.&.>.>.>.>.,.,.<.,.>.L 8 S a.a.a.g.g.a.a.a.V./ > @ @ % 4 0 r r r d y y d d d j m m m m j j f f f f j m N A B J J J J J J B B B B A J P U ( -.-.-.%.P B B B N m 5 X X * 0 j f f f j m N ",
"1 1 1 1 1 # # 1 # @ 1 t G M C C C B B B S K I Y @.%.*.&.M v ....o.$...........&.$.$.>.>.>.>.v > : 8 %.:.-.-.-.:.:.e.-.4 @ @ @ # # # # # # # # # % - 1 1 3 4 4 4 2 1 1 1 1 2 3 4 6 4 0 0 6 2 2 2 1 1 1 % 1 1 1 6 u m N Z A N m f y r 6 3 X X X X @ - - 1 1 3 3 1 ",
"1 @ + + @ @ @ @ @ @ @ @ @ # % > > > 1 1 1 2 4 w w t t 4 : : > , 2 8 4 4 8 8 8 8 e e t t z t > : : : 2 4 4 4 4 4 4 4 > @ @ @ @ @ @ @ @ @ @ @ @ @ @ @ @ @ # # # @ + + + + + @ # # # # # # # @ @ @ # > > % % % # # # # % 1 6 4 4 w 0 0 6 6 6 3 1 - - - 1 1 1 1 1 5 ",
"iXE.~ 1 @ @ @ @ @ @ # > , > > # # # # # # # # # # # # # : > > : : : : : : : , > > > > > > 2 8 4 8 w e e w w 8 8 8 e i z c z t e w 4 2 1 > # @ @ @ 4 z z c M M Y ..t # # 4 z S L L ......L L S e , v X.o.<.t.k.k.k.B.L.%X:X:X:X,X0XaXaXaX0X5X;X-X-X3X3X3X3XiXiXfX",
"vXzXsXW.6 @ @ @ @ # , w n X.X.X.n n n b b b n n n n n n n n n b x x x , : ..v.v.D.F.F.D.D.&X,X&X>X0X0X<X+Xv.v.v.v.F.@X@X@Xv.x.o.o.X.L S S M z 1 > z <.l.F.&X0XeX5XK 4 c S X.>.t.k.l.l.l.k.2.o.z , z x.+X:X,X7X7X7X7X7XwXeXrXrXlXcXcXcXxXxXxXxXxXvXnXnXnXnXnXnXmX",
"mXvXhX3XN + @ @ @ > , , z O.j.j.j.x.O.O.x.j.j.j.j.j.j.j.j.x.x.9.O.O.O.x : L 7XeXeXrXrXrXrXjXlXlXlXcXcXcXlXjXeXeXeXeXeXeXwX<X+XL.H.L.S.x.r.m.n.1.c 8 S OXqXkXcXkX[.%.t i L o.,.r.l.l.l.k.r.,.X.z , w r.K.B.B.C.S.S.C.C.H.%X'.{.3XpX3X1X X X X.X1XyXyXfXzXzXmXnXnX",
"vXmXvXpXN + @ @ @ , 8 w z L F.@X@XoXF.oX@X+X+X+X@XF.D.D.D.D.D.D.S.S.c.z # , 5.dXsX4X<X<X7XwXeXeXgXhXhXkXlXlXkXxXcXcXcXxXgX;X%X%X%X*X5XJ.C.G.C.r.S 8 e n.3XaXgXsXZ.,.m 4 G B P -.2.r.r.r.r.>.o.v , i ..>.,.2.p.n.B.B.B.B.B.V.U.f.f.f.f.d.d.d.d.f.d.f.E.}. X XyXiX",
"bXmXvXpX~ @ @ @ # 8 w i z b O.v.c.c.c.v.D.F.F.F.D.z.l.z.B.B.B.B.z.l.r.8 : , 4 -.C.B.n.n.m.S.%X;X4X4X4X4X9X0X0XqXwXgXgX9X[./.C.b.r.1.r.r.b.n.n.p.K 8 w 1.G.'.[.*XZ.r.K 4 u N I -.1.1.r.r.r.,.>.S 8 v o.>.2.2.r.n.n.n.m.m.n.M.f.f.d.d.d.d.d.s.s.s.d.d.d.E.~.~.~.XX",
"bXzXdXiX;.# @ @ , e i z z b X.>.t.l.x.x.z.S.B.l.r.,.<.t.l.l.l.l.r.,.%.4 : 2 4 F n.n.l.k.k.m.K.%X=X;X4X4X4X9X4X4X4X9X9X;X(.C.n.p.1.1.1.1.r.n.n.C.@.8 z n./.[.[.{./.r.I 4 t B #.,.1.1.2.r.r.2.,...z L >.,.2.2.r.b.n.n.n.n.n.a.d.s.s.s.s.i.d.i.d.s.d.d.f.E.~.~.~.^.",
" XfXdX3X4.# @ # , i z z z b X.>.z.B.B.B.B.S.D.S.z.k.k.l.l.l.l.l.r.,.Y 2 : 2 4 L k.k.k.k.l.m.H.K.$X=X;X4X4X4X4X4X4X4X5X*X/.m.b.r.1.1.1.1.r.n.m.C.,.8 S Z.'.[.[.[.[.p.@.4 w A @.,.1.1.r.r.r.2.,.&.S o.>.,.2.2.r.r.n.n.n.n.n.p.d.i.i.y.i.i.y.5.i.d.d.d.f.E.~.~.~.~.",
"^.iXhX.X;.# @ > 8 i z z z L o.x.z.m.B.B.S.D.F.F.B.l.l.l.l.l.l.l.r.,.S > : 2 4 S k.k.k.k.b.B.D.H.OX&X;X4X4X4X4X4X4X;X*X'.Z.n.p.p.2.1.1.1.p.n.B.C.M.z *./.[.[.[.[.{.p.@.w 8 A @.-.1.1.1.r.r.2.2.>...>.>.,.2.2.r.r.p.n.n.n.a.p.s.5.5.5.5.5.5.5.y.s.d.d.f.E.!.~.~.~.",
")..XbX X=.# @ > 8 z z z z o.r.l.l.l.z.B.S.F.F.F.S.l.l.l.l.l.l.k.w.w...2 : 2 8 S k.k.l.n.m.B.B.B.K.=X;X,X4X,X;X,X;X*X'./.C.n.p.r.r.r.2.r.r.n.C.C.C.,.n./.[.[.[.[.[.n.@.w 4 B @.-.:.1.1.1.r.2.2.2.,.,.,.>.2.2.r.r.r.n.n.n.p.p.i.5.:.:.:.5.5.8.5.y.s.d.f.E.E.~.~.~.",
")..XfXXX=.# @ > w z z z z ..r.r.l.l.l.B.S.F.F.D.B.l.l.a.r.r.r.r.w.w.%.4 : 2 8 S k.k.k.m.B.B.C.D.OX&X=X;X=X=X;X4X=X[./.G.C.b.p.r.r.r.p.r.r.n.C.C.C.C.C./.[.[.[.[.[.n.Y 0 2 N @.-.-.-.1.1.2.2.r.r.2.2.2.2.2.2.2.r.r.r.n.n.p.p.i.:.:.:.:.:.5.5.5.5.i.d.f.f.R.!.~.~.",
").tXpX^.' # @ > w z z z z L w.r.l.l.z.z.S.D.D.C.l.l.r.r.r.w.w.w.,.,...1 : 2 w S k.l.k.m.S.S.H.K.$X$X%X%X%X;X,X;X*X'./.G.C.b.p.p.2.2.p.r.r.n.C.C.C.C.G./.[.[.[.'.(.M.D 1 1 f #.-.-.-.-.,.1.1.2.r.r.2.r.r.r.2.r.k.b.r.p.p.p.p.1.1.:.:.:.:.5.:.:.5.8.i.d.f.f.E.!.~.",
"T..X.XE.` # @ # 8 i z z z L ,.t.l.l.l.m.B.S.B.m.l.l.t.r.w.,.,.,.*.*.Y > # 2 e S r.n.m.m.S.H.K.OX$X$X$X&X,X4X;X=X*X'./.G.B.b.p.r.p.r.2.2.r.b.m.C.C.Z./.(.[.[.[.(./.1.w # > t ( %.-.-.-.-.-.1.1.r.r.r.b.b.b.b.b.b.b.b.b.p.p.p.1.1.:.-.-.:.:.:.:.:.5.y.i.d.d.R.E.E.",
"T. X^.E.` # # 1 > , 8 e i S ,.r.r.l.l.l.z.m.z.l.k.r.a.t.w.*.*.*.*.*.Y % # > e S k.B.B.B.D.K.K.$X$X$X$X;X;X;X;X=X*X'./.Z.n.p.r.r.r.r.p.r.p.n.n.C.C.G././.'.[.(.(.C.f # # # t @.@.@.#.@.@.-.-.1.2.r.b.b.b.b.b.b.b.b.n.b.b.b.p.p.1.1.:.=.-.-.-.:.:.:.7.5.i.d.d.E.E.",
"!.iX}.f.( # # z X.z 8 , 8 L &.,.r.t.l.l.l.l.l.l.r.r.r.w.w.*.*.*.*.*.I # # > w v k.D.D.H.K.K.OX$X$X&X=X=X=X=X*X*X[.'./.C.n.r.r.p.2.2.p.r.b.n.n.m.C.Z././.(.(./.[./...2 # > u ( @.@.#.#.#.@.-.-.1.r.b.n.m.n.n.m.n.m.n.n.n.b.b.p.e.1.:.-.=.%.=.-.:.:.:.5.5.y.d.d.R.",
"U. XiXU.~ # # 4 ,.F.<.F i i v K &.t.r.r.r.l.r.r.r.r.t.w.,.*.*.*.*.*.u + # # 8 v r.D.H.K.OX$X%X=X=X=X=X=X=X=X*X*X*X'.G.n.n.p.r.r.r.r.2.r.p.n.n.m.m.C././././././.[.,.u # > t ^ @.@.@.@.@.@.@.-.1.r.b.n.n.n.n.m.B.m.B.m.n.n.b.p.p.1.:.-.=.=.%.=.=.-.:.:.:.5.y.d.d.",
"u.I..XE.A @ # 3 P @XH.F.x.X.b z K ,.w.w.w.r.r.r.r.r.r.w.,.*.*.*.*.%.1 + @ # 4 z &.D.H.%XOX%X=X=X=X=X=X=X*X*X*X*X*X`.N.n.n.b.p.r.r.2.1.1.p.n.n.m.m.B.C./././.C.B.J./.^ > % r I #.@.#.@.@.@.@.-.-.1.b.b.n.n.m.m.B.B.G.G.n.n.b.p.p.1.:.-.=.%.%.%.%.%.-.-.:.:.5.5.y.",
"5.7.I.d.N @ - 1 B l.r.B.@Xv.z.c.z.l.r.w.w.w.r.r.r.w.,.w.*.*.*.*.*.Y # + @ # 2 z ..S.F.K.K.$X=X=X=X=X=X*X*X*X*X*X*X/.W.M.M.n.b.p.1.1.1.1.r.M.m.m.m.m.m.m.C.C.B.m.n.Z.M.w # w P ( @.@.@.@.#.@.#.-.1.r.b.b.n.n.B.B.m.S.'.B.J.C.p.p.1.:.=.%.` ` ` ` ` ` %.-.-.:.:.5.",
"5.5.5.;.m @ 1 3 N ,.,.t.m.OX+X+XF.z.x.w.w.w.w.w.w.w.w.w.,.*.*.*.*.Y # + @ # 1 e S m.D.H.H.OX$X&X=X=X*X*X*X*X*X*X[.`.Q.W.n.n.p.2.1.1.1.1.r.b.n.m.m.N.m.m.n.n.n.n.p.p./.~ # 4 D ^ ^ ^ ^ ^ ( @.@.-.1.r.b.b.b.b.n.m.m.S.H.$X9X*X1.e.1.:.%.` ` ` ` ` ` ` ` %.%.=.-.:.",
"` ` %.%.f @ 1 4 m &.,.,.r.l.K.F.c.l.r.w.w.,.,.,.w.w.w.w.,.*.*.*.*.Y 2 . + # > w v r.S.S.S.H.'.[.[.*X*X[.[.[.*X*X[.[./.Q.V.n.b.2.1.1.1.1.2.2.r.n.m.N.m.n.n.p.p.b.p.p.M.:.# 4 D ^ ^ ^ ^ ^ ^ ^ @.-.,.1.r.r.r.r.r.b.B.H.=X9X;XM.-.1.1.-.( ^ ^ ( ( ( ( ` ` ` ` ` ` #.",
"~ ~ / ( s + 1 6 m %.&.>.,.,.t.x.x.k.r.w.w.,.>.,.w.w.,.,.*.*.*.&...Y t . $ # : 8 v 2.m.l.m.G./.`.`.`.`.`.'.[.'.'.[.[.}./.Q.M.M.p.1.1.1.1.,.,.2.b.m.m.m.n.p.p.p.p.p.p.p.-.1 4 C P I I I I ^ ^ ^ @.-.-.-.-.,.1.2.k.B.H.%XC.-.@.@.-.-.( P D P ~ ~ ~ ~ ( ` ` ` ` ` ` ",
"~ W W ~ r + 1 0 B &.%.o.*.,.,.r.k.k.r.w.,.,.,.,.w.,.&.@.&.&.&.%.Y Y u + . @ # 4 z ,.l.x.m.C.G.G.G.G.G.G.`.`.`.'.-X-X[.`.Q.M.b.r.1.1.1.1.:.-.-.1.p.n.p.r.1.8.8.8.1.1.1.#.1 4 G A D P I I I I ^ ^ @.@.@.@.-.,.1.1.1.r.1.-.#.@.( ( @.^ D D B D D D ~ ~ / ( ` ` ( ( ",
"J Z Z A 0 + # w :.e.%.%.%.&.&.,.r.k.t.w.,.,.w.w.w.*.M t M Y ..Y Y Y G + . # # 1 z >.m.m.m.m.B.C.B.B.J.G.G./.`.;X-X[.[./.W.M.b.2.1.1.1.,.-.-.-.-.-.1.,.-.-.-.-.-.-.-.:.=.1 1 f m D D P I I I I I ^ I I @.@.-.-.&.%.-.#.#.( ^ ^ P P P m Z Z C Z B D ~ ~ ~ / ~ ~ ~ ",
"E W A ~ 0 + # 4 :.a.%.%.o.o.%.&.,.2.,.,.,.,.w.w.,.c 2 4 w m I I I B u + . @ # > t o.m.m.l.l.l.m.m.m.m.B.G.G.*XV.K =.M.p.:.&.@.I D D D A C C N C B D A Z Z Z Z A Z B A A 3 1 w u C D D I I I I I I I I ^ #.@.@.@.@.@.#.@.^ ^ P D D m 4 y V N C C A D P ~ ~ ~ ~ D ",
"V j y j 3 X + 1 %.e.*.1.%.Y I I I ......Y I K S z > > > 4 w m B u 4 w # . @ # # 2 L l.m.l.r.r.r.l.l.n.B.B.G.1.4 4 u G u t t w w 4 4 4 4 4 4 4 4 4 4 w w r w w w w w w r 1 # 1 4 4 u m C A A B A A A B B A D I P P P P D D D C G w - # 1 r d d f m m N Z Z Z Z Z ",
"- # @ X X X + 1 f M u u w 4 4 4 4 4 8 8 8 4 4 2 # @ # @ # 2 q w 1 > 1 # . @ @ # # 4 z z u u u u u c M M c c 4 # 1 4 4 4 4 4 4 2 2 1 1 1 % 1 1 1 1 > 1 4 2 1 1 1 1 1 4 4 - # # # % 1 1 1 1 1 1 1 1 1 1 1 1 1 2 1 1 1 1 1 1 1 1 # # @ @ @ # # # - 1 1 1 1 1 1 1 1 ",
"X X X X X X X # 1 1 1 1 1 1 1 - % # # # # % % # @ @ @ @ @ # > % % # # + . . + @ @ @ # # # @ @ @ @ # % 1 1 2 > @ # # # % - % # # # # @ @ + + + + + + @ @ + + + + + + + @ @ + # 1 1 1 1 2 2 1 1 2 4 4 4 4 2 > # # # # # # # # # # % % # @ @ # - 1 1 1 1 1 1 > % # ",
"j u 0 - - - - 1 1 1 3 6 4 4 4 4 w t t u z M M M B D t @ @ @ # # # % # # + $ + + + @ + + + + + @ @ # # % > > > # # 1 4 4 2 4 2 2 1 1 2 2 1 1 2 4 u z z M M m 4 % 1 t M C A D I *.2.M.n.C.C.J.H.H.OXOXOXH.H.S.z.m.B.].%X].OX@XOXOXOXOX,.1 4 P @.%.( Y P P I P K D ",
"5.-.%.~ ^ / / / / &.e.1.:.:.:.:.e.n.n.a.a.a.n.C.C.Z.V.N # 6 y m B B K K B B M m u t t t 2 , e z z v F X.X.X.X.X.o.<.t.t...&.*.,.,.,.,.2.2.2.2.r.m.G.'.%X%X%XC.I M C &.r.b.C.Z./.(.(.'.&X&X&X<X<X<X6X7X7XwXwXwX<XeXlXjXjXjXlXrXrXrXrXm.f 3 I r.i.1.:.:.1.e.i.e.1.",
"s.i.5.5.5.5.;.=.p.N.n.e.e.e.e.g.V.`.'.`./.`.[.*X1X1X[.8.1 0 B %.&.&.&.:.1.1.1.:.&.@.%.&.Y t v X.o.O.<.<.t.l.z.z.z.S.D.S.t.r.C.C.C.C.C.V.C.C.V.n.Z.`.`.[.5X9X9X{.5.2 G M.'.[.[.'./.Q./.'.K.H.OX$X%X&X>X<XwXeXeX9XjX9X%X'.G.-XeXeXrX*X#.t 1 0 -.V.n.n.p.p.a.a.a.p.",
"` / J P / / ~ J :.:.' ~ ` %.` ( ' i.f.f.f.V.W.[.1X3X[.:.6 0 Z @.&.*.:.p.p.p.p.p.i.1.e.i.:.K e o.z.w.,.,.w.l.z.B.B.B.G.G.C.C.'.C.n.a.i.i.i.i.i.5.5.5.5.5.d.E.iX/.#.4 w %.i.p.a.p.i.:.-.-.-.-.,.,.1.1.p.B.H.=X:X%XH.n.p.1.:.-.a./.W._.~ w 1 3 f M.W.i.;.%.%.;.%.` ",
"~ ~ W ~ / / / A / ` A Z Z Z Z E ~ _ _ ` ` _ _ ' d.Q.E.~ 4 s V V Z / %.%.' %.%.%.-.:.:.:.=.%.S &.n.,.,.,.*.:.1.n.A.N.N.n.a.V.V.a.i.i.i.i.i.y.5.5.5.5.5.5.i.s.E.}.p.u u ^ =.:.:.-.#.` ` ( ` =.-.-.-.:.1.r.b.C./.M.r.1.1.:.-.%.-.1.p._.( w 1 3 w %.:.%.` ` ` ( / / ",
"~ ~ / / / ' %.~ ~ ~ Z Z V j V E Q ~ ) _ ` ~ W W _ u.d.Z 3 s j g g Z W W ~ ~ / / / ( ` %.` -.Z.N.1.:.:.:.:.:.:.a.N.N.n.a.a.a.a.a.i.i.i.i.i.i.5.5.7.5.5.5.5.y.s.E.Q.^ D ` =.-.=.` ( ( ( ( ( ` %.-.-.-.,.1.p.p.M.p.,.,.:.-.%.` =.1.8.f.=.t 1 4 w ~ =.` ` ` ( / / / ",
"~ ~ / / / ` 4.3./ W E Z j j V W W ~ Q ) ` _ W W W ` u.W 6 d j j j Z E E ~ ~ ~ / / / ` %.%.%.A.e.:.5.:.:.:.:.:.g.a.n.a.a.a.a.a.a.a.i.i.i.i.i.5.5.5.5.5.5.5.5.5.s.Q.5.` ' %.=.` ` ( ` ( ( ( ( ( #.-.-.-.,.1.1.1.1.-.-.-.@.` ` %.1.8.i.#.w 1 4 w ~ %.` ` ( / / / / ",
"~ ~ / / / / ` 3.` W E V j j Z W W ~ ~ ~ / _ W W W W ` E 5 d j V V E E E ~ ~ ~ ~ ~ ~ / ( ` %.:.:.:.:.:.;.-.-.;.5.i.i.p.a.a.a.a.a.a.p.i.i.i.y.5.5.5.5.:.:.:.:.:.:.s.5.' ' ' %.` ( ( ( ` ` ( / ` ` ` #.=.-.:.1.,.-.-.-.-.` ( ` #.-.1.8.^ 6 1 3 w A ` ` ` / / / / / ",
"~ ~ / / / / / / ~ W Z V j V E W Q ~ ~ ~ ~ ~ W W W W ~ R 3 s j V Z R Z E W W ~ ~ ~ ~ ~ / ` %.:.:.:.:.:.%.%.%.=.;.5.5.i.i.a.a.a.a.a.p.i.i.5.5.:.;.-.-.-.-.;.-.%.-.-.=.' ' ' ' ` ( / / / / ^ ~ / ` ` ` ` =.-.-.-.-.%.#.` ( ( ` ` #.-.1.=.4 # 1 0 Z ` ` ` / / / / / ",
"/ / / / / / / / ~ W E E W Z W W W ~ ~ ~ Q W W W W W ~ Z 3 d j V Z Z Z E E E E E E ~ ~ / ` -.:.:.:.:.-.%.` ` ] %.;.:.5.y.s.i.a.a.a.i.i.5.:.;.-.%.' ' %.%.%.' ' ` %.%.' ` / / ( ( ~ ~ ~ ~ ~ ~ ~ / ( ` ( #.-.-.-.#.` ` ` ( ( / / ( ` =.( 3 @ - 6 A ` ` ` / / / / / ",
"/ / / / / / / / ~ W W ' 4.E E W W W W ~ W W E E W W ~ Z 3 d j V Z Z Z Z E E E E E W ~ / ` ;.:.:.:.;.%.` ` ( ` ` %.-.:.:.5.5.y.i.i.y.5.:.-.%.' ' ` ` ( ( ` ` ` / ( ` / ~ ~ ~ ~ ~ ~ ~ W W ~ W ~ ~ / ( ( ( ` #.` ` ` ( / ~ ^ ~ ~ ^ / ( ~ 3 @ - 6 A ` ` / / / / / / ",
"~ ~ / / / / / ~ ~ ~ W W A Z Z Z W W W W W E Z Z Z E W V 3 d V V V Z R E Z E E E E E ~ / %.:.:.;.-.%.` ( / / / / ( ` %.-.:.:.:.5.5.:.:.;.%.' ` ( / ~ ~ / / ( ( ~ ~ ~ ~ ~ ~ ~ ~ ~ ~ W W W W W W ~ ~ ^ ~ ~ / ( ( ( / ~ ~ P D P ~ ^ ~ ~ ~ 3 @ # 4 Z ` ` / / / / / / ",
"~ ~ ~ ~ / / / / ~ ~ ~ W Z Z Z Z W W W W W E A Z Z Z W j - d V V V V Z Z Z Z Z Z E E ~ / =.:.;.%.%.` ( / ~ ~ J P ~ ( ` %.-.-.;.:.:.;.-.%.' ` ( ~ ~ ~ ~ ~ ~ ~ ~ ~ ~ ~ ~ W W ~ W W W W W W W W W W D ~ ~ ~ ~ ~ ^ ~ ~ ~ D D D D D P ~ ^ ^ 6 @ # 4 Z ` ` / / / / / / ",
"~ ~ ~ ~ ~ / ~ ~ ~ ~ ~ W E Z E Z E W W W W E Z Z Z Z W d & s V V V V V Z R R E Z E E ~ ` =.-.-.%.` ( / ~ J J J P ~ / / ` %.%.-.-.-.=.%.' ` ( / ~ P P P P ~ ~ P ~ ~ W W W W W W W W W W W W W W W W D P ~ ~ P P P P D B A Z A A D P ~ / 0 @ # 3 m ` ` / / / / / / ",
"~ ~ ~ ~ ~ W W W W ~ ~ W E Z Z E E E Z Z Z Z Z Z Z Z E s @ s V V V V V V Z Z E Z E W / ] %.-.%.` ( / ~ P J J J P ~ / ( ` ` %.=.=.=.%.' ' ` / ~ ~ J J J J J P J W W W W W E W W W W W W W W W W W W E A P D D D D D B A Z Z Z Z A D P / f @ # 3 m ` ` / / / / / / ",
"~ W W W W W W W W W W W Z f f Z Z Z Z Z Z Z Z Z Z Z E 0 @ p j V V V V V V Z Z Z E ~ / ` ] %.` ( / ~ ~ J J J J J ~ ~ / ` ` %.%.%.%.' ' ` ( / ~ P J J J J J J W W Z Z Z Z Z Z W W Z E W W W W W W Z Z A D D D D A A Z Z Z Z Z Z Z A D ~ N @ # 3 m ` ` / / / / / / ",
"W W W W W W E W W W W E Z y f Z A Z Z Z V V k V Z Z R 6 @ p j j V V V V V V Z E J ~ ( ` ` ( ( / ~ ~ J J A Z Z J J ~ ~ / ( ` ` ` ' ' ` / / / ~ J J J J J A Z Z Z Z Z A Z Z Z Z Z Z Z Z W W W W Z Z Z Z A D D A Z A Z C C C C C Z Z A D N # # 1 m ` ` ( / / / / ~ ",
"W W W W E Z Z Z E W Z E Z j V Z Z Z Z V k j j k Z Z Z 6 @ p g g j V V V V V Z V P ~ ( ( ( / ~ ~ P J J A Z Z Z Z A J ~ ~ / ( ( ` ` ` ` ` / ~ ~ J J J J Z Z Z Z Z Z Z Z Z A Z Z Z Z Z Z Z W W W Z A A Z Z A A Z Z Z C C C C C C C Z A A m # @ 1 j ` ` ` / / / ~ W ",
"W W E Z Z E E Z Z Z A Z Z Z Z Z V V k j j j k V Z Z Z 5 @ 0 g g g j j j j j s 0 J ~ / / / ~ P J J Z Z Z Z Z Z Z Z Z J ~ ~ / / ( ( ` ` ` / ~ ~ J J J J A Z Z Z Z Z Z Z Z Z Z Z Z Z Z Z Z Z E Z Z Z Z Z Z Z Z Z C C C C N m m N C C Z Z m * @ 1 d ` ` ` / / ~ W W ",
"Z Z Z Z Z Z E Z Z Z Z V V V V k j g d f g d j k Z Z Z 5 @ 0 g g g g g g g g 1 - Z J ~ ~ ~ J A Z A Z Z N N m m V N Z A P P ~ ~ / / ( ` ( ~ Z f B J J A Z Z Z Z Z Z Z Z Z Z Z Z Z Z Z Z Z Z Z Z Z Z Z Z N m m m N N N N N m m m N C C Z m # @ - r / / / / / W W W ",
"Z Z Z Z Z Z Z Z Z V k j j j j j d d d d d d d g j k k 5 @ 6 d d d d d d d d * @ r Z J J J Z Z Z Z N N m j j j j m N Z A Z A J P ~ / / ~ P j 1 Z J Z Z Z Z Z V m m m N N V m m m m m m m V Z Z Z Z Z Z m j f f f j m m m m m m m m N C j * @ # 6 P / / / ~ W W W ",
"Z Z Z Z V V V V V k j f g d d d d d d p p s d d f j g 1 @ 5 s s s s s s d s # @ 1 f Z J Z Z Z Z N N j j f d f f f j m N Z Z Z Z J P P J Z f - m Z Z Z Z Z Z Z m m m m m m m j j j j j m m m m V V N m m y d f f f f f f f f m m m m N f # @ # 6 A / / ~ W W E Z ",
"V Z V j j j j j j j g d g d d d d d s p p p p p s d d - @ 1 6 0 0 p s s 0 6 * + - 1 j A A Z Z N N m f f d d d f d f j j m N N Z B J J Z Z s # r j V V V Z Z E W V m m m j j j j j j j j j j j j j m m 6 1 y f f d u d f f f f f f f j d # @ - 4 A / ~ W E Z Z V ",
"j j f d d g d d d d d d d d d d s s p p p p p p p s p & + @ - - 1 1 7 7 7 - @ + + # 3 r r r r r r 0 6 5 6 6 0 0 0 r d d d d d f j m j f r * @ # 3 f f y y d f V f d s 0 0 s d d f f f f f f f f j f 6 @ # r f f u t d d d f f f f f f d - @ - 3 j J W E Z Z V j ",
"d d d d d d d d d d d d d d s p 5 5 5 5 5 5 5 9 5 7 - @ @ + + @ @ @ @ @ @ @ + + + + @ # - - 1 - - - - - - - - - - - - - - - - 1 1 - - # @ @ @ @ # % # # # # # @ # # # @ # # - - 1 1 1 1 1 3 5 0 0 3 @ @ # 0 f f u u u u u u u d f f f 0 # @ # 1 6 f Z Z V k j j "
};
