/* XPM */
static char *texture00[] = {
/* columns rows colors chars-per-pixel */
"128 128 169 2 ",
"   c #22191D",
".  c #291F1E",
"X  c #2E221A",
"o  c #33261C",
"O  c #38271C",
"+  c #36281D",
"@  c #3B2B1E",
"#  c #362A21",
"$  c #3C2D22",
"%  c #3E3026",
"&  c #3E3228",
"*  c #342C31",
"=  c #3A3135",
"-  c #422E1E",
";  c #44301F",
":  c #412F21",
">  c #443325",
",  c #493625",
"<  c #4D3927",
"1  c #443529",
"2  c #483729",
"3  c #46392D",
"4  c #4C3C2C",
"5  c #513E2C",
"6  c #453B31",
"7  c #4C3E31",
"8  c #503F30",
"9  c #55412E",
"0  c #58442F",
"q  c #4E4133",
"w  c #4D423A",
"e  c #544433",
"r  c #5A4632",
"t  c #574837",
"y  c #5B4834",
"u  c #594836",
"i  c #594937",
"p  c #5A4936",
"a  c #5A4937",
"s  c #5C4935",
"d  c #5D4935",
"f  c #5C4834",
"g  c #5D4A35",
"h  c #5C4A36",
"j  c #5D4A36",
"k  c #5E4B37",
"l  c #5F4C37",
"z  c #5C4935",
"x  c #514338",
"c  c #504438",
"v  c #524538",
"b  c #534638",
"n  c #544738",
"m  c #544739",
"M  c #55473B",
"N  c #54473A",
"B  c #534638",
"V  c #594739",
"C  c #594739",
"Z  c #55483A",
"A  c #56493B",
"S  c #574B3E",
"D  c #55493D",
"F  c #56493A",
"G  c #594838",
"H  c #5B4A38",
"J  c #5C4B39",
"K  c #5C4B3A",
"L  c #5F4D39",
"P  c #5C4C3A",
"I  c #5E4D3B",
"U  c #5F4E3B",
"Y  c #584B3D",
"T  c #5A4D3F",
"R  c #5E4E3C",
"E  c #5F4E3C",
"W  c #5D4C3A",
"Q  c #5F503E",
"!  c #604C37",
"~  c #614B36",
"^  c #604D38",
"/  c #604D39",
"(  c #614D38",
")  c #614E39",
"_  c #624E39",
"`  c #604E3A",
"'  c #614E3A",
"]  c #614F3A",
"[  c #624F3A",
"{  c #624F3B",
"}  c #614F3E",
"|  c #614E3A",
" . c #675037",
".. c #685037",
"X. c #63503B",
"o. c #63503C",
"O. c #64513C",
"+. c #64523D",
"@. c #65523D",
"#. c #66533E",
"$. c #64523D",
"%. c #69553E",
"&. c #6F583F",
"*. c #70593F",
"=. c #574B42",
"-. c #5A4F40",
";. c #5C5142",
":. c #5F544E",
">. c #675540",
",. c #635547",
"<. c #635442",
"1. c #685540",
"2. c #695742",
"3. c #6A5743",
"4. c #6A5741",
"5. c #695641",
"6. c #675847",
"7. c #6A5843",
"8. c #6C5943",
"9. c #6D5A44",
"0. c #6C5A46",
"q. c #6F5C46",
"w. c #6C5943",
"e. c #645648",
"r. c #67594B",
"t. c #675949",
"y. c #6B5C4B",
"u. c #715E47",
"i. c #725B43",
"p. c #705E48",
"a. c #725F48",
"s. c #705F4A",
"d. c #725F49",
"f. c #6D5E51",
"g. c #6A5D51",
"h. c #60585D",
"j. c #6F604E",
"k. c #766047",
"l. c #796246",
"z. c #73624E",
"x. c #74634D",
"c. c #75644F",
"v. c #74614B",
"b. c #79634A",
"n. c #7D694F",
"m. c #6E6152",
"M. c #726353",
"N. c #7C6750",
"B. c #7D6954",
"V. c #736658",
"C. c #766858",
"Z. c #796B5A",
"A. c #726865",
"S. c #776D6A",
"D. c #7E7060",
"F. c #826C53",
"G. c #816F59",
"H. c #857057",
"J. c #87755E",
"K. c #8E7A5F",
"L. c #817465",
"P. c #887761",
"I. c #8B7861",
"U. c #927D62",
"Y. c #978267",
"T. c #998568",
"R. c #9E8A6E",
"E. c #948574",
"W. c #9B8A76",
/* pixels */
"7.9 9 @.@.) ) k k k 4 @ $ z.P.a.4.>.@.o.r 4 4 4 e H e e e q q e e r r y k k l k k k k p k k p k k 4 O @ e x.c.e > > 5 r r e q 7 4 4 > 2 4 4 4 e 7 7 4 4 7 4 4 4 2 % > q q m m q 7 7 7 7 7 x 7 # X o b S q 7 7 7 3 1 2 2 4 7 r J E E E p 4 2 9 4 > $ 2 r r r k l ",
"9.@.5 ) 7.@.@.@.) k 9 @ > 7.a.@.) ) ) ) 4 1 1 4 r e 4 4 4 4 7 4 4 e r p L ) ) ) k k k k k k p k k e @ @ 2 J } 2 > 2 r r r r e e r r 4 $ 1 4 4 r C r e e 9 5 5 e e 2 > q m t.f.Y b e q 7 7 e q 3 o o S m 4 4 q 7 4 4 4 4 e e r J L E E L p r r e > @ > r 9.k p k ",
"9.u.@.) 8.@.@.@.) k 9 @ > r o.) ) ) ) ) 4 $ $ 4 r 7 4 4 4 7 7 4 q e r k ) @.@.@.) k k k k p k k ) ! 5 @ > r J 2 > 4 r r e e e e e r e > $ 1 4 4 e e e 5 5 5 5 5 5 4 > 7 b T ,.m q 7 7 7 7 7 7 7 % o q q 4 4 4 4 4 4 4 5 e e e r p P L H p r e 4 > + + 5 4.k k ) ",
"4.q.a.q.4.@.@.@.X.L e : $ 5 L ) ) ) ) ) e $ $ 4 r 4 4 4 4 7 4 4 e r r y ) @.@.@.X.! k k k k ! ) ) ) l 2 $ e H 2 2 r r r e e e e e e r 2 $ % 4 4 8 e e 9 5 5 5 5 5 4 1 7 b A A q 7 7 4 7 7 7 7 7 3 o 1 7 4 3 3 4 4 e e e e e r r p p p p p r e 4 > @ @ 5 ) p k ) ",
"4.8.q.9.7.@.@.@.@.@.r > > 9 ) ) ) ) ) ) r $ $ 3 r 7 4 7 4 4 4 e e r r y p ) X.X.) ! k k k ! ) ) ) ) ) k > 2 r 2 4 p e e e r r r r r r e > @ 1 4 e e 8 5 4 5 5 5 e 4 1 7 b e 7 7 7 4 7 7 7 7 7 7 7 # o % 3 3 3 3 4 e e e 9 e e r r r r r r r e 4 2 $ @ r ) k ) X.",
"4.7.8.8.8.4.@.@.@.@.r > > r ) ) ) ) ) ) p > $ 1 r q 7 q 7 4 4 e e r r r y k ) ) ) ) ! l k ! ) ) ) ) ) ) r 2 e 4 r r e e e e e r r p p p 4 @ > 4 4 e e 5 5 5 5 5 9 2 1 q b q 7 7 7 4 7 7 7 7 7 7 7 1 X o & 3 3 3 4 4 e e e e e e e e e e e e e e 4 2 4 z.o.p ) X.",
"%.7.8.8.8.7.@.@.@.@.r > 4 ) ) ) ) ) ) X.L 1 $ > r e 4 e e e e r e e r y k k k ) ) ) ) ) ) ) ) ) ) ) ) ) k r e r J r e e r r r r k k k k y 4 @ > 4 e 9 4 5 4 5 5 5 > 1 e e 7 7 4 4 4 4 4 7 7 7 7 7 4 o X # 3 3 3 4 4 7 9 9 e 9 e e e r r e e e e r 4 r Z.>.p ) ) ",
"4.8.8.8.8.8.#.@.@.@.r > k @.X.) ) X.X.@.o.4 $ % e r e e e e r r e r r y y k k ) ) ) ) ) ) ) ) ) ) ) ! k k r r J r e r r p p p p k k k k k r 4 : > 5 e 5 5 5 5 5 5 > > e q 4 6 4 3 3 4 4 7 7 7 q e e $ X o % 3 3 4 4 4 4 e e 9 e e e e e e e e e e e 4 o.o.p ) X.",
"4.7.8.8.8.4.#.@.@.@.r 2 ) @.@.o.@.@.@.@.@.p > $ 7 r r r e e e e e e r y y l ) ) ) ) ) ) ) ) ) ) ) l k p p y e r r r p k k k k k k p p p p y r 4 : > 8 e e 5 5 4 5 > > e 7 4 3 1 1 1 4 4 7 7 7 q e e 3 X X + 1 3 4 4 4 4 q e e e e e e e e r r e r r e e r k ) X.",
"%.4.8.8.7.%.@.@.@.@.p 4 o.@.@.@.@.@.@.@.@.L 2 @ 2 r r r e e e e e e r r p ! ) ) ) ) ) ! ) ! ) k k k k k p r e e e r p k ~ ~ k k k k p p p p y r 4 > > 4 e e 9 5 5 > > q 7 4 1 1 1 1 3 4 4 7 7 q e e e + X o % 4 4 4 4 4 4 e e e e e e 9 e r y r r r r r r k ) X.",
"%.%.7.8.#.@.@.@.@.@.X.k @.@.@.@.@.@.@.@.X.k 2 + @ 1 e r e e e e e e r y p ) ) ) ) ) ) ! k ) k p k k p p p r r r r p k k k ~ ~ ~ k k k k k k k y r 5 2 > > 5 9 5 5 2 > e 7 1 1 1 1 1 1 4 4 7 7 q e r m > o > 4 4 4 4 4 4 4 4 4 e e e e e e r y y y r r p k k ) X.",
"%.%.7.8.4.4.@.@.@.@.@.@.@.@.@.@.@.@.o.) ) r $ + + + $ 4 e e e r e e r y p L ) ) ! ) ) ) k k k p k k p p p r r r p k p p p k k ~ k k k k k k y y y r e 9 > : 4 4 4 > > q 4 1 1 1 1 1 1 4 4 7 7 e r Y b 2 $ 4 e 4 4 4 4 4 4 4 4 e e e e e e r y p p p k k k L ) X.",
"%.4.7.8.7.4.@.@.@.@.@.@.@.@.@.@.@.) ) ) ) e $ > > 1 1 4 e r r r e r r r p k l k k k ! k k k k p k k p k k k k k k k k k k p k ~ k k y y p p y y p y y y 9 > @ @ > @ 1 q 3 1 1 1 1 1 2 4 7 7 7 e H A 4 3 + 2 e 4 5 4 4 4 4 4 4 e e e r e r r p k p p p p L ) ) ) ",
"%.4.8.8.8.4.4.4.@.@.@.@.@.@.@.@.) ) X.@.X.4 % r H m r e r e e r e e r y y p k p k k ) l k p k k k k y y y k k k k k k k k k k k ~ k y y y y y y k y y y y e 4 > @ @ 2 q 2 1 1 1 1 1 2 4 4 7 7 r T q 4 4 $ + 4 e e e 4 4 4 4 4 4 e e r e r r p k J L k J ) ) ) ) ",
"%.4.8.8.8.4.4.4.@.@.@.@.@.@.@.@.o.o.@.@.) 4 $ L >.H r r e 7 q e e e e r r y y r p y k k k k k k p p p y y k p p p p k k k k k k k y y y y y y p k p y y y y y e > @ 2 q 3 1 1 1 1 1 4 7 7 7 e r r 7 6 4 3 + $ 9 9 e e e e e e e e 9 e r y p k k ) ) L ) ) ) ) X.",
"%.4.8.8.8.4.4.#.@.@.@.@.@.@.@.@.@.o.X.) ) e $ H o.C r e 7 4 4 7 7 q e e r r r r y y y y y p k k p p p y y y y p p p k k k k k k k y y y y y y y k y y y y y y y 4 @ > q 4 1 1 1 1 3 4 e e e r e e 7 6 4 4 1 o > 4 e e e e e e e e e e r r p k k ) ) ) ) ) ) ) X.",
"%.%.4.8.8.7.7.@.@.@.@.@.@.4.4.#.@.@.@.o.@.r $ 9 <.r e 7 4 4 4 4 7 7 7 q e r e r y y y y y p p p k k y y y y y y y p k k ~ ~ ~ k k k y y y y y p p y y y y y y y 4 @ $ 2 1 > > > > 1 3 4 q q 4 4 3 4 4 4 4 1 @ o + > 2 4 4 5 e 5 e e e e r y k k ) ) X.) ) ) X.@.",
"%.%.4.7.8.8.8.4.4.4.4.>.4.4.4.4.#.#.@.@.@.L $ > m r e 4 4 4 4 4 4 7 7 7 e e r r y y y y p p y y p k y y y y y y y y k k k ~ ~ ~ ~ k y y k y y y p k y y y y y y 5 @ + @ @ @ @ @ @ @ @ $ $ $ @ $ $ $ > > > > $ $ @ @ @ @ $ : > > > > > 2 e y k k ) X.X.X.X.X.@.#.",
"4.4.4.7.8.8.8.8.7.4.4.4.4.4.4.4.4.4.@.@.@.X.2 + 2 r q 4 4 4 4 4 4 4 7 7 7 e e e r r y y y k y y y y y y y y y y y y p k k k ~ ~ ~ k k y k k y y k k k y y y y y 5 @ @ @ @ @ @ > > > > > $ $ $ > 2 > $ @ 2 q.0.e 5 < 2 > 2 2 2 4 4 4 5 9 y p k L X.X.X.@.@.@.#.#.",
"8.8.7.7.8.8.8.8.8.7.4.4.4.4.4.4.4.4.4.@.@.) r @ $ 4 7 4 4 4 4 4 4 4 4 7 7 q e e r r y y p k k y y y y y y y y y y y y y p k k ~ ~ ~ k k k k p k k k p y y y y y 5 $ @ @ $ 2 y k k k ) y 9 9 5 5 e 9 4 $ E W.M.y e 9 5 5 5 5 5 5 5 5 5 9 y k L ) X.@.@.@.#.#.#.#.",
"8.8.8.7.8.8.8.8.7.4.4.4.4.4.4.4.4.4.4.@.@.) L > + 1 4 4 4 4 4 4 4 4 7 7 q q e e r r y r k k k p y y y y y y y y y y y y p k ~ k ~ ~ k k k k y y k y y y y y y 0 5 $ @ > 9 o.8.O.O.! 9 5 5 5 5 5 9 e 9 2 <.B.) y 9 9 5 5 5 5 5 5 5 5 5 9 y k ) ) X.@.@.@.@.#.#.#.",
"8.8.8.7.4.4.4.4.>.@.#.4.4.4.4.4.4.4.#.@.@.) L 4 + $ 3 4 4 4 4 4 4 4 4 7 q e e e r y y p k k k k y y y y y y y y y y y y k k k k k ~ ~ k k k k y y y y y y 0 0 9 5 $ @ > r x.a.%.%.) r e 9 5 5 9 e y y 9 r >.k y 9 9 5 5 5 5 5 5 5 9 9 9 y p k ) ) ) X.X.X.@.#.#.",
"8.8.8.7.4.4.4.#.@.@.@.4.4.4.4.4.4.4.#.@.@.) p q @ + 1 4 4 4 4 4 4 4 7 7 e r r r r y r p k k p p y y y y y y y y y y y y y k k k k k ~ ~ ~ ~ k p y y 9 9 y 9 9 9 5 $ @ @ 4 o.9.%.#.! y y y r r y y p k y p >.k 9 9 9 5 5 5 5 5 9 9 9 9 r y k k k ) ) ) ) X.@.#.#.",
"4.7.8.7.4.@.4.#.@.@.@.4.4.4.4.4.4.4.#.@.@.) p e $ + % 4 4 4 4 4 4 4 7 q r r r r y y p p k k k p k y y p y y y y y y y y y k k k k ~ ~ k k k k y y y 9 9 9 9 9 9 5 $ @ $ > , ) %.O.! ~ k y y y y p l L r e >.k y 9 9 9 9 5 5 9 0 y y y y y k k k ) ) ) ) X.@.#.#.",
"4.8.8.8.4.@.#.@.@.@.4.4.4.4.4.4.4.4.#.@.) ) p e % + $ 3 4 4 4 4 4 4 7 e r r y r r k k p k k p k k p p k k k y y y y y y y y k k ~ k k k k p y y y y 9 9 9 9 9 9 5 : $ y 4 > 9 %.#..._ ! y y y y k k ) r 2 ) ! y y 9 9 5 5 5 y y k k y p k k k k L ) ) ) X.@.#.#.",
"4.8.8.8.4.@.@.@.@.@.4.4.4.4.4.#.#.@.@.@.) L r r 1 + $ 3 4 4 4 7 4 4 7 e r r y y p p k k k k k p k k k k k k k k y y y y y y y k ~ k k k k k p y y y 9 9 9 9 9 9 5 ; - #.v.4 5 @.#._ ! ~ k y y y k k ) k 5 9 k y y 9 5 5 5 9 y k k k p k k k k k k J ) ) X.@.@.#.",
"4.8.8.8.4.@.@.@.@.@.#.4.4.4.4.@.@.@.@.@.) p r r 4 + # 3 3 4 4 7 4 4 q r e r r y p p k k k k k k k k k ) ! k k k k k k y y y y k ~ ~ k k k k k p y 0 9 9 9 0 y y 5 ; - k n.i.5 [ O.! ~ ~ y ~ y k k k k k y 9 y y y 9 5 5 9 y k k k k k k k k k k k k L ) X.X.@.#.",
"4.8.8.8.4.>.@.@.@.@.#.4.4.4.#.@.@.@.@.@.) p r r 4 + # 1 3 4 4 7 4 7 e r e r y p k p k k k k l k k k ! ) ) l k ! k k ~ k k p p k ~ ~ ~ k k k k y y 0 9 9 9 y k k 9 ; - 5 i.b.#....._ ! _ ~ ~ ~ y k k y y y 9 9 9 9 5 5 5 9 y k k k p k k k k k p k k k k ) X.@.#.",
"4.7.8.7.4.4.@.@.@.@.@.4.4.4.#.@.@.@.@.@.) p r r 4 + # 1 3 4 4 7 7 7 e r e r y p k k k k k k ! k ! ! ) ) ) ) ) ) ) k ~ k k k k ~ ~ ~ ~ ~ ~ k y y y y 0 9 0 k ~ k 9 ; - , a.*.&.#......._ ! ~ ~ k y y y 0 y y 9 9 9 9 9 9 y y p k l k k k k k p p k k p p J ) @.#.",
"4.4.4.4.4.4.4.@.@.@.@.@.#.#.4.@.@.@.@.@.) p r r 1 + $ 3 3 4 7 7 7 7 e r e r y p k k k k k k l k k ) ) ) ) ) ) ) ! ~ ~ ~ ~ k k ~ ~ ~ ~ ~ ~ k p y y y y y 0 y k ~ 0 ; ; 0 b.&..._ [ .. .! ~ ~ ~ k r y y 0 y y y 9 9 9 9 9 y y y k k k k k k k p p k k k p k ) @.#.",
"4.4.4.4.4.4.#.@.@.@.@.@.@.@.4.4.@.@.@.@.) p r r > + % 3 3 4 7 7 7 7 e r r r y r k k k k k k k k ! ) ) ) ) ) ) ) ! ~ ~ ~ ~ ~ ~ ~ ~ ~ ~ ~ ~ ~ k y y y y k k k k ~ 0 - 5 k.a.#._ _ ! _ ! ~ ~ y y r 0 0 y y y y 0 9 9 9 9 9 y y y k k k k k k k k p p p k p J ) X.@.",
"@.>.4.4.4.4.4.@.@.@.@.@.@.@.4.4.@.@.@.o.) p r q % # 1 3 3 7 7 7 7 7 7 e e r r y p k l k k k ! k ) ) ) ! ~ ~ ~ ! ~ ~ ~ ~ ~ ~ ~ ~ ~ ~ ~ ~ ~ ~ ~ k k k k k ~ ~ ~ ! 0 ; 8.b.i.#.! ~ ~ ~ ~ ~ k y y y y y y y 0 y 0 0 y 9 9 y y y y p k k p p k k k p k p k k k ) ) X.",
"@.@.4.4.4.4.4.4.4.@.@.@.@.#.4.4.@.@.@.) ) p e 7 1 & 3 3 4 7 7 7 7 7 7 e r r r y p k k k ) k k k ) ) ) ! ~ ! ! ~ ~ ~ ~ ~ ~ ~ ~ ~ ~ ~ ~ ~ ~ ~ ~ k k k k k ~ ! ) O.0 ; b.F.i.#.! ! ! ~ ~ ~ ~ y r y y y y y y y y y y y y y y r k k k k k k p p p p p p k k k k ) X.",
"@.@.4.4.4.4.4.4.4.@.@.@.@.4.4.4.>.@.o.) ) r 7 1 1 3 3 3 7 7 7 7 7 7 7 e r r r y y k l k ! k l k ! ) ) ) ! ) ) ! ~ ~ ~ ~ ~ ~ ~ ~ ~ ~ ~ ~ ~ ~ ~ ~ ~ ~ ~ ~ ! [ [ O.y > N.G.*.#._ _ _ ~ ~ ~ ~ y r k y y y y y y y y 0 0 y y k ~ ~ k p k k k p p p p p k k k k k L X.",
">.4.4.4.4.4.4.4.4.@.@.@.4.4.4.4.#.@.@.) L e 1 1 6 3 3 4 4 7 7 7 7 7 7 7 e e r y y k l k k k ) l k ) ) ) ) ) ) ) ~ ~ ~ ~ ~ ~ ~ ~ ~ ~ k y r k y k ~ ~ ! ) [ [ [ O.y , N.G.&.#....._ ~ ! ~ ~ y k y 0 y y y r y y y y y y k ~ ~ ~ ~ k p k k p p k k k k k k k J k ) ",
"@.#.4.4.@.4.>.4.4.4.4.4.4.4.4.4.@.@.@.) L 3 % b -.7 3 3 4 4 7 7 7 7 7 7 e e e r p k k k k k k k k ) ) ) ) ) ) ) ~ ~ ~ ~ ~ ~ ~ k y r y y y y y y ~ ~ ! [ [ [ [ O.r , b.F.&.#...#.#.#._ ~ ~ y y y y y y r y y y y y y y ~ ! ! ! ! k p k k k k k k k k k J k L J L ",
"@.@.@.@.@.@.@.@.4.4.4.4.4.4.4.4.@.@.@.X.p 1 3 L.m.7 3 3 3 4 7 7 7 7 7 7 e e r y k k k k k l l k k ) ) ) ) ) ) ) ! ~ ~ ~ ~ ~ ~ k r 0 y y y y y y y ~ ! ) ) [ O.O.0 , N.F.&.&.&.&.&.&._ y y y y y y y y y y y y 0 y r ~ ! ) ) ) ) k p p k k k k k k k k k H J J L ",
"} E E o.@.>.4.@.@.@.4.4.4.4.4.4.@.@.@.X.e % b V.T 7 3 3 3 4 7 7 7 7 7 7 q e r r k ! l k k k k k k ) ) ) ) ) ) ) ) ~ ~ ~ ~ ~ ~ ~ r 0 y y 0 y y 0 r ~ ~ ) ) [ O.O.9 , N.F.*.*.&.&.%.O.~ ~ k k k k y ~ ! ~ k y y y r ~ ~ ) ) ) ) ) k k k k k k k k k k k k p J J J ",
"E E E o.>.4.4.4.>.4.4.4.4.4.4.4.4.4.@.) 1 % S g.b 7 3 3 3 4 4 7 7 7 7 7 e r r p k k k k k k k k k ) ) ) ) ) ) ) ) ) ~ ~ ~ ~ ~ k y y y y y y y y y ~ ~ ~ _ [ [ [ 5 > B.F.&.*.&.#._ ! ~ ~ k y y ~ ! ! ) ) k 0 y r k ~ ~ ) ) ) ) ! k k k k k k p p k k J k p J L L ",
"} } E o.@.4.4.4.4.4.4.4.4.4.4.4.4.#.@.r & % 7 ,.e 7 3 3 3 3 4 4 7 7 7 7 e r y k k k l l k ! k k ! ) ) ) ) ) ) ) ) ) ! ~ ~ ~ ~ ~ r y 0 0 y 0 y y y ~ ~ ~ ! ) [ ) 5 > N.F.#.#.#._ ! ~ ~ ~ k k y ~ ! ! ) ! y y y ~ y ~ ! ) O.O.) ) k k k k p p p p k J L J J L L L ",
"L E E @.@.>.4.4.4.4.4.4.4.4.4.4.4.@.@.r % % 1 A e 7 3 3 3 4 4 4 7 7 7 7 e r y k k k L k k k L k k ) ) ) ) ) ) ) ) ) ! ~ ~ ~ ~ ~ y r r r r y y y y y ~ ~ ~ [ ) ! < ; 8.b._ _ ..! ~ ~ ~ y y y y y ! ) ! r y y y k k ~ ) X.#.O.) ) L k k k k k k k J L L L L L L L ",
"E E L o.@.>.4.4.4.4.4.4.4.7.9.4.#.@.) 4 % % & b q 6 3 3 q 7 4 4 7 7 7 7 e r r r p k L k l k k k ! ) ) ) ) ) ) ) ) ) ) ) ! ~ ~ ~ ~ ~ ~ ~ y y y y k ~ y y y ! [ y , - > , , , 5 0 y y y y y y k ! ! ) ~ 0 y y y k ~ ~ ) O.%.@.) ) ) ) k k k k k J L L L L L L L L ",
"} } L L o.>.4.4.4.4.4.4.7.a.x.4.p 4 2 1 $ $ $ 3 3 3 3 3 q 7 4 4 4 7 7 7 e r r y r p p p k k k k k ) X.X.) ) ) ) ) ) ) ) ) ! ~ ~ ~ ~ ~ ~ ~ k y y r y 0 0 0 y y 0 , - - - - - > , y y y y y y ~ ) ! ~ k k y y ~ ~ ! ! ) O.%.%.O.) ) ) ) k k k k k J J L L L L L L ",
"E E L E o.@.4.4.4.4.4.4.4.L r e 4 4 7 2 $ $ $ $ $ $ $ $ $ $ % % % % 1 1 1 4 4 4 2 1 2 4 5 9 e e r y y k k L ) ) ! ! ! k y r r y r r y y y 0 0 0 0 9 5 < 5 9 0 9 , - ; < 0 _ %.! k y k y ~ ! ) ) ) ~ k ~ ~ k ~ ~ ! ) O.@.@.O.X.) ) ) k k k k p k J r r H J L L L ",
"E E E E o.@.>.4.4.4.4.4.@.1 @ E j.z.j.6.H e 7 4 4 7 4 3 1 1 1 $ # # # # + @ $ # + + + + @ @ @ $ $ @ @ @ @ > > > > > > > > > > > > > > > : > > > > > > - - > , , ; - < i.l.&.O.~ y ~ ~ ! ! ) ) ! ) ~ ~ ~ ~ ~ ! ) ) O.%.@.) ) ) ) ) L k k k J k k p H H t p H J L ",
"E } E E } @.@.4.4.4.4.>.o.1 $ <.z.y.y.t.<.L L L E <.>.>.>.<.<.E H H J J p L >.4.L > > 2 e r y 9 5 4 2 2 > : @ @ @ @ @ > < 5 9 9 5 5 4 < > : @ @ @ @ @ @ @ > , < > - , *.&.~ y k ~ ) ) ) ! ) ) ! ! ! ~ ! ) ! O.O.@.#.O.O.X.) ) L k k J J k k k p t y.E t t t H L ",
"J E E E o.@.@.4.4.4.7.>.o.> @ E >.<.<.<.-.L L L L L o.>.<.o.<.L J L E } >.q.v.b.b.r 2 X.4.@.X.) ) ! ~ y y 5 > @ @ + @ 5 8.9.8.%.k k y 9 5 < 2 > > > @ @ - < 0 r 5 > ; k %.~ y ~ ! ) ! ! ) ) ) ) ) ) ) ) O.O.%.#.@.#.@.@.@.) k k p p k k p p p p <.M.H A t A H H ",
"H L L E E @.@.>.4.4.4.@.e % % <.<.<.<.<.-.T L L L L L E E E E L H H H L >.9.v.b.v.) 2 ) X.) ) ) ! ~ k y y y 4 @ + o > u.T.H.4.y 9 0 9 5 5 < < 2 > 2 > @ @ 4 ~ r 0 < - 5 #.! y k ! ) ! ! #.#.! ) ) ! ) O.%.%.&.%.@.%.X.) 4.L p p r r r r p r r r <.y.A A A A A A ",
"J J H L E o.@.@.4.4.4.J 3 4 7 <.<.<.<.<.;.E E L L L L E L L L L H C H L @.4.9.9.q.@.4 k X.) ) ) ~ y y y y 9 5 > o o > v.K.v.X.y 9 9 5 5 5 < < < 2 2 > @ : 4 y y 0 5 - , ! ~ 0 5 < 0 ! ) O.) ! ) ) O.@.%.&.*.*.k O.k 9 k @.p r r e e e r r r r e <.t.A A A A A A ",
"r H H H L } @.@.>.4.>.r 3 7 q <.<.<.<.<.;.-.-.T L L L L L J H H H H H L } @.#.4.4.@.5 y X.) ) ) ~ ~ r y y 9 5 2 + o $ e u.7.) 0 5 5 5 5 5 < < < < 2 2 : > 5 ! [ 0 < - ; 9 5 , , < y ! ! ) ) O.O.@.%.&.*.i.*.&.> 4 4 9 @.J r r r e e e r r r r q ,.,.t A A t t A ",
"r H J L E L o.@.>.>.o.e 1 7 7 <.<.<.<.<.;.E E T L L L L J H C C C H L } o.@.@.@.@.X.p 9 ) ) ) ) ~ ~ ~ ~ y y y 5 @ O @ 5 9.4.k 9 5 5 5 5 5 < < < < < < 2 2 5 O.&.y < - - 4 0 0 0 ! ! y k ! [ @.%.%.i.i.i.i.i.O.$ @ : y @.r t r r e e e r r r e 7 t.;.r e e e e e ",
"r H H E L } E o.@.o.E 7 > 3 4 T <.<.<.;.E L L L L L E L J C C C C H E o.@.@.@.X.) ) ) p ) ) ) ) ) ) ) ! y 0 y y > O O 2 4.%.k 9 5 5 5 5 5 5 < < < < < 2 2 5 %.i.~ < - - < k ~ 5 y r y k ) @.%.&.i.i.i.i.i.i.[ @ @ : } @.p p r r e e e r r r 7 1 t.E e q q q q q ",
"r H H L E E E E } E H 1 % 1 4 H <.;.;.-.T L L L T -.T L J H C C C H E @.#.#.#.@.) ) ) ) ) ) ) X.) X.) ! ~ y y y < @ + $ l 9.@.k y 9 5 5 5 5 5 < < 4 5 < 2 5 i.k.~ < - - 2 5 y ) y y y ! @.@.&.i.i.i.i.i.i.i.&.e > r q.@.L J p r r e e e r r e $ E H e q q q q q ",
"r H H H L L E E L r 1 % 3 H <.;.;.-.-.-.T E T T -.-.T L H C C C C H L @.#.#.#.@.) ) ) ) ) ) O.@.O.@.@.) ~ k ~ ! y > + + 2 4.u.#.) k y y 0 9 5 < < 5 5 5 < 5 i.b.! < , > > 5 9 ! y y y ) #.O.&.i.i.i.i.i.i.i.i.i.9 r q.o.} k r r r r r r r r e $ e e q q q q q q ",
"e e e e 7 7 e e 7 1 % 4 ;.M.t.;.-.-.-.-.-.-.-.-.-.-.T L H C C C H L E @.#.#.#.#.X.) ) ) ) ) O.@.O.@.@.) ! ! ) O.O.4 @ o + 5 9.7.) k k y y 9 5 4 5 9 0 9 5 5 %.n.O.< 2 , > < 9 y y 0 y ! @.@.&.i.i.*.i.i.i.&.i.i.~ > J ) ) k r e e e e e e e 4 $ 4 q 7 7 7 7 7 7 ",
"$ $ # + + + + + $ % 7 y.M.<.-.-.-.-.-.-.-.-.-.-.-.-.-.T H H C C H L E @.#.#.#.#.@.@.) ) ) X.@.@.@.O.O.@.X.@.@.O.O.5 @ + o $ k 9.@.k k 0 9 9 5 5 9 0 y 0 5 5 r v.) , 2 < < 2 < < < < 4 5 5 5 9 9 r k r y e 9 9 e 5 : > > > > $ $ $ $ # $ $ $ + + % $ $ # # # # # ",
"+ + + + + + + + $ 4 m.C.,.-.-.-.-.-.-.-.-.-.-.-.-.-.-.T J C C C H L E o.@.#.#.#.#.@.) ) ) O.@.O.@.O.O.@.@.@.@.O.y 2 : + o + 2 #.4.L k y 9 9 9 9 0 y y 0 5 4 9 O.k 2 5 %.#.y y y 9 5 5 4 < 2 2 2 > > > > > > > > > > > $ @ + + @ $ % $ + + + o + + + + + + o o o ",
"7 <.L H H e $ # 1 y.Z.<.;.-.-.-.-.-.-.-.-.-.-.-.-.-.-.E H H H H J L E E o.@.#.#.#.@.) ) ) O.@.O.@.@.O.O.O.O.@.@.k y 5 @ o o : k 4.) k k 9 9 9 9 y y 0 0 5 2 5 ! y 2 ! Y.F.O.O.@.O.) ) ! ! k k k y k y 9 5 9 9 9 9 9 9 9 5 2 > e ) ) L p r r e 7 7 q 7 7 5 4 1 o ",
"9.G.a.9.3.<.1 $ -.C.,.<.<.-.-.-.-.-.-.-.-.-.-.-.-.-.T L H H L L L L E E } @.#.#.#.@.) ) ) X.@.@.O.@.@.@.@.@.@.O.O.r y > + o @ 9 4.O.) k y 9 9 0 y 0 9 9 9 , 2 y 9 < G.R.b.O.@.@.X.) ! ) ) ) ) ) ) ) ) ! k k k k k k k k k r e ) o.o.o.o.@.@.@.L p A t p k k e + ",
"} v.4.<.<.H % 3 C.t.<.<.;.-.-.-.-.-.-.-.-.-.-.-.-.-.T J H C J L L E E E o.@.#.@.X.) ) ) ) ) @.@.O.O.O.%.%.%.@.O.O.) ) e + o o 2 k y y y 9 9 y y y y 9 9 9 < 2 5 2 5 U.U.4.@.O.) ) k ! ) ) ) ) ) ) ) l k k k p p k k k p o.>.) ) o.o.o.o.o.o.} J p t p J L L r $ ",
"> r <.<.E 4 $ -.Z.<.<.<.;.;.-.-.-.-.-.-.-.-.-.-.-.-.E H C C J E E } o.o.@.#.#.@.) X.@.) ) ) O.X.X.O.O.#.%.%.%.%.@.@.@.) > + o + # + + # > 9 y y y 0 9 9 5 5 , 2 : 5 K.F.@.) ) ! k y ! ) ) ) ) ) ) ) k k p k k p k k k ) @.L k J ) o.o.o.o.} L k p p k L L J p 1 ",
"+ $ H E r % $ e.y.<.<.;.<.;.-.-.-.-.-.-.-.-.-.-.-.T L H C H H E o.o.@.@.#.#.#.@.X.@.#.X.) ) ) ) O.O.@.#.%.8.i.8.%.%.@.X.e @ + + o o + $ r @.k y 0 9 9 5 5 5 5 , : 5 F.k.O.) ) k y y k ) ) ) ) ) ) l k k p k p p k p ) @.k k k J } o.o.o.o.L k p p p L L L J p 7 ",
"@ + 2 m q # % t.,.<.;.-.;.-.-.-.-.;.;.;.-.-.-.-.-.L L H C H L E o.o.@.#.#.#.#.#.#.#.#.@.X.) X.) O.O.@.%.%.i.a.a.u.i.%.@.) > @ O o + > 5 #.k y 9 9 9 9 5 5 5 5 < : < 8.%.) ) k y y y y ) ) ) ) ) ) k k k k k k k p p o.L k k J L o.o.o.) ) J k H p L L L L L p t ",
"4 @ # 4 2 + > ,.;.<.;.-.-.-.;.;.;.;.;.;.-.-.-.-.T L L L H L L L o.o.@.#.#.#.#.#.#.%.#.@.@.) @.@.O.O.#.%.8.a.b.b.l.a.i.8.%.9 @ O + $ < k r 5 5 9 0 0 9 5 5 5 5 < - 2 ) ) k y y y y y y k ) ) ) ) ! l k k k k k k k k k k k k J k L ) L k k k p t p L L L L L L J ",
"p 2 + @ @ + # 3 e ;.;.-.-.;.;.;.;.;.;.;.;.-.-.T L L L L L E E E E } o.@.@.#.#.#.%.%.%.#.@.X.@.@.@.#.%.8.i.a.b.b.b.a.a.u.i.y @ @ @ > 9 k 4 4 4 9 y 9 9 9 5 5 5 < @ 2 y y 9 9 9 0 y y y ) ) X.) ) k k k p p k k k p p p p k k J k J k k J k k p p k k L L L L L L ",
"k y > + + + + + # 3 T -.-.;.;.;.;.;.;.;.-.-.-.T L L L L L E E E E } o.o.@.#.#.#.#.%.%.%.#.@.@.@.#.%.4.i.i.a.b.a.u.i.i.u.i.e @ @ @ 4 ) e 4 5 9 y y 9 9 9 9 5 5 < - > 0 0 9 9 9 9 y y k X.@.O.) ! k k k p k k k k k p k k k k k k k k k k k k p p J k L L L L L J ",
"p k e $ + + + $ 1 7 T -.;.;.;.;.;.;.;.;.-.-.T A H L L E E E E E E } o.o.o.@.#.#.#.#.%.%.%.#.#.#.%.4.8.i.i.a.b.a.i.i.i.i.8.4 @ @ > p r 4 4 5 r y y 9 9 9 9 9 9 < - > 9 5 5 9 9 9 y y k ) @.@.) ) k k k k k p k k k k k k J J J J k k k k k k J J L L L L L L L L ",
"p k y 2 @ + + 1 r.;.-.-.-.;.;.;.;.;.;.-.-.-.Y A L L E E E E E E E o.o.o.o.@.#.#.#.%.4.4.%.%.%.%.%.4.i.i.i.a.b.a.i.i.i.i.%.> @ > 4 5 2 4 4 4 9 y 9 9 9 9 9 9 9 2 @ : > > > > > 2 4 0 y k X.O.) ) ) ) k k k k k k k J J k k L L L J k k k k k L L L L L L L L L L ",
"J k y 2 + + + 7 ;.-.-.-.-.-.;.;.;.;.-.-.-.T A P L E E E o.o.E E o.o.o.o.o.@.#.#.%.%.4.4.%.%.%.%.%.4.8.i.i.i.l.l.u.i.8.8.k $ 2 4 4 2 2 4 9 9 9 9 9 9 9 9 9 9 9 2 - @ @ 4 ! 5 < 2 4 y y y ) X.@.X.) ) k k p p k k J L L J J L ) L L k k k k J L L L L ) L L L L L ",
"L J p > + + % S -.-.-.-.-.-.;.;.;.-.-.-.-.T A L E L E E } o.o.o.o.o.o.o.o.@.#.#.%.%.4.4.%.%.%.%.%.%.4.i.i.i.a.a.u.i.8.%.2 > p 4 2 2 2 4 9 9 9 9 9 9 9 9 9 9 5 > - @ : u.k.9 9 9 9 0 y y l ) @.@.) ) J k p p p k J L L L L X.X.) L J J J k J L L L L L L L L L L ",
"L L p > + + 7 ;.-.;.-.-.-.-.-.-.-.T T T T S A H L L E E E E o.o.o.o.o.o.o.@.#.#.#.%.4.4.4.%.%.%.%.%.4.i.i.i.i.i.u.i.4.5 > r r 2 2 2 2 9 5 5 9 9 9 9 9 9 9 9 5 > @ @ > n.8.y 9 9 9 9 y k ) ) @.@.X.) J k k k k J L L ) ) o.o.o.L L J k k k k L L L L L L L L L L ",
"L L k > + @ b ;.;.;.-.-.-.-.-.-.-.T A A A A A A H L L L E E } } ) ) } o.o.@.#.#.#.%.4.4.4.4.%.%.%.%.4.8.i.i.i.i.i.4.9 : e J 5 2 2 2 2 5 4 5 9 9 9 9 9 9 9 5 5 > @ @ > b.%.) y 9 9 9 y ) ) ) @.@.@.X.L k k k k J L ) X.X.@.@.o.) L J k k k k J J L L L L L L L L ",
"L L J 2 + + q ;.;.;.;.-.-.T T T Y A A A A A A A A L E E E E } L L L L L } o.@.#.%.%.%.4.4.4.4.%.%.4.4.4.8.8.4.4.%.5 @ 4 L r 2 2 2 2 4 4 4 9 9 9 9 9 9 9 9 5 9 2 - @ > u.a.@.) y 9 9 k ) ) ) X.@.@.@.) J k k k J L ) X.@.@.@.o.X.L J k k k k k J L L L L L L L L ",
"L L k 5 @ + 4 ;.;.;.;.-.-.T A A A A A A A A A S A L E E E o.o.} o.o.L L L } o.@.%.%.4.4.4.4.4.4.4.4.4.4.4.4.4.@.e @ > H H 4 2 2 2 2 2 4 4 9 9 9 9 9 9 9 5 9 5 4 : @ > 8.v.u.%.y 9 9 k ) ) ) X.@.@.@.) L k k k L L L X.@.@.@.@.X.) L J k J k J k J L L L L L L L ",
"L L J r % + % -.;.;.;.-.-.T A A A N b b b b A A H L L E } o.o.o.o.o.L L L } @.#.%.4.4.4.4.4.4.4.4.8.8.4.4.4.@.r $ @ e H 4 1 > 2 2 2 2 4 4 4 9 9 9 9 9 9 e 5 < < , @ > 4.u.%.y 9 y y k ) ) ) @.@.@.@.X.L J k J L L L ) o.@.@.@.o.X.) L k k p J k J L L L L L L L ",
"L L J p 1 o + S ;.;.;.;.-.-.Y A A b b b b b A P L L E E } o.o.o.o.E L L L o.@.#.%.4.8.8.4.8.4.4.4.4.8.4.4.%.) > @ 2 J 4 1 > 1 1 > > 2 2 4 4 5 9 9 9 5 p k < < 2 2 - > %.O.9 9 9 r y r ) ) X.@.@.@.@.@.) J k k k J L L o.@.@.@.@.o.) L J k p k J L L L L L L L L ",
"L L k p e $ X 4 ;.;.;.;.;.-.T A A b b b b A A A H L L L E o.o.o.o.} L L L o.o.@.%.8.u.u.9.8.4.#.#.%.4.4.4.o.2 @ @ r e 1 > > > > > > 2 2 2 4 9 9 9 9 5 e y < < > > - > ) 9 9 9 r r r y ) X.@.@.@.@.@.@.) L J k k k J L o.@.@.@.@.o.X.L J k k k L L L ) ) ) L J k ",
"L J p p p 4 o $ A ;.;.;.;.-.T A A b b b b A A A H L L E E E o.} } E L L } o.o.@.%.8.u.a.u.8.4.#.#.#.#.@.} 4 @ @ : 8 2 1 > > > > > 1 2 2 4 5 9 9 9 9 > e e < < 2 > @ 2 k 9 9 e y y y y ) ) @.@.@.@.@.o.X.L L J k k L L o.@.@.@.@.o.X.L L J J J L L ) X.o.) L L k ",
"k k p p k y # o 3 T ;.;.;.-.T A A b b b A L P T L L E L E E E L L L L L } o.@.#.%.8.u.u.u.8.4.#.#.#.o.L 5 @ @ @ $ 2 2 > > > 1 1 > 1 2 4 5 9 9 9 9 4 : r 5 < < > > @ 2 k r e r y y y y ) ) X.X.@.@.o.X.X.) L J k J L L ) o.@.@.@.X.) L L L L L L ) X.o.X.L k k k ",
"p p p p r r 1 X + 7 -.;.;.-.S A A b b b A H P E E E E L E E L L J L L L ) o.@.@.@.%.4.4.4.%.%.#.%.%.o.p > @ @ @ $ 2 1 > > > > > 1 2 4 4 9 9 9 9 9 > > k 4 < < > > @ 2 k r r r y y y y k ) X.@.@.@.@.o.X.L L J k J L L o.@.@.@.@.o.) L L L L L L X.o.o.o.L k p k ",
"k k p p r e e # X # 7 T -.T A b b b b b b b A H E E E E E E H H A A H J L ) L L L L o.@.@.@.@.@.@.) k 4 @ @ @ @ @ > > > > > > > 1 2 4 4 9 9 9 9 9 > 4 k < < 2 > > - > r r r r r y y y p ) ) @.@.#.#.@.X.) L L L L L ) @.@.@.@.@.@.o.} ) L L L ) X.) ) L L J p p ",
"k p p p p r r 4 o o # # % & % % % & & 1 % $ % 1 3 4 4 4 4 3 1 1 1 1 4 4 4 4 4 4 9 e e e e e 9 4 2 4 4 > @ @ @ @ @ @ @ @ $ : > > > > 2 2 2 2 2 4 2 $ 2 4 > > > > > @ > e r r r r y y y k ) ) X.@.#.#.#.@.o.) L ) ) ) @.@.@.@.@.@.@.@.o.) L ) ) X.X.) L L k k p p ",
"k k p p p r r r 1 X   * w 6 6 3 & % % $ # + o + $ $ $ # # @ + # $ @ + + @ @ @ @ @ $ $ : @ @ $ $ > 2 2 > @ @ $ : @ @ @ @ @ @ @ : > > > > > : : - @ @ @ - @ @ - - - @ : 9 r r r r y y k ) ) ) X.@.#.#.#.#.@.@.X.X.X.X.o.@.@.@.@.@.@.@.@.) ) X.o.o.X.) L J k k p p ",
"k k p p p p r e $   = h.:.-.-.S b e q e 7 $ + $ % 4 m A r e e r r 4 > 1 e p 9 4 4 5 9 r 2 2 k k k y e 4 @ > 4 4 2 > > > : > > > 2 2 4 4 4 4 4 4 2 , > > > : : - - - > 9 r r r r y r L ) ) ) X.@.@.#.#.#.#.@.@.@.X.X.o.@.@.@.@.@.@.@.@.o.X.X.o.) ) ) ) L k k k k ",
"k k k k p r r 1 . = S.A.=.b b b q q q q e % o 1 ;.t.t.<.<.;.H H r e 4 L J.I.9.k k k k k 4 9 @.) ) X.o.) 2 % 9 e e e 4 4 4 4 4 4 4 r y y y y y y y 9 9 9 5 5 4 4 > - 2 e y r r r y y k ) ) ) ) ) @.#.#.4.4.4.#.@.X.X.o.o.o.o.o.@.@.@.@.@.X.) ) L L L J J k k k p ",
"k k p p p r 4 o . =.g.-.b b b q q q q q q $ + q ,.t.t.<.<.E t r r > $ 4 3.a.o.k k k p 4 : 9 @.) L L L r > @ 4 e e e 9 9 5 4 4 4 9 r y y 9 5 4 < < < < < < < 5 5 > : 4 r r r r r r y y k ) ) ) ) X.#.4.7.8.7.4.@.o.L ) ) ) ) ) o.@.o.@.@.) L L L L J k J k k p p ",
"p p p y r 4 + o % b b b b b e q q q q q q $ + e <.t.t.<.E H r r e $ + + > J k k k k 9 @ @ e @.@.) L J 2 $ + > 9 e e 9 4 4 4 4 4 4 e r y 9 5 5 4 < < < < < < 4 5 > $ r J r r r r r y y l X.) ) ) @.4.7.7.8.8.4.@.o.) L L L L ) o.o.X.X.X.) L L L J J H J k k p p ",
"p y p p r # o o 1 S A b b b q q q q e e e > o q 6.t.<.E H C r e r > + + $ 4 p k k k 4 $ > r @.@.) L e > @ + @ > e r 5 4 4 4 4 4 9 9 r y y 9 9 5 5 5 5 5 5 < < 5 > > z.o.r r r y r r k ) ) ) ) ) @.8.8.8.8.7.4.@.X.L L L J L L X.X.X.) ) L L L L k k J J J k p p ",
") k k k e o o o 1 T T b b b q q q q e e r 4 o 1 <.t.<.H H H p r e e > + $ 2 p k k k 5 > 2 k @.) L L 4 > $ + @ $ 2 e 5 4 4 4 5 e e e r p L k y 9 9 5 9 9 5 5 4 5 > > p p e e e r y y L ) ) ) ) ) %.8.7.7.8.4.#.@.) L J J H H J ) ) L L L J J J J H p H H k k k k ",
") ) ) k y % o o % Y Y b e q q q q q e e e q + # T <.E H H H H r r r e 2 > q p k k k r 2 r ) ) L ) J 2 > 2 $ > 2 4 9 4 4 4 9 e r r y y k X.) k y 0 0 0 0 5 5 5 5 > : e r 9 e e e e y L ) ) ) ) ) 4.8.8.7.7.4.#.@.) L J J H H J L L L J J H H H H H H H k k k k k ",
") ) ) l r 2 o + % b A b e q q q e e e r r e # o 7 o.H H H A A t t r r e q e p k k k p 4 4 L L L L p 4 e p 4 5 p L e 9 5 9 9 e y y y p ) @.#.) p y 0 0 0 9 5 5 5 2 : e r e e e 9 e r H ) ) ) ) X.4.8.7.8.4.@.@.@.) L J H J J J J L L J H J H J J J k J k k k J J ",
") ) ) ! p e > 1 7 q e q q q q e e e A H 7 % + + 1 H H H H t t H p r r e e q r k k k k r 4 e L L L L L ) L 5 9 o.p e e e e e r y y k ) @.@.%.@.k y 0 0 0 0 9 5 5 2 @ e p r r e 9 9 r H L ) ) o.@.>.7.8.7.4.@.X.o.L J H H J H H J J J k p k k p k H k k k k k k k ",
"L ) ) ) p r 9 > 1 7 q q q q q e b A A E 7 > $ + % m H H H t t H H t t r r 4 7 p k k k k k p k L L L J J L r 4 r e 9 e e e r y y k ) @.@.@.4.8.@.k y 0 0 0 0 5 5 > @ e L r e e e e r r L ) X.o.#.4.7.8.7.>.#.@.) L J J J H H J k k k k k k k k p H k k k k k k k ",
") ) ) ) L r e 5 > $ 1 3 3 7 q e m A A E } H e % # r H H A t p J H t t r r e 4 r p k p p k k k k J p p k L J 5 9 e 9 e e e r y k ) @.@.@.@.8.i.8.) y 0 9 9 9 4 > - @ 9 L e e e e e e r J ) X.o.@.@.7.7.7.4.#.@.) L L J J J p p k k k k k k k p p p p k k p k k k ",
") ) L ) ) k y r 4 > + # 1 3 q e A A H H E <.Y q $ e H H t t p J J t t r r e e r r p p p k k k k p r r k L k y 4 e e e e e r r J @.@.@.%.%.i.i.i.) 4 2 > > : - @ @ @ 5 ) e e e e e r r J ) o.o.o.o.4.7.7.4.>.@.E L L J H H H H H r p k k p p p p p p p p p k k J ",
") ) ) ) ) k y r e 4 > + + $ 3 q r A A H H E -.-.m H p t t t p J L H t r e e r r r p p p k k k p r r p k k k k r 5 e 9 e r r k L @.@.%.%.8.i.i.[ 9 < 2 > $ - - @ - @ 4 o.e e e e e r p J L o.o.o.o.o.4.4.#.#.@.o.) L J J H H p J p J H p p p p p r p p k p k k k ",
") ) ) ) ) k r e e e 5 $ o $ 1 e r t t t A A H E E H t t p p k L L J p r r e r r p p k k k k p r r p p p p p k k e 9 e r p p J L @.@.4.i.i.i.i.&.@.O.k e 5 5 5 5 > @ 2 o.r e e 9 e r p J E o.o.o.Q o.@.@.o.o.o.Q L L L H J H p J J H H k k p r p r r r p p k k k ",
") ) ) ) L p r e 9 e e > + > 7 H m t t t t t t A A r r t p k k L L L p t r r r t t p p p k p y r r r p k p p k k r r e r p k L L ) #.%.8.i.8.8.i.4.@.@.) k y y y > @ > } r e e e e r k L E Q o.o.o.o.o.o.o.o.o.o.E L L H H H p H H p p p k p r r r r r r p p k k ",
") ) ) ) ) k p r r r r 4 $ % 2 H A t t t t t t r m r r r p p k L L L H p H H H A t p p r y r r r r r p p p p p r y r r e y p J L L @.%.%.%.%.%.4.@.@.@.X.k y y 9 > @ > } e 9 e e r r p L E o.o.o.o.o.o.o.o.o.o.o.Q E L J H J J H p k k p p y r r r r r r p p p k ",
") ) ) ) ) ) L r r p y 5 % % 4 T H H t t t t r r r r r r r p p k k J L J L J J H p H p p r r r r e r r r p p p r r r r r r p k L ) @.@.%.%.%.&.&.#.@.@.X.k y y e > $ > r e e e e r r p J E o.o.o.Q E E E E o.Q Q o.E L H H H J H p k k p p r r r r r e r r p p p ",
") ) ) ) ) ) ) k p p p 4 $ 1 e E L L t t t t r r r r r r r A p p J J L L L L L L J J k p r r e e r e r r p k k k k p p r r p k L ) @.@.@.%.%.%.%.%.%.O.) ) l ) y > $ $ 4 7 e e e y H L L E o.o.o.Q E E E E o.o.o.o.E L J J J J H p p p p r r r r e e e r r r p p ",
") ) ) X.) ) ) ) k p r 1 % 4 H E E P A A A r r r r r r r r A p H L L o.o.L L L L J k J k p r r e r e r r k k k k J p p r r r k L o.@.@.@.#.%.%.%.%.%.@.) ) ) ) k > $ $ 4 7 e e r p H L } Q o.E o.E E E E E o.o.o.o.E E J J J H H p m r t r r r r e e e r r p p L ",
") X.@.@.@.) ) ) ) p 4 % 2 e H L T L H H P A r r r r e e r t p H L o.Q o.E L L L J J L L J p r e e e r p k k L ) L J p p r p k k ) @.@.@.%.%.%.&.%.%.%.@.X.) ) k > $ $ 4 7 q e r p p J L L E E Q E E E L E Q Q Q o.E E L J H m r b b e r e r r r e e e r r p H L ",
") X.#.@.@.@.o.) ) r 1 % 2 q r H H P P T T H r r r r e r A A p H L o.o.o.o.L J p J L L L J p r e e e r p k J L ) L L k p p k k k L o.@.@.@.@.%.%.%.%.@.@.) ) ) k 2 $ % 7 7 7 e r p H L L L L E o.E E E E E E E Q E E L E H m b b b b e e e e r r e e r r r p P L ",
") X.@.@.>.>.@.) ) 4 $ % 1 4 A m e e H E T H t r r r r t t t p J L o.o.o.L L k p p J L L J p r r e r y k k L L L L L J k k k J L L o.@.@.@.@.%.%.#.@.@.@.) y k y 2 $ 1 7 7 7 e r p H L L L E E E E E E E E E E E L E E H H b b b r r e q q e e r r e r r p k L L ",
") o.@.@.>.>.#.@.) 1 1 q p y.E.M.,.<.,.E T P A r r r t t t t p J L o.o.) L L k p k k J L k p r y r r p k L L L L L L L L L L L L ) } @.@.@.@.@.@.@.@.@.X.l y y y 2 $ 1 7 7 7 e r p p H L L E E L E E P T E L E E E E L H A b b b e q q q q q e e e e r r p k L L ",
"o.@.>.#.>.@.@.#.p > 4 E y.D.Z.o.E E E E L H A t t t t p p p p L E o.o.L ) L J p k k k J J k r r y r p k k J L L ) L L L ) L L ) } } @.@.@.@.@.@.@.X.@.) l y y y 2 $ 1 7 7 7 q e r A P E E E E E E T A A P T T A T T H H m b b e e q q q q q q q q e r r p H L L ",
"@.>.@.@.@.>.>.#.4 @ 4 t.M.<.L L H H E P H A t t t t t p p p k L Q o.o.o.) L J k k k k J k p r r r p p k p k L L ) L L L L L ) } } } @.4.4.4.>.@.@.@.) ) k y y y 2 $ & 6 7 7 q q m A S E E E L E E T S A A A A A A A H H A m b b e q q q q q q q q e e r p p L L ",
"@.@.>.>.@.@.@.) > @ 4 t.6.E E E H t H L H t t t t t t p p p k L o.o.Q o.} L k p k k k k p r r r p k k k p k L L L L ) L L L ) } } @.@.4.4.4.4.4.@.@.) k y y y y 4 $ % 6 7 7 q w b A A T E E E E ;.-.T Y A A A A A A A A A A A b e e e q q q q q q e e r p k L L ",
">.#.>.#.@.@.@.p $ # 4 t.<.E E L H t H P H t t t t t A p k J J L o.o.o.o.} L k k k k p p r r t r k k k k p k k k J L ) L L L L ) o.@.4.4.4.4.4.4.4.@.) y y y y y 2 $ $ 3 6 7 q e b N A A E ;.;.;.;.T -.-.T Y A A A A m b A A b b e r e e q q q q e e r r p J L L ",
">.@.@.@.@.@.o.4 $ $ 3 <.t.E E P t t t H H t t t t t t p k L L E o.o.o.o.o.L J J L p r r r r y r p k p p p p k k k k J J L ) ) } @.%.4.4.4.4.4.4.4.@.) y y y y y 2 $ $ 1 6 7 q q b b A A T ;.;.;.;.;.-.-.T S A A A A m b b b b b r r r e q q q e e r r r p J L L ",
"o.X.X.) ) ) ) > $ 1 4 ;.E P H H t t t t t t t t t p p k J L L o.o.o.o.o.) L L L k p r y r r r p k k k p p p k k k k k k L L } o.@.4.4.4.4.4.4.4.4.@.) k y y e 5 > $ $ % 3 6 7 q b b A A T ;.;.;.;.;.;.-.-.Y A A A A A b b b b e r r r e q q q e e e r r p p J L ",
") ) ) ) ) X.e @ $ 2 4 t L H t t t t r t A A t t t p k J L L E o.Q o.o.Q L L L J p r r r r r p p k k k p p p p p r p p k L ) } } @.@.4.4.4.4.4.4.#.@.) y 4 > % $ $ $ $ $ 1 6 7 q q b b A Y -.;.;.;.;.;.-.-.T A A T T m b b b b b r r e e q q q q e e e r r r p J ",
") ) ) L ) 9 $ @ @ > 4 H L H t t r r e r A A t t t p J L L L } o.Q o.o.} L L L p p r r r r r p k k k k k p r r r r r p k L ) } } @.@.@.4.4.8.8.4.4.@.e > $ > q q 1 $ $ $ 1 6 7 q q b b A A S -.;.;.;.;.-.-.-.T T T A b b b b b b e r e e e e q q q e e r r r p L ",
") ) ) k p 1 @ @ @ 1 T E H t t t r r r r r t A A p k L L L L ) o.o.o.o.L L L k p r r r r r t p p k k k k r r e e e e r p L ) } } @.@.@.4.8.9.9.9.} 4 $ > b <.y.m.T % $ $ 6 6 7 q q b b A S A T ;.;.;.;.-.-.-.-.T S A b b b b b b e r r r r e q q q e e r r r p L ",
") ) ) L p r 1 # @ 7 ,.<.H t t t t t r r r t t t p k L L L L E o.Q o.E L L J k p r r r r r r r p k k k p r r e r e e r p J ) } } @.@.@.@.8.9.9.p > $ 3 M.V.y.3.y.;.> $ 1 q 6 7 q q b b b A S S ;.;.;.;.;.;.-.T A A b b b b b b b b e r r r e q q q q e r r p J L ",
") ) ) L p r r 2 @ 3 ;.<.H t t t A A r e r r t t p k J L L L L ) ) L L L L p p r r r y y y r r p k k p r r r e e e e r p J L } } @.@.@.@.9.9.p $ $ 3 V.L.j.y.t.y.;.% $ 3 q 6 7 q q w b b A A T ;.;.;.;.;.;.T S A b b b b b b b b b b e r r r e q q q e r p p J L ",
") o.) L p p r e # % q E H t t t A A r e e r r t p p k J L J J L L J L L J p r r r r r r r y r k p p r r r r e e e e r p k J ) ) @.@.@.@.4.r $ % 4 M.L.M.y.y.y.y.;.% $ 7 7 6 7 q q q b b A A T ;.;.;.;.;.T S A A b b b b b b b b b b b b e e e q q q e r r k J } ",
") @.) J p p p r # # 3 7 e r r r r r e e e e e r p k p J k k k k J k k k k p p r r r r r p p p k p r e e e e e e r r r k k k L ) o.@.@.@.e $ % q m.D.M.y.y.y.y.y.o.1 3 q 6 6 6 7 q q q b b A -.;.;.;.-.-.T A A b q b b b b b b b b b b b b e e e q e r r p k L } ",
"@.@.) H p p p r $ o + + $ % > 4 e r e e e 4 4 r p k p k k k k p p p k k k k p p p p r p k k p p p r e e e e e e r r k k k k J ) o.@.@.r $ $ q y.M.t.t.y.y.y.t.t.A 1 b 6 6 6 6 7 7 q q q w b Y ;.;.-.-.T S A b q q e b b b b b b b b b b b e e e e q r p k L } o.",
"@.@.o.L p p p r 1 o o o o + o o $ 4 e e 4 1 1 e p k k k k k p p p p p p p k k k p p p p k k k p p r e r e e e e r p p p k k k ) o.@.L 1 $ 7 y.t.<.>.<.t.t.3.3.<.q % b N 6 6 6 6 7 q q q q w b T ;.T T A b b q q q q 6 b b b b b b b b b b b b e e e r r k L o.o.",
"@.@.@.o.k p p r 4 + o o o + $ @ + 1 e 7 2 1 1 2 r r p k k k p k p k r e r k k k p p k p k k p p p p r r e r e e r p p p k k k ) o.o.4 $ q y.,.;.;.;.;.<.<.<.3.>.6 $ q T w 6 6 6 7 7 7 q q 7 q b T S A A b q q q 7 % $ e b b b b b b b b b b b e r e r p k L o.o.",
"@.@.@.@.) p p r e $ o o o $ % 1 4 r q 4 1 1 1 1 4 r r r p k k p k r 4 > r k k k k k k k k k k k k p r r r e r e r p p k k p k L } r $ 3 y.<.H Y E E E <.;.<.>.o.1 $ 7 -.D 7 6 6 6 6 7 4 3 7 q e A A A A b q 7 7 & o 7 S b b b b b b r r e e e e r r r p J ) o.o.",
"@.@.@.@.X.k p p r 4 + + + 1 q E <.r 4 4 1 1 1 1 1 e r r r r r r r e 1 $ e k k p k k k k k p k k k k k p r r r e r p k k k k k k p 1 1 ,.t.Y C C C C C T ;.E E m $ $ 7 -.D 6 6 6 6 6 3 1 7 7 7 b b A A A e q 3 3 o # b S e b b b e r r r r e r e r t p J L ) o.o.",
"@.@.@.@.@.) k k p r > + o $ r <.r 4 2 1 1 1 1 1 1 2 e r r r e H r > 2 > 9 k k p k k k k k k k k k k k k r r r r r k k k k k p p 4 1 e t.<.C r r C C C C Y H r 1 $ $ 3 S q 6 6 6 6 3 3 q q 6 6 e b N A b q 6 3 & + 3 S T q q e e r r e e e e r e e r p J L L o.o.",
"@.o.e 4 e e e e 4 4 > $ + + % > $ $ $ $ $ $ $ $ $ $ > 2 4 e r } 4 > 2 > > y p k p p p r p p p p p p r r r e 4 4 2 4 4 4 4 9 e 4 % 1 q T r 7 4 4 7 7 7 7 7 7 1 @ # $ % 6 6 3 3 3 & # $ 3 3 3 6 q q 1 % $ $ & 3 $ $ q S N 7 6 7 e r r r e 2 e e e e e r p J L L o.",
"r 5 $ $ $ $ $ $ $ $ $ $ $ # $ $ % % > > $ $ $ $ $ $ $ $ $ % 1 1 $ $ $ $ $ > > 1 > > > > > > > > > > > 2 1 > $ @ + + + + + @ @ + + # $ $ $ # # @ @ @ # $ $ # + + $ $ $ $ $ $ $ $ $ # o o o # # # + X X X X X o o # & & & % $ $ 1 3 3 1 $ @ $ > > > > > > 1 2 2 2 ",
"$ $ > 2 2 2 2 2 2 1 $ $ $ > 1 2 4 4 5 4 1 1 1 1 1 1 > > $ $ $ $ $ $ $ $ $ @ @ + + + o o o o o o o o @ $ 1 4 4 > @ + + + + + + + + + + + + + + + + + # # $ $ # # $ $ $ $ $ $ $ $ $ $ $ $ $ $ o X X X X X X X X X X o o o o X X o o o o + + + + + + + + + + + + + "
};
