/* XPM */
static char *texture14[] = {
/* columns rows colors chars-per-pixel */
"128 128 188 2 ",
"   c #1C100D",
".  c #22160A",
"X  c #261A0C",
"o  c #2B1E0E",
"O  c #241713",
"+  c #271A13",
"@  c #2C1F10",
"#  c #2B1D18",
"$  c #2E200F",
"%  c #30200F",
"&  c #2E2111",
"*  c #342414",
"=  c #382616",
"-  c #372816",
";  c #3A2A16",
":  c #36261F",
">  c #3A2718",
",  c #362A19",
"<  c #3C2C1A",
"1  c #3E311D",
"2  c #3F2E22",
"3  c #442C16",
"4  c #482D16",
"5  c #422E1A",
"6  c #482F19",
"7  c #44331E",
"8  c #42351E",
"9  c #43341E",
"0  c #44341D",
"q  c #44341E",
"w  c #45341E",
"e  c #45351E",
"r  c #45351F",
"t  c #45341F",
"y  c #46351E",
"u  c #46351F",
"i  c #46361E",
"p  c #46361F",
"a  c #47361F",
"s  c #47371F",
"d  c #45341E",
"f  c #48371F",
"g  c #49351F",
"h  c #4A341D",
"j  c #4A391F",
"k  c #51371D",
"l  c #52391E",
"z  c #433221",
"x  c #433522",
"c  c #453420",
"v  c #443521",
"b  c #463520",
"n  c #463620",
"m  c #473620",
"M  c #473720",
"N  c #473621",
"B  c #463620",
"V  c #483720",
"C  c #483721",
"Z  c #483621",
"A  c #4A3720",
"S  c #483721",
"D  c #463822",
"F  c #463923",
"G  c #483820",
"H  c #493820",
"J  c #493920",
"K  c #493821",
"L  c #493921",
"P  c #483821",
"I  c #4B3921",
"U  c #493922",
"Y  c #493822",
"T  c #4A3922",
"R  c #4B3922",
"E  c #493A22",
"W  c #4A3A22",
"Q  c #4B3A22",
"!  c #4A3A23",
"~  c #4B3A23",
"^  c #4B3B23",
"/  c #4C3921",
"(  c #4C3A21",
")  c #4C3B23",
"_  c #4C3A22",
"`  c #4E3B22",
"'  c #4C3C23",
"]  c #4D3C23",
"[  c #4F3C23",
"{  c #4A3A27",
"}  c #4C3B24",
"|  c #4B3C24",
" . c #4D3C24",
".. c #4C3C25",
"X. c #4E3D24",
"o. c #4E3D25",
"O. c #4F3E25",
"+. c #4E3E24",
"@. c #4F3F27",
"#. c #4C3B23",
"$. c #49372A",
"%. c #4D3D29",
"&. c #503D23",
"*. c #503D25",
"=. c #503F26",
"-. c #503F26",
";. c #513E24",
":. c #523D23",
">. c #583F23",
",. c #533F29",
"<. c #503D30",
"1. c #4F4027",
"2. c #4F4028",
"3. c #504025",
"4. c #514025",
"5. c #524025",
"6. c #504026",
"7. c #514026",
"8. c #514126",
"9. c #514027",
"0. c #514127",
"q. c #524026",
"w. c #524126",
"e. c #5B4226",
"r. c #5F4826",
"t. c #534228",
"y. c #534329",
"u. c #53432B",
"i. c #544229",
"p. c #554329",
"a. c #544329",
"s. c #554429",
"d. c #564529",
"f. c #54442B",
"g. c #56452A",
"h. c #57462A",
"j. c #57462B",
"k. c #56462C",
"l. c #55442A",
"z. c #58472B",
"x. c #58462C",
"c. c #59462A",
"v. c #56482E",
"b. c #59482D",
"n. c #5B492D",
"m. c #5C4A2D",
"M. c #5E4C2F",
"N. c #5E4D2F",
"B. c #5C492D",
"V. c #564234",
"C. c #574932",
"Z. c #5D4D31",
"A. c #5E5032",
"S. c #604526",
"D. c #614927",
"F. c #614529",
"G. c #604D2F",
"H. c #634C2C",
"J. c #684D2D",
"K. c #6B512B",
"L. c #614F32",
"P. c #614E31",
"I. c #624C39",
"U. c #645234",
"Y. c #695635",
"T. c #695435",
"R. c #6D5936",
"E. c #655439",
"W. c #6A563A",
"Q. c #6C5A3B",
"!. c #705A37",
"~. c #705D39",
"^. c #735F3B",
"/. c #74613D",
"(. c #78633F",
"). c #6C5442",
"_. c #6B5C42",
"`. c #745D44",
"'. c #755C48",
"]. c #766443",
"[. c #796643",
"{. c #7D6840",
"}. c #73644A",
"|. c #7E6549",
" X c #7B6A4B",
".X c #826C45",
"XX c #826D4A",
"oX c #807152",
/* pixels */
"O.O.O.O.O.O.O.O.O.O.K a a a a a a a a a a d a a a K K K K K K K K a.=.K K K K K K K K K K K 7 - , 7 - < =.< < < < < ; < < < < < < < ; ; ; - * * * * & * o & - - - ; ; ; ; ; ; - * = > > > > > > > > > > > > > > > > > > > > > > > X o 7 7 K ] K g V ) O.9.9.9.9.",
"O.O.O.O.O.O.O.O.O.) a a a a d d a a a a d d d d a K K K K K K K K x.] K K K K K K K K K K K f < - - - K O.< < < < ; ; < < < < ; - * * & @ @ @ & - > > > - = = - - - - * * * * @ * > > > > > > > > > > > > > > > > > > > > > > > - X 1 a d K a 7 d 7 7 a ] 9.9.9.",
"O.O.O.O.O.O.O.O.O.V a a a a d d a a d d d d d a V K K K K K K K 9.b.K K K K K K K K K K K K K a - - - V 7 < < < < ; - ; ; - * @ @ - = = > > > > > > > > > > > > > > > > > = * @ - > > > > > > > > > > > = * @ @ @ * * * * * * * o b t.7 a K a 7 7 7 7 a 9.9.9.9.",
"O.O.O.O.O.O.O.V a a a a d d d d a a a d d d a a K K K K K K K K 9.k.K K K K K K K K K K K K K f 7 - - - - - ; - - * o o o & - 7 v z > > > > > > > > > > > > > > > > > > > > > = > > > > > > > > > > > > > - - * * * * * * * * X , y.a 7 a 8 7 7 a 7 a ) 9.9.9.9.",
"O.O.O.O.O.O.O.K a d d d d a a a d d d d a a a a K K K K K K K b K t.f K K K K K f K K K K K K K a - - - o X o o & - < 7 K 9.f.k.~ > > > > > > > > > > > > > > > > > > > > > > > > > > > > > > > > > > > > > > > > > > > > > - - O.K 7 7 7 7 8 7 7 a ] 9.9.9.9.9.",
"O.O.O.O.O.O.O.) a d d d d d a a d d d d a a a a K K K K K K K 7 O.O.f K K f 7 a < 7 f K K a a a 7 < 7 a 1 , 7 K t.f.f.9.K d d d ; > > > > > > > > > > > > > > > > > > > > > > > > > > > > > > > > > > > > > > > > > > > > > * 7 K a 7 7 7 7 7 8 V ] 9.9.9.9.9.9.",
"O.O.O.O.O.O.O.K a a a d a d a a d d a a a a d a V a b K K K K < K K K K a 7 - 7 , - < 7 7 K m.c.a.f.f.c.f.K ] t.O.b < > > > > > > > > > > > > > > > > > > > > > > > > > > > > > > > > > > > > > > > > > > > > > > > > > > * - d 7 7 7 7 7 a a ) =.9.9.9.9.9.9.9.",
"O.O.O.O.O.O.O.) V a d a a a a a a a a a a a d d a a a K K K V < a a a 7 , - - 7 < - - 7 N.~.Y.c.t.=.O.O.7 & 7 b d > > > > > > > > > > > > > > > > > > > > > > > > > > > > > > > > > > > > > > > > > > > > > > > > > > > = o ; 7 7 7 7 d a ) 9.9.9.9.9.9.9.9.9.9.",
"O.O.O.O.O.O.O.K a a d d d a a d d d a a a a d d a a a a a a < & * * * * * * - < < - - a b.x.a.} b a b a - * a b < > > - = - - > > > > > > > > > > > > > > > > > > > > > > > > > > > > > > > > > > > > > d > > > > > > - o o 7 d 8 7 8 7 K 9.9.9.9.9.9.9.9.9.9.9.",
"O.O.O.O.O.O.O.) a a a a d d d d d d a a a a d 7 < , 1 7 < < , 1 8 D | 9.t.f.N.L.N.g - ; b b K b b b b 7 & < b 7 ; = - - - - * = - - = > > > > > > > > > > > > > > > > > > > > > > > > > > > > > > 5 > > d b > > > > * X & < a 7 7 7 a a ] 9.9.9.9.9.9.9.9.9.9.9.",
"O.O.O.O.O.O.O.O.K a a a a a d d d d d d a a 7 * & O.N.Z.N.Z.Z.Z.N.Z.Z.Z.Z.L./.[./.) 5 - 7 b b b b b b - * d b > > - - - - - * * - * - > > > > > > > > > > > > > > > > > > > > > > > > > > > ; 5 h g h d < - - - - & X - 7 d d 7 g ) ] O.9.N.U.U.m.f.f.f.9.9.9.9.",
"O.O.O.O.O.O.K O.) a a a a a a d d d d d a 7 & 7 b.Z.U.U.U.b.=.O.O.O.O.O.O.O.9.f.L.d 5 - - b b a b b 7 * ; b 7 ; > = - - * * * * * * * - > > > > > > > > > > > > > > > > > > > > > > > > > > 5 g g d < = - - - - - * X < } K d a ] 9.9.9.9.f.m.U.Y.Y.Q.U.9.9.9.9.",
"O.O.O.O.O.) a O.K a a d a a a a a a a a a ; - L.Y.b.9.O.) a a K K ) ) ) ) ) ) V t.=.5 5 - 7 b b d - * < a b d ; > > > - * * * - * * * - > > > > > > > > > > > > > > > > > > > > > > > > > > 5 d 5 ; - - - ; =.< - - @ o 7 a 7 V 9.9.9.9.9.9.9.9.9.9.9.9.9.9.9.9.",
"O.O.O.O.) b a ) a a a d a a a a a a a a a - 7 Z.b.a a d a a a K ) ) ) ) ) ) ) d 7 =.h 5 - * d 7 * * < b b b 5 ; > > > > - * * * * * * * - > > > > > > > > > > > > > > > > > > > > > > > > > ; ; > ; < < < 7 O.7 - - * o < a a ] 9.9.9.9.9.9.9.9.9.9.9.9.9.9.9.9.",
"O.O.O.) b a a K a a d d d d a d a a a a 7 - K f.K a a a a a a ) ) ) ) ) ) ) K d 5 d V 5 5 * * * * 7 b b b b < > > > > > - * * * * * - - - - > > > > > > > > > > > > > > > > > > > > > > > > ; 5 b V a a d d a a - - * * , 7 a =.9.9.9.9.9.9.9.9.9.9.9.9.9.9.9.9.",
"O.O.O.K b 7 a V a a d d d d d d a a a a < - O.K a a a a a V K ) ) ) ) ) ) ) V 5 5 5 5 5 5 = o o < b b b b b 7 > > > > - - * * * - - - - - - - > > > > > > > > > > > > > > > * = > > > - * < K O.K a a a d d d b < - - - ; a K 9.9.9.9.9.9.9.9.9.9.9.O.9.9.9.9.9.",
"O.O.) b b < a V a a a a a a a a d d 7 7 - 7 O.K V K K K ) ) ) ) ) ) ) ) ) K d 5 5 5 5 5 5 5 * o - b b b b b < > > = - * * * * * * * * - - - * > > > > > > > > > > > > > > > * - = * & * 1 K K a a a d d d d a a K ; - - ; d K 9.9.9.9.9.9.9.] K K K K 9.9.9.9.K ",
"O.O.K b b ; a a a a a a a 7 < - * & & o o < K ) ) ) ) ) ) ) ) ) ) ) ) ) V 5 5 5 5 5 5 5 5 d - o * a b b b d ; > > - - - * * * * * * - - * - * - > > > > > > > > > > > > > - @ o & - 7 K b a a a a a a a d d a d V b - - - 7 K O.9.9.9.9.O.K b b b b ] 9.9.O.K b ",
") b b b b - d a a a d < - & X X X X X X & * - K ) ) ) ) ) ) ) ) ) ) ) ) K 5 5 5 5 5 5 5 7 } > o * d b b b 7 ; > > - - - * * * * * * * * * * * * > > > > > > > > > > > > - & & ; a O.K a a a a a d a d a a a a a d K 7 - - 7 a K 9.9.9.O.K b b b b K =.9.O.V b b ",
"K b b b a - a a a < * & & - < & X X o 7 a.O.a 1 a K ) ) ) ) ) ) ) ) ) ) ) a 5 5 5 5 5 5 5 ) a & & 7 b b b < > > > - - - - * * * * * * * * * * - > > > > > > > > > > > ; @ * d b O.V a a a a d d a a d d a a d a d a d ; - > a V 9.O.K V b b b b b V K ] K b b b ",
"b b b b 7 * - - - & - 7 K 9.k., o - t.Y.U.L.m.t.a 7 K ) ) ) ) ) ) ) ) ) ) ) g 5 5 5 5 5 5 d ) * o 7 b b b 5 > > > > - - * * * * - - - * * - - > > > > > > > > > > > 7 a - & 7 K O.a a a a a a d a a a a a d d d d d d d < - d b O.K b b b b b b b b b b b b b b ",
"b b b a * * * & o * t.t.=.) V ; ; f.Y.x.O.O.f.Z.L.f.) ) ) ) ) ) ) ) ) ) ) ) ) a 5 5 5 5 5 5 V - o < b b b 7 > > > > > - * * * * * * * * * - - > > > > > > > > ; 5 a K t.< o < K O.a a a d d d d a a a a a a d d a a d d a 5 7 b V b b b b b b b b b b b b b b b ",
"b b 7 * b Z.b 7 7 - 1 b a a d ; a k.t.) ) ) ) ) O.=.) ) ) ) ) ) ) ) ) ) ) ) ) ) d 5 5 5 5 5 d * o < b b b 7 ; > > > > - * * * * * * * * * * - > > > = * - > 5 V =.K K O.a o - ~ } d a a a d a a a a a a d d d d a a a a a d 7 a b b b b b b b b b b b b b b b b ",
"b 1 - 2.U.f.a a a < - a a a 7 - K ) ) ) ) ) ) ) ) ) ) ) ) O.t.=.O.O.O.) ) ) ) ) K 7 5 5 5 5 ; & o - b b b d > > > > - - * * * * * * * * * * - > > * * < K O.O.K V a a a d * * ~ ~ d a a d d a a d d a a d d d d a a a a a d < a b b b b b b b b b b b b b b b b ",
"; - b.U.K a a a a 7 b } d a - - K ) ) ) ) ) ) ) ) ) ) ) O.c.c.c.c.c.c.9.) ) ) K g 5 5 5 5 > = V 7 * 7 b b b < > > > - * * * * * * * * * * * - - * - k.=.K a a d a a a d a < @ V K a a a d d a a d d d d d d d d d a a a d d < < b b b b b b b b b b b b b b b b ",
", k.Z.K d a a a a d t.O.d a , < V K K K K K ) ) ) ) ) ) f.L.G.m.c.c.c.f.O.) ) K 7 5 5 5 5 = 5 h ) < - b b b 5 > > > - - * * * * * * * * * * - ; & 1 Z.a a a a a a a a a d 7 & * 7 a a a d d d d d d d d d d d d a a a a a a 7 - 7 b b b b b b b b b b b b b a ; ",
"v.k.K a a a d d d d f.O.d a a a a a a a a a b K =.9.=.a.L.m.c.c.c.c.c.c.=.) ) ) g 5 5 5 = - 5 5 5 5 * 7 b b 5 > > > - - * * * * * * * * * * , 1 * - k.a a a d d a a a a a a - X 7 a a a a d a d a a d d d d a a a a a a d a d - ; b b b b b b b b b b b V 7 - , ",
"t.V a a d d d d d a x.K d d a V K K K K O.t.y.U.[.Y.L.L.L.L.n.c.c.c.c.c.t.) ) ) a 5 5 5 * 5 5 5 5 5 & - a b > > > > - - - * * * * * * * * - < 1 , & O.a a a a a a a a d a a - @ ~ a a d a d a a a a a d d d a a d a a a d d a 7 * 7 b b b b b b b b b b 7 - 1 b.",
", 7 a a a a d d d K k.a a a d d b O.O.O.9.b.Z.E.].Q.L.L.L.L.m.c.c.c.c.c.t.) ) ) d 5 5 < - 5 5 5 5 ; o o < b < > > > - - - * * * - - - - - , 1 1 1 & & ; < - - ; < 7 7 a a a * < k.d d d a a a d a a d d d d a a d d a a a a a ) - - a b b b b b b b a , * 1 k.O.",
", < a a a a d d d O.O.d a a a a a K O.O.O.O.O.O.t.m.c.c.L.L.m.c.c.c.c.c.t.O.) K 7 5 5 5 - 5 5 5 5 - o o - b 7 > > > - - - - * * - - - - ; 1 1 1 1 , X o * - ; < < < , , < ; - u.A.d d d a a a d a a d d d d a a d d a a a a a :.g * - a b b b b b 7 - - D k.b < ",
", , 1 a a a a d a O.V a a a a a a a K O.} } O.O.9.x.f.c.x.m.m.c.c.c.c.c.c.f.=.K 5 5 5 5 5 5 5 5 5 * o o - 7 d > > > = - * * * * - - - - < 1 < , , , & & d a a a a a d 7 5 < 7 } -.d a a a a d d a a a d d a a a d d d d a a a &.&.< & - < b b a < - 7 t.k.8 , < ",
"; ; , 7 a a a d a } a a a a d d a a V O.O.O.O.O.=.c.9.c.c.c.c.c.c.c.c.c.c.c.=.K d 5 5 5 5 > - ; < b - o @ - < > > > > - * * * * * & & & & & & * * * - @ 7 a a K =.O.O.=.K a a d d d a a a a d d a a d d d a a a d d d d a a V &.:.g * & * < < - - 8 t.y.7 , < < ",
"; ; ; 1 a a a a V O.d d d d a a a a a K O.O.O.O.=.f.O.9.c.c.c.c.c.c.c.c.c.c.=.) d 5 5 5 5 * o < a.b.) * o o * & @ & * & & & @ o X X X o & - , 1 1 1 1 & - a d b } K K K a d a a d a a a a a d d d d d d a a a a d d a a a a :.:.:.:.* & & * * * 1 t.k.1 < < < < ",
", ; , , d a a a b K d d a a a a a V a V ) O.O.O.O.9.O.=.f.c.c.c.c.c.c.c.c.c.a.t.K 7 5 5 * * 7 f.b.b.a.5 o & v.b , - - & o X @ & & * - , 1 1 1 1 1 1 1 , * d a a a a d d a d d a d d a a a a d d a d d d a a a a d d a a a K :.:.:.) * & & & & * 7 b.b ; < < < < ",
", ; ; ; 7 a a a a a d d a a a a K O.O.K V ) O.O.O.O.O.=.=.9.c.c.c.c.c.c.c.c.c.c.=.a 5 ; - g ] =.f.Z.W.=.* & Z.b.^ K K D ; & * < 1 v F 8 1 1 1 1 1 1 1 < & < a a a a a a a a d a d d d d a a a d a a d d a a a a d d a a a :.:.:.:.g & & * ; - * < ~ < < < < < < ",
"; ; ; ; < d a a a a d d a a a a K O.O.O.) ] O.O.} O.O.O.O.9.c.c.c.c.c.c.c.c.c.c.t.7 ; < K ] ) ) 9.U.L.=.< o 7 v 8 7 a a , , , v F F F 1 1 1 1 1 1 1 1 1 & * a a t.b a a d a a a d d d d a a d d a a d d d d a a d d a a a &.:.:.:.5 , a =.f.f - - a < < < < < < ",
", , ; ; ; < 1 a a a a a a a a K O.O.} O.O.) O.O.O.O.O.O.O.a.c.c.c.c.c.c.c.c.c.t.a - 5 ) &.) ) ] O.=.) &.K & * < < < < < , , , , , , , , 1 1 1 1 1 1 1 1 * * a b Z.K d a d d d d a a a d d d d d a a a a d d d d d d d d a &.:.:.d a W.L.f.Y.b.7 - a b 7 < < < < ",
"; ; ; ; ; ; < a a a V O.O.) ) O.O.O.) O.O.) O.O.O.O.O.O.O.9.c.c.c.c.c.c.c.=.a < < g ] ] &.&.&.&.) ] ] &.&.- @ < < < 1 < < , , , , , , , , , , 1 1 1 1 1 * , a t.Z.a d a d a a d a a a d d d d d a a a a d d d d d d a a a &.:.d K [.[.p.f t.L.K - 1 K K 7 < < < ",
"; , , ; ; , < a d ] f.t.t.f.k.9.O.O.O.O.O.O.O.O.O.O.] O.O.O.a.c.c.c.t.) V O.=.K ) &.&.] ] ) ) ] ) ] &.&.] V * - 1 < < < < < , , , , , , * * * * * , 1 1 * ~ K Z.O.d a a a a d d a a a a d d a d d d a d d d a a a a a a a &.7 7 [./.9.f f f ) a * - D K a < < < ",
", ; , , ; , 7 a d a b a a K t.9.b.b.t.O.) O.} ) O.O.O.O.O.O.=.9.] 7 a L.^.U.t.&.] &.) ) ) &.&.) ] ] ] ] ) &.g - < < < < < < , , , , , * , a K 7 < * - , < t.b.k.d d a a a a d d a a a a d d a a d d d d d d a a a a a d 7 d - U.Q.] f f f f f f - * 7 K a < < < ",
", ; ; ; < < 7 a a a d d a V O.O.9.b.U.Z.b.a.O.O.O.O.] O.O.O.V < 7 U..X(.c.&.) ] ) ) ) &.&.&.) ) &.) ] ] ] &.] , ; < < 1 < < , , , , & * a U.Z.f.O.a ; & ~ b.Z.b d a a a a a a d d d d d a a a a d d a a a d d d a a a a - - f.U.&.f f f f f f f a * ; K K 7 < < ",
"1 < < < 7 a a a a a d a K K O.O.O.O.t.Z.Y.Y.Z.9.O.O.O.O.] < * f..X.XU.=.) &.] &.&.] ] ) ] &.] &.&.&.&.&.] &.] - & < < 1 < < , - , * & < U. XO.~ t.t.K @.Z.E.O.d d a a a a a d d d d d d a a a a d d a a a a d d a a a 7 - O.W.9.f f f f f f f f f 1 * 8 K f < < ",
"a d a a a a a a a a a ) ] ) O.O.} } O.O.9.9.f.Z.f.O.O.O.< * L.[.Y.t.) ) ] &.) &.&.) &.] ] &.) &.) ] ] ] ] ) 7 < ; ; < < < 1 , * , & - Z.oXk.d a a | O.Z.E.O.d d a a a a a a a a a a d d a a d d d a a a d d d d a a < * a L.9.f f f f f f f f f f f ; - a K 8 < ",
"a a a a a a a a a a a O.O.O.O.O.O.O.O.O.} O.O.=.f.O.O.7 - U.T.e.) ) ) ] ] &.) ) &.&.&.] ) &.&.&.) &.] ] ) < 7 f.O.- < < < < , * , & < W.Z.d a a a d a O.O.d d d a a a a a a a a a 5 - 7 a d d d a a a a d d d d a < * < b.=.f f f f f f f f f f f f f < ; a a 7 ",
"7 a a a a a d d a b K O.O.O.O.} O.O.O.O.O.O.} O.O.K < * t.U.c.=.&.] ) ] &.&.] ) ) ) ) ) &.) ) ) ) ) &.) , , U.c.f.8 , < < < < * & & < t.7 < 7 d a a a a a d d d d d a a a a d d < < d a a a d d d a a a a a a a < - K f.9.) f f f f f f f f f f f f f f < * ; < ",
"- a a a a a d d d V O.O.) K O.O.O.O.) } O.O.) O.V * o 7 O.c.c.=.&.&.) ) &.] ) ] ] &.&.) &.&.) ) &.) ) a 7 L.U.f.f.9.- - , < < & * & < a < ; < d a a a a d d d d d d a d a a d < 7 f.K a a a d < 7 a a a a a a < 7 f.c.f.9.j f f f f f f f f f f f f f f < * ; < ",
"- a a a d d a a a b K O.O.O.O.O.O.O.O.O.O.O.O.a * * a =.a K B.t.) &.) ) &.&.&.) a 9.O.) ) &.) ) &.=.&.t.U.L.f.f.f.f.7 X & < , & ; ; < 7 < < ; 5 d d a a a a a a d d d d a d < b v.K a a a a 7 - 7 a d a a a 7 , b.N.b.c.t.] f f f f f f f f f f f f f 7 < - ; < ",
"- a a d d a K ] } ] ) } O.O.O.O.O.O.O.O.O.O.a - < x.Y.x.d - c.t.) &.] ) ] ] &.5 7 a.=.) ] &.) &.=.a.c.L.b.f.f.f.f.f.O.& X - - - b O.< < < < ; < d d a a a a a a d d d d a 7 O.k.K a a a a a , - d d d d a d - =.R.m.] 9.] f f f f f f f f f f f f f 7 7 f d - < ",
"- d d d V ] ] O.O.O.O.O.O.} O.O.O.O.O.O.O.7 ; ~ } -.O.} K * ) e.] ] &.) ] ] d * =.a.&.] ] ] ] &.a.f.b.f.f.f.f.f.f.f.f.- X o - b ].Q.< < < < < < 7 a a a a a a a a a a a a t.t.V d d a a a a - - a d d d a < 7 Y.P.9.] f f f f f f f f f f f f f f f g f f f < < ",
"- d a a ) O.O.O.O.O.O.O.O.O.O.O.O.O.O.O.7 - O.O.~ } } } } ; - t.) ) ) ] &.7 * a f.a.=.&.&.&.&.;.f.f.f.f.f.f.f.f.f.f.f.a X & 7 Q. XO.7 < < < < < 7 a a a a d d 7 7 7 d a a b a a d d a a a a - - a d d d < - b.Y.] f f f f f f f f f f f f f f ) j f f f f f g < ",
"- a K K O.O.O.O.O.) O.O.O.O.K O.O.O.) 7 - ~ O.~ } } } } } d & a ] ] &.) - % 7 a.f.f.9.) ) ) &.a.f.f.f.f.f.f.f.f.f.f.f.K X - m.[.t.b a < < < < < < 7 a a a < < < ; < d a a d a a d d a a a a , - d a ) 7 - O.Y.p.f f f f f f f f f f f f f ) &.;.) f f f f f f a ",
"& K O.O.O.O.] O.O.O.O.O.O.O.) O.O.a - - O.t.~ ~ } } } } } ~ - * g ) 7 ; K a.a.f.f.f.a.] ) &.9.f.f.f.f.f.f.f.f.f.f.f.f.K o - k.O.b b a < < < < < ; < 7 7 < < < < b Z.V d d d a a d d a a a a < - 7 9.t.- K U.G.f f f f f f f f f f ) &.&.;.e.;.&.j &.) &.:.) f f ",
"o 7 O.O.O.O.O.O.O.O.O.O.} O.O.K < @ - t.k.O.} } } } } } } } c - 5 5 V Q.Y.x.f.f.f.f.t.=.9.a.f.f.f.f.f.f.f.f.f.f.f.f.f.O.@ - b b b b a < < < < < ; ; < < < < < t.}.Z.a d a a d a d d a a a a < * 7 t.; 7 L.U.] f f f f f f f f f f &.e.e.e.&.&.e.e.e.e.e.e.) f f ",
"X & K O.O.O.O.O.O.O.) O.O.O.7 * o - t.k.O.} } } } } } } } } K ; ; < [.Q.c.c.f.m.m.f.f.f.f.f.f.f.f.f.f.f.f.f.f.f.f.f.f.t.* * b b b b b < < < < < ; ; < < < < < O.t.a d a d d d d d d a a d < - & - , - x.Y.9.f f f f f f f f f f f &.e.t.) &.e.e.e.e.e.e.e.) f a ",
"* o , O.O.O.} ) O.O.O.O.K , o o ; O.k.t.} } } } } } } } } } } 7 ; c `.T.T.U.P.P.m.f.f.f.f.f.f.f.f.f.f.f.f.f.f.f.f.f.f.f.< & a b b b b 1 < < < < ; < < < < < < d d a d a d d d a a a a 7 - * * & & * O._.c.f f f f f f f f f f f f ] e.e.e.e.e.e.e.e.F.r.e.) f - ",
"K 7 & a O.O.O.O.) O.O.a - o o * V } O.b V } } } } } } } } } } V < < =.U.T.T.T.P.c.f.f.f.f.f.f.f.f.f.f.f.f.f.f.f.f.f.f.f.K @ 7 b b b b < < < < < ; ; < < < < 7 a a a a a d d d a a a 5 - , 7 7 * & 7 _.Z.f f f f f f f f f f f f f ) e.e.e.e.e.e.e.e.J.F.e.K - o ",
"] ) - - O.O.O.O.O.O.7 & o , 7 7 } V < , < 7 ~ } } } } } } } } } a d a =.T.T.T.G.f.f.f.f.f.f.f.f.f.f.f.f.f.f.f.f.f.f.f.b.f.< , V b b 7 < < < < < < < < < < < < d d d a a a d d a a 7 ; 8 K O.K - - _.E.j f f f f f f f f f f f f f j t.e.e.e.e.e.e.r.J.J.e.7 o * ",
"] ] V * K O.t.O.O.7 o @ D Z.Z.O.} 7 < < , < K } } } } } } } } } =.Z.t.5 c.T.P.c.f.f.f.f.f.f.f.f.f.f.f.f.f.f.f.f.f.f.f.U.Q.f.- - < < < < < < < < < < < < < < < 7 a d a d a a a a 7 , a K K x.1 & Z._.] f f f f f f f f f f f f f f f ] t.e.e.e.e.H.J.J.H.c.; $ 7 ",
"&.&.] , < f.Z.O.7 o & y./.Q.b.a.} 7 < < ; 7 } } } } } } } } } } O.U.U.K 5 m.m.f.f.f.f.f.f.f.f.f.f.f.f.f.f.f.f.f.f.f.f.f.Z.Y.b o , , < < < < < < < < < < < < < 7 a a d d d d a d < O.f.a < 1 * v }.9.f f f f f f f f f f f f f f f f f f j ) t.e.H.J.J.J.F.= < t.",
"&.] ] K - y.f.7 o & f.].^.b < b V 5 < < < < b } } } } } } } } } } x.x.} < 7 f.f.f.f.f.f.f.f.f.f.f.f.f.f.f.f.f.f.f.f.f.f.f.b.t.& ; < < < < < < < < < < < < < < d a d d d d d a 7 9.U.9.* & & * _.E.f f f f f f f f f f f f f f f f f f f f f &.e.c.c.H.J.e.= O.c.",
"] ] ) =.a - K - o t.[.].K ; ; ; < < < < < ; 7 } } } } } } } } } } } } } V - K f.f.f.f.f.f.f.f.f.f.f.f.f.f.f.f.f.f.f.f.f.f.f.a.- ; < < < < < < < < < < < < < < 7 a a a a d a d d O.b * & & $ v }.9.f f f f f f f f f f f f f f f f f f f f f f ;.e.e.e.e.7 7 m.=.",
") &.] a.c.- & * O.[.].O.; < < , < , < < < ; < b } } } } } } } } } } } } } 7 - t.f.f.f.f.f.f.f.f.f.f.f.f.f.f.f.f.f.f.f.f.f.f.f.< ; < < < < < < < ; ; - - - ; < 7 K d a b d d a d - & & - < - F E.f f f f ) f f f j j j f f f f f f f f f f f f ) &.;.e.;.- t.m.&.",
") &.) a.b.b o t.[.].-.< , < < < , < , , < < ; < K } } } } } } } } } } } } ) - d f.f.f.f.f.f.f.f.f.f.f.f.f.f.f.f.f.f.f.f.f.f.f.< ; < < < ; ; - - * * * - , , 7 a t.D < =.V a d - * - D ~ K < < ] f f f ) &.) f f ) &.&.&.&.&.) f f f f f f f f f &.e.e.g < L.a.&.",
"&.&.) t.b.=.* O.L.=.< < < , , , , , < < < < > < V } } } } } } } } } } } } } 7 - =.f.f.f.f.f.f.f.f.f.f.f.f.f.f.f.f.f.f.f.f.f.a.- ; < ; - - - < a 1 ; , , , , , , 7 t.; 7 O.7 - ; g ; ; a c.k h 7 7 a ) :.:.&.f j ) :.:.:.:.:.&.f f f f f f f f f ;.e.e.- g P.=.&.",
"&.) ) =.c.=.& & ; ; ; ; ; , < < < < , , < , ; 1 ~ } } } } } } } } } } } } } K * - O.t.a.f.t.9.9.=.O.O.=.9.9.9.9.9.9.9.=.] V < @ ; 7 a K 9.f.k.9.7 , , , , , , , , 1.1.* ; - a c.:.5 & 7 &.j j k j 7 5 d ) :.) &.:.:.:.:.:.:.&.) f f f f f f f f :.e.:.< c.c.&.&.",
"< < 5 d j 7 * o & ; , - - - - * * * - , ; ; ; < b b 7 7 7 7 b } K K K K b 7 ; * o * - - - - * * * * * < 1 7 7 7 7 5 < - * * o X * 8 Z.U.f.O.] a , , , , , , , , , ~ f.- - 9.G.B.k 5 * 5 h 5 5 h j k h 5 5 5 7 j :.:.:.:.:.:.:.&.) f f f f f f f f g 5 < < * - < ",
"r.r.D.J.D.k j ; o K a 7 7 < ; ; - * & & & & * * - - - - @ * t.Z.~ - * * * * * * - - - - < 7 7 7 * o - a K ] a.c.c.f.9.a 7 7 7 - & - 8 8 7 7 a D 8 , , , , , , , , 7 , < c.G.G.e.k < * 5 g 5 5 5 5 h k k k j 3 * - < g ) :.&.&.:.) g 7 7 7 < ; - * % o * ; 7 j k ",
"K.J.J.K.r.j k 7 @ , 7 O.a.t.~ 7 < < 5 < < < < < 1 7 7 < - 2.E.E.E.b.a - - 7 U.G.B.B.H.H.G.G.H.H.7 $ 7 9.] b.U.U.L.Z.b.K 7 < f.Y.f.D 7 7 1 , - - < , , , , , , , , @ * m.U.H.:.k k - - 5 h 5 5 5 5 h k k :.:.k * & * * * 5 g 7 5 < < < < 7 g &.e.:.5 h e.S.S.S.S.",
":.k :.H.S.j j g - < a ] =.O.~ K b d 7 < < < a O.| -.O.& D E.E.E.E.E.E.t.< b Q.Q.G.B.H.B.B.B.c.9.a * K Z.a K O.O.9.f.f.K a - 1.Y.a.9.t.t.t.t.=.K 1 , - , , , , , -   F |.Y.:.k k j = - 5 5 5 5 5 5 j k k k :.>.k ; < - < r.H.H.r.B.H.H.H.J.H.H.H.H.j h e.S.S.e.k ",
"k k j k :.j j j ; < =.O.] a < 5 7 7 < < < < 7 7 7 K 8 - Z.E.E.E.E.E.E.E.K 5 =.=.O.O.] ] ] ) ) ) K * =.U.a f f f f f f K f - K 9.K K K K ] O.O.9.9.K 1 - * , , , + O '.W.t.f.;.k k - ; 5 5 5 5 5 5 j k k :.>.>.>.:.h * h :.:.:.k r.H.H.e.>.e.B.e.l h 3 :.>.k h 6 ",
"4 4 j j j j j h * O.f.O.&.a < < < < < < < < 5 5 < ~ ; K t.t.Z.L.E.E.E.E.b.7 K ) ) ) ) ) ) ) ) ) b - b.U.a K K K K K K K K < a f ] K K K K K K K K K K a ; & * *   <.'.$.t.f.a.k j 5 7 5 5 5 5 5 7 j k k :.>.>.>.>.>.7 h k k k k :.e.k k k h k k k h 4 e.:.5 6 6 ",
"3 3 h j j j j ; * a.=.&.&.a < < < 7 < < 7 < 7 < < ~ ; K ) ] 9.t.f.b.Z.U.L.b K ) ) ) ) ) ) ) ) ) a - U.Z.a K K K K K K K K a a K O.O.K K K K K K K K K K K 7 , X # '.<.{ f.f.f.:.j 7 h 5 5 5 5 5 h k k k k :.>.>.>.>.:.7 h k k k k k k h 6 4 4 h k k h e.e.6 6 6 ",
"3 3 h j j k h * g ] ) &.&.V < < 5 7 < 7 < < < < 7 O.< K ) ) =.t.t.t.t.a.x.} K ) ) ) ) ) ) ) ) ) 7 < U.f.a K K K K K K K K K K K O.O.K K K K K K K K K K K K a . V.I.F -.f.f.f.:.k k h 5 5 5 5 5 7 j k k k k l :.>.>.>.:.3 h k k k k k 4 4 4 4 4 k k h e.>.6 6 6 ",
"3 3 4 j j k ; d U.&.) ) &.) 7 5 < 5 < < < < < < b | a } ) ) O.t.t.t.t.t.=.) ) ) ) ) ) ) ) ) ) ) , 7 L.O.f K K K K K K K K f K K O.O.K K K K K K K K K K K K < + ).%.O.f.f.f.f.:.k k h 5 5 5 5 5 5 j k k k k k k >.>.>.>.j ; h k k k h 4 4 4 4 4 h k k :.:.h 6 6 ",
"3 3 4 j j g * c.Y.&.] &.] K 5 5 7 7 < < < < 5 < b 7 K ) ) ) O.t.=.=.=.=.O.) ) ) ) ) ) ) ) ) ) K - 7 9.K K K K K K K K K f f K K 9.O.K K K K K K K K K K K K , : Q.t.f.f.f.f.c.t.k k j 5 5 5 5 5 7 j k k k k k k k :.>.>.>.3 ; k k k k h 4 4 4 4 k k k k k h 6 6 ",
"3 3 4 j j g $ x.W.&.) ] ) a < < 7 < < < < < < < 7 K K ) ) ) ) =.O.) ) ) ) ) ) ) ) ) ) ) ) ) ) K - a K K K K K K K K f K f K K K t.9.] O.K K K K K K K f K K 7 2 E.f.f.f.f.c.f.f.k k k 5 5 5 5 7 j k k k k k k k k k :.>.>.:.* h k k k k h 6 4 h k k k k k h 6 6 ",
"3 3 4 j j 5 o =.W.=.) :.) 5 < < 7 7 7 < < 7 7 7 a ) ) ) ) ) ) ) ) ) ) ) ) ) ) ) ) ) ) ) ) ) ) K - 8 K K K K K K K K K K K ] 9.t.f.a.t.t.O.K K K K K K K K K a 7 b.f.f.f.f.c.f.f.:.k k h 5 5 5 h k k k k k k k k k k k :.>.>.5 ; k k k k k k j k k k j h h h 6 6 ",
"4 3 h j j ; o a Y.=.) ) &.d < < 7 < < < < 5 < < 7 ) ) ) ) ) ) ) ) ) ) ) ) ) ) ) ) ) ) ) ) ) ) ) - 7 K K K K K K K K K f ] a.f.f.f.f.f.f.] f K K K K f f K K a < =.f.f.f.f.f.c.f.t.:.k j 5 h 5 h k k k k k k k k k k k k >.>.:.= h k k k k k k k k k h 6 6 6 6 6 ",
"g g j j k ; o g L.a.) ) ) a < < < < < < < 7 < < 7 ) ) b K ) ) ) ) ) ) ) ) ) ) ) ) ) ) ) ) ) ) ) , - K K K K f K K K K K 9.f.f.f.f.f.f.f.] K K K K K K f K K a - a f.f.f.f.f.f.f.f.t.k k j j g j k k k k k k k k k k k k :.>.>.3 3 k k k k k k k k k h 6 6 6 6 6 ",
"j j j j j ; - ) c.e.) &.&.a < < < < 7 < < 7 < < < K 7 7 ) ) ) ) ) ) ) ) ) ) ) ) ) ) ) ) ) ) ) ) < * a K K K K K f ] 9.9.f.f.f.f.f.f.f.f.a.9.K K K K K K K K a - - 9.c.f.f.f.f.f.f.t.k k k k k k k k k k k k k k k k k k k :.e.j = h k k k k k k k h 6 6 6 6 6 6 ",
"j j j j j ; > a.t.t.) ] ] K 5 < < < < < < 7 7 7 < < - V ] ) ) ) ) ) ) ) ) ) ) ) ) ) ) ) ) ) ) ) 7 $ < K f K 9.O.O.9.f.f.f.f.f.f.f.f.f.f.f.t.K K K K K K K K a - < 9.c.f.f.f.c.f.f.t.k k k k k k k k k k k k k k k k k k k :.>.>.; 7 k k k k k k k h 6 6 6 6 6 6 ",
"k k j j j - V a.&.=.&.&.K K 7 < < 7 < 5 7 7 < 7 < - < ) ) ) ) ) ) ) ) ) ) ) ) ) ) ) ) ) ) ) ) ] < $ * a K K =.f.f.f.f.f.f.f.f.f.f.f.f.f.f.O.K K K K K K K K a - } c.f.c.f.f.f.f.f.f.k k k k k k k k k k k k k k k k k k k k :.e.j ; h k k k k k k h 6 6 6 6 6 6 ",
"j j j k j = x.a.) ) ] &.K d < 7 < 7 < < < 5 < < ; * b ) ) ) ) ) ) ) ) ) ) ) ) ) ) ) ) ) ) ] ) K - $ $ 1 K K ] f.f.f.f.f.f.f.f.f.f.f.f.f.t.K K K K K K K K K a ; O.c.c.f.f.c.f.f.c.f.:.k k k k k k k k k k k k k k k k k k k :.>.:.- ; h k k k k k h 6 6 6 6 6 6 ",
"j j j j 5 > L.=.] ] &.&.) 5 < 5 < < < < < 5 < < * * a ) ) ) ) ) ) ) ) ) ) ) ) ) ) K K K V 7 - * $ $ $ - a K O.f.f.f.f.f.f.f.f.f.f.f.f.f.9.K K K K K K K K K f ; O.f.f.f.c.f.c.f.f.f.a.k k k k k k k k k k k k k k k k k k k k :.>.h * h k k k k k h 6 6 6 6 6 6 ",
"h 5 g 5 - ; x.=.) ) ) &.) < < < < < 7 7 7 < < < * $ < K ) ) ) ) ) K K K b a 7 < - - * * * * < 7 * $ $ $ - a O.f.f.f.f.f.f.f.f.f.f.f.f.f.O.K K K K K K K K K K ; } f.f.f.f.c.c.f.f.f.f.:.k k k k k k k k k k k k k k k k k k k k >.:.4 h k k k k k h 6 6 6 6 6 6 ",
"= = ; = - = d ] &.&.) ) a ; < < < < < 7 5 < < ; * o & * ; 7 a 7 7 1 7 7 a 7 * - ] ] 7 , - < ] ] < o * - 7 7 < 7 O.a.f.f.f.f.f.f.f.f.f.f.] f K K K K K f K K K ; ) f.f.c.c.f.f.f.f.f.&.k k k k k k k k k k k k k k k k k k k k :.>.:.h 6 h k k k h 6 6 6 6 6 6 6 ",
"= = = = - - * - < - * * - * & o & * - - - ; - X . X o o & * - < ~ t.k.b.Z.b.f.Y././.Y.7 - * K ] - * 5 b.Y.f.) < - < ] f.f.f.f.f.f.f.f.a.] D K K K K K O.K K K - b f.f.f.f.f.f.f.f.t.k k k k k k k k k k k k k k k k k k k k k :.>.>.k 6 6 j k h 6 6 6 6 6 6 6 6 ",
"- - = = 5 g V a , * o 1 V 7 - * * @ @ X . . . o * * - ; < b O.k.Z.U.Y.U.Y.U.Z.L.m.Z.b.b $ * a K * 5 b.XXY.a.f.f.9.a - 7 O.t.a.a.f.t.O.K K K K K K K f ] t.K K ; a f.f.c.c.f.f.f.f.t.k k k k k k k k k k k k k k k k k k k k k k :.>.:.h 6 h j h 6 6 6 6 h h 6 6 ",
"= - - = ) c.t.a.O.- < O.V 7 7 < ; ; > 7 - - 7 ~ K b b K t.k.k.k.b.b.k.k.k.k.k.k.k.k.k.t.* $ 7 d * =.[.R.j j ) =.9.a.K - < 5 d V d d a K K f K f K K K K O.O.D ; d c.f.c.f.f.f.f.f.t.k k k k k k k k k k k k k k k k k k k k k k k >.>.:.h h h 6 5 4 4 4 4 4 4 5 ",
"= = < = 5 9.g g d - < a a a a a a < 7 ~ 7 7 a V K K b K f.k.k.k.k.k.k.k.k.k.k.k.k.k.k.k., o < < < T.R.g h g h g g d * 5 j ) ) j d 5 < 7 a f K f K f K K K t.K - 7 f.f.f.f.f.f.f.a.) &.k k k k k k k k k k k k k k k k k k k k k l >.:.k h ; = = ; < < - * % o o ",
"; 9.Y.=.) &.g g d - - d a a a a 5 - * - ; - 7 7 7 a a a } k.k.k.k.k.k.k.k.k.k.k.k.k.k.k.< o - * ;.Y.j g g g g g g ; = j c.=.:.a.x.) h 7 5 5 7 a g K f f f O.O.- < f.f.c.c.f.f.f.f.g t.k k k k k k k k k k k k k k k k k k k h h 7 ; * % o o * 7 f f f f a - * * ",
"U./.R.=.g g g g h ; - 7 a a a a 7 - * - * - - > - 7 a a V k.k.k.k.k.k.k.k.k.k.k.k.k.k.t.- * - - V a h g h g g g h - g c.&.h h g :.=.g g g d 5 < < 7 a g K K K - < f.f.c.f.c.f.f.a.&.G.:.k k k k k k k k k k k k h h h h 7 3 3 < < 7 d - o - a f ) ] f f f g - - ",
"~.T.:.h g g g g g 5 - 5 a a d d d = * - * - > - * - a b O.k.k.k.k.k.k.k.k.k.k.k.k.k.k.K - b.W.b ; < d g h h h g 5 5 a.t.g g g g h g g h g g g g 7 5 ; ; < < - - - ) f.f.f.a.f.9.< V G.k k k k k k k k h h 5 ; - - < 7 a g ) &.&.) ) ) a ; f f ] x.x.K f a < 7 a ",
") j h g g g g g g d - < a a a d d ; * - * - 7 5 - * a f.k.k.k.k.k.k.k.k.k.k.k.k.k.k.t.- , E.].K ; > < 7 h h g h 5 g t.g g g g g h h h h g g g g g g h 5 = - = 5 - - d O.K > V < - f.r.k k k j h 3 = * % * - 7 a ) &.t.e.c.D.c.&.) ) K a < g f b.b.8 1 < a c.T.K ",
"7 7 g V V V K K V g < < a a d d d < - - ; 7 a a < * - t.k.k.k.k.k.k.k.k.k.k.k.k.k.t.< 7 < k.k.< > > > > 5 d h h h g g h g g g g h h g g g g g g g g g g 7 > 5 g h 5 - - - * - - g U.:.h 3 * o o o * ; 7 f ) ) ) :.t.&.e.B.B.r.&.) ) ) g - 7 7 =.7 - 7 c.Y.!.U.K ",
"K a V ) ) } } } } ) V 7 V a d a d d 7 7 d a a a a < * - t.k.k.k.k.k.k.k.k.k.k.k.@.< 8 ~ K t.7 > > > 5 5 5 5 h g g h h h g g g h g h g g g g g g g g g g h < 5 g g g 7 - * * * > t.m.- o X & ; a f ) ) ) ) ) ) K ) K K ] e.B.B.&.K ) ) a * - - - - ) T.R.U.c.K d ",
"} ) } } } } } } } } } b V V d d a a a a a a d d d d < * < k.k.k.k.k.k.k.k.k.k.@.; 8 ~ ~ t.b ; ; < > < < d g g g g g g g h h h h g g g g g g g h h h g g g 7 5 g g g g h 5 = * - ; - ; k.f.K ) ) ) ) ) ) K ) ) ) ) ) ) ) &.r.D.&.) ) ) < o $ - < ] T.U.t.V d d d ",
"} } } } } } } } } } } K V K a d a d a a a a d d d d a 7 * b E.Z.k.k.k.k.k.k.k.7 1 ~ ~ t.O.< ; ; < < < 5 h g g g g g g g h g h h g g g g g g g g h h g g g h 5 h g h 7 7 h h 5 * o * m.R.t.K ) ) ) ) K h g ) ) ) ) ) ) K f &.r.t.K ) f * o * - K B.t.g a a a d d ",
"} } } } } } } } } } } ~ V K a a d d d d a d d d a a a a 7 ;  X}.k.k.k.k.k.k.K 7 K O.t.@.< ; ; > < < < d g g g g h h g h g g g g h g g g g g g g h h g g g h 5 h g h 5 5 5 7 h 7 * & g t.=.K ) K K g 7 5 d ) ) ) ) K 7 7 < 7 e.e.a a - * - - 5 ) V a a a a a a a ",
"} } } } } } } } } } } } K V a a d d d d a a d d 7 < < < 5 - C.}.k.k.k.k.k.t.< b ~ k.f.< ; ; ; > < < < 5 h g g g h h h h g g g g h g g g g g g g h h g g g g h h g h 5 5 5 5 7 h h * - &.e.) ) f h 5 5 5 5 V ) K g d 5 5 5 ; e.e.5 * < ] f.t.] 7 ; 7 a a a a a a ",
"} } } } } } } } } } } } } b a a a a d d d d 7 < - - , 7 a O.K @.k.k.k.k.k.b 1 K a.k.5 > > < < > > > < < 7 g g g h h g g g g g g h h g g g g h h g g g g g g g g g g h 5 5 5 5 7 g 7 * d e.] ) g 5 5 5 5 5 7 K ) d 5 5 5 5 ; 5.t.- a c.m.c.] ) ) < - < 7 a a a a ",
"} } } } } } } } } } } } } b d a a a d d d a a b K K K O.k.Z.Z.K ~ k.k.k.t.< b t.k.7 ; > > < > < > > > < 7 g g g g h g g h h g g h h g g g g h h g g g g g g g g g g h 5 5 5 5 5 d g 5 * ) &.K a 5 5 5 5 5 5 g g 5 5 5 5 5 5 7 5 &.W.~.m.V d d ) K 7 - - - < 7 d ",
"} } } } } } } } K V } } V a d a a a a a d a K K K V V ~ ~ ~ ~ @.< O.k.t.1 7 O.k.b ; > > < > < < > > > > 5 h g g g g g g h h h g h g g g g h h h g g h g h h g g g g h 5 5 5 5 5 5 h g ; * f ) g 5 5 5 5 5 5 5 5 5 5 5 5 5 * 5 P.{./.c.a d a d a ] ) a d 7 < - - ",
"} } } } } } ~ a 7 V } } K a a a a a a a a d a a a a K ~ ~ ~ ~ ~ 7 - b < 7 t.k.~ ; > < < > < < < > > > > < h g g g g g g h h h g h h g h g g h g g g h h h h h g g g g 7 5 5 5 5 5 5 g g = - g 7 5 5 5 5 5 5 5 5 5 5 5 5 ; * U./.m.K d a a a d d a K ) ) ] ] ) ] ",
"b.O.} } } } b 7 K } } } K a d a d d d d d d a a a b ~ ~ K ~ ~ ~ K - & | U.Z.} > > < < > > < > > > > > > > d g g g g g g h h h g g h h j :.j g g g g g g g g g g h h h 7 5 5 5 5 5 5 7 g 7 * ; 5 5 5 5 5 5 5 5 5 5 ; = - - < U.) 7 d d a d d d d d d a a a K ] 9.",
"t.O.} d V K b } } } } ~ V d a a d d d d d d a a a b K K b ~ ~ ~ ~ 7 * b ~ 7 > > > < < > > > < < > ; > > ; 5 g g g g g g h h h g h h h >.r.j g g h h g g g g g g g g h 5 5 5 5 5 5 5 5 h g 5 * 5 5 5 5 5 5 5 5 5 ; * - 7 d < V d d d d d a a a a d a a a d d d d ",
"} } } 7 - < d } } } } K a a a a a d a a a a a a a a b V K ~ ~ ~ ~ b ; * - - - ; < > > < < < > ; ; ; ; < ; < h g h h h g j g g g g g j ;.:.j h h h h h g h h g g g g g h 5 5 5 5 5 5 5 h g h * * 5 5 5 5 5 5 ; * * ; d a a d d a d d a a a a a a d d a a a a d d ",
"} } } V < d } } } } } } V a a a a a a a a a a a a a a b ~ ~ ~ ~ ~ ~ 7 - & o & & - - - - - - * * * * * - ; 7 V ) :.:.:.;.e.g h g :.:.:.:.:.:.j j g h h h h h h h g h g g h 5 5 5 5 5 5 h g g ; o = 5 5 5 5 * $ < g 5 7 7 5 d a a d a a a a a a a d d a a a a d d ",
"} } } } } } } } } } } } K a d d a a a a a a a a a a a V K ~ ~ ~ ~ ~ b ; & * b < & & * * * * * * * - - < K =.;.=.a.c.c.m.G.=.g j :.:.;.>.>.:.:.:.g g g g h h h h g j j g g 7 5 5 5 5 7 h g g 5 o & > - * o * K ] 5 > ; < > < d a a a a d d d d d d d d a a a a d ",
"} } } } } } } } } } } } K a d V a d a a a a a a a a b a.k.O.~ ~ ~ ~ a < * & 1 a ; < b b ; - - - - - ; < < > < < d g j j :.;.j j :.>.F.F.e.:.:.j g g g g j j g h j :.:.j h 7 h h 5 7 g g g g 5 o = = $ o * =.O.7 ; > > > > > > d a a a a d d d d d d a a a a a d ",
"} } } } } } } } } } } K K =.b.c.V d d d d d a a d a K ~ @.O.~ ~ ~ ~ D < - & - V O.x.k.< - - - - - - > > > > < d h h h h h h g :.:.>.F.F.e.:.j g g g g g ) :.j g :.:.:.:.g h h g h h g g g g 3 $ ; 5 5 * K 9.a 5 > > > > > > > > < 7 a a d d a d a a a a a a a a ",
"} } } } } } } } } } } a.m.c.O.a d d d d d d a a d d a K ~ ~ ~ ~ ~ ~ ~ 7 ; - < } Z.Z.< * * - - - - - > > > > < h g g g g h h h j :.e.F.F.e.:.:.g h g h g &.:.:.:.:.:.:.j g g g g g g g g g g - 5 =.&.g * a V a < > > > > > > > > > > 7 d a d a a a a a a a a a a ",
"} } } } } } } } } t.U.P.} d d a a a d d d a a a a a b ~ ~ ~ ~ ~ ~ ~ ~ b < , < K f.< * * - - * * * - ; ; ; > > d g h h h h g g g :.e.F.F.e.:.:.:.g g g j :.:.:.:.:.:.j g h h g g g g g g g h - } ,.,.-.> = < < > = > > > > > > > > > ; > d a d a a a a a a a d d ",
"} } } } } } } } } a.x.} V d a a a a d d d a a a a a K ~ ~ ~ ~ ~ ~ ~ ~ ~ b ; , K K - - * - - * * * * - ; > > < d g g h h g g g g :.;.e.F.e.:.:.:.:.:.j :.:.:.:.:.:.j g g h h g g g h g g g 5 7 ,.,.,.-.5 * o * - - * * * - = > > > > > > 5 a a a a a a a d a d d ",
"} } } } } } } } } } } } V a a a a d d d a a a a d a K ~ ~ ~ ~ ~ ~ ~ ~ ~ ~ 1 - ~ K , ; - - - * * * * - ; < > 5 g g g g g g g g g j &.:.:.:.:.:.:.:.:.:.:.:.:.:.:.g g g g g g g g h h h g g < } ,.,.,.} d > * * > 5 < - * o o & * - = = > > d a a a a d d d d d d ",
"} } } } } } } } } } } } } b d a d d d d a a a a a b ~ ~ ~ ~ ~ ~ ~ ~ ~ ~ ~ K ; < < < ; - - - - * * * * - > > < d g g g g g g g g g j :.:.:.:.:.:.:.:.:.:.:.:.:.:.g g h h g g h g h h h g 7 5 ,.,.,.-.V c > = * * = = ; ; - - * o * * * - - < a a a d d d d d d d ",
"} } } } } } } } } } } } } V a a a a a a d d d d a b K ~ ~ ~ ~ ~ ~ ~ ~ ~ ~ ~ 7 - > < ; - * * - - - - - ; < > > < h g g g g g g g h h j &.:.:.:.:.:.:.:.:.:.:.&.j h g g g g h h h g g g g 5 V ,.,.,.} c 5 = = - * = = = = = = = = > 5 K } o * 7 d d d d d a d d d ",
"} } } } } } } } } } } } K a d a d a a a d d d d a a K ~ ~ ~ ~ ~ ~ ~ ~ ~ ~ ~ K - ; < ; - * * - - - - - < < > > > 5 g g g g g g g h g g j :.:.:.:.:.:.:.:.:.:.j g h g g g g g h h g g g h - b } =.=.c z > = = = - - = = = = = = = = = 5 < o - d d d d d d a d d d ",
"} } } } } } } } } } } K a d a a d d a a a a d d a a b ~ ~ ~ ~ ~ ~ ~ ~ ~ ~ ~ ~ < - > ; ; * * - - - - ; < > < > > 5 h h h g g g g h h g g g ) :.:.:.:.:.&.j h h g h h g g g g h h g g g 5 - c z c b c 7 ; = = = = = = = = = = = = = = - o - K a d a a a a a a d a ",
"} } } } } } } } } } } V d d a a d d a a a d d d a K ~ ~ ~ ~ ~ ~ ~ ~ ~ ~ ~ ~ ~ b * - > ; - * - - - ; < < < < < < 5 g h h h g g g h h g g g g :.:.:.:.:.:.j h g g h h g g g h g g g g g ; > c z z c 5 > = = = = = = = = = = = = = = = * ; t.L.a.d a a a a a a a K ",
"} } } } } } } } } } } K a a a a d d d d a d d a b ~ ~ ~ ~ ~ ~ ~ ~ ~ ~ ~ ~ ~ ~ ~ - & ; < ; - - - - ; ; ; > > < 7 h g g g h h h h h h h g g g g j :.&.:.:.) g g h h g g g g g g g g g h - 5 c z z c > = = = = = = = = = - = = = = = * & K x.E.t.d a a a a a a a ) ",
"} } } } } } } } } } } } V d a a d d d d a a d d b ~ ~ ~ ~ ~ ~ ~ ~ ~ ~ ~ ~ ~ ~ K < * * ; < ; ; - * - - * * 5 h g g g g g h h h h h h g h g g g g g j :.j j g g g h h g g g 7 h g g g 5 = z c z z z > = = = = = = = = = * * = = - o . , O.k.Z.b d a a a a a a a K ",
"} } } } } } } } } } } } V d d d a a a a a a d a a K ~ ~ ~ ~ ~ ~ ~ ~ ~ ~ ~ ~ ~ ~ K - o - ; ; - * * < 7 & * h g g h h g g g g g g g g g g g g h h h g g h 7 g g g g g g g g 5 < d h h = < z z c c 5 = = = = = = = = = = - @ @ * o . @ K O.b.O.d a d a a a a a a O.",
"} } } } } } } } } } } } V d d a a a a a a d d a a K ~ ~ ~ ~ ~ ~ ~ ~ ~ ~ ~ ~ ~ ~ ~ b ; * & * & - b b , o = g g g h g g g g g g g g g g g h h h h h h g h 5 g g g g g d 7 d < < < 5 < - 7 c z c 5 > = = = = = = = = = = = - @ . . . 7 O.k.a.a a a d a a a a a V O.",
"} } } } } } } } } } } } V d a a a a d d d d a a a K ~ ~ ~ ~ ~ ~ ~ ~ ~ ~ ~ ~ ~ ~ ~ ~ ~ b - o ; b 7 1 , o - g g g g g g h h h g g g g g g g g h h h g g d ; h h d 5 5 < < 5 < < < < - > c 7 7 7 ; - = = = = = = = = = = = = - o . * O.a.x.a a a a a a d a a a V O.",
"} } } } } } } } } } } } a d d d a a d d a d a a b ~ ~ ~ ~ ~ ~ ~ ~ ~ ~ ~ ~ ~ ~ ~ ~ ~ ~ ~ b * ; 1 1 1 ; o ; g g g g g g g h h g g g g h h g g h g h h g d = 7 5 < > > < < < < < < ; - 5 d < > > = = = = = = = = = = = = = = = - o @ a t.K a a d 7 ; - < d a ) O.O.",
"} } } } } } } } } } } K a a a a a d d d a a b K ~ ~ ~ ~ ~ ~ ~ ~ ~ ~ ~ ~ ~ ~ ~ ~ ~ ~ ~ ~ ~ 7 * < 1 1 - o 5 g g g g g g g h h h g g h h h g g g g h h g h - > < > > < < < < < < < - * > ; > = = = = = = = = = = = = = = = = = = = @ o < 7 < - - - - < 7 a K O.O.O.",
"} } } } } } } } } } } K a a a a a d d d a a a K ~ ~ ~ ~ ~ ~ ~ ~ ~ ~ ~ ~ ~ ~ ~ ~ ~ ~ ~ ~ ~ K - - 1 1 * & 7 g g g g g g g h h g g h g h h g g g g h h g d - = > > < < < < < < < < - * = = - = = = = = = = = = = = = = = = = = = = - . . * < 5 7 a a a a K O.O.O.O."
};
