/* XPM */
static char *texture02[] = {
/* columns rows colors chars-per-pixel */
"128 128 186 2 ",
"   c #230E03",
".  c #261003",
"X  c #2C1506",
"o  c #2E1708",
"O  c #2F1809",
"+  c #311706",
"@  c #341807",
"#  c #321709",
"$  c #341A0A",
"%  c #3B1D0D",
"&  c #3E200F",
"*  c #3E2111",
"=  c #411F0E",
"-  c #42210F",
";  c #4A270E",
":  c #4D290F",
">  c #432412",
",  c #4A2612",
"<  c #462916",
"1  c #4C2A15",
"2  c #472A18",
"3  c #4B2C1A",
"4  c #522B16",
"5  c #592E17",
"6  c #532E19",
"7  c #592F18",
"8  c #4D301D",
"9  c #563017",
"0  c #5C3115",
"q  c #54311D",
"w  c #5B331C",
"e  c #5E381D",
"r  c #62351C",
"t  c #66391E",
"y  c #693B1F",
"u  c #553521",
"i  c #5B3621",
"p  c #573825",
"a  c #5D3923",
"s  c #5F3C29",
"d  c #613720",
"f  c #633C24",
"g  c #6B3D22",
"h  c #643D29",
"j  c #6A3E2A",
"k  c #723E24",
"l  c #674026",
"z  c #6C4125",
"x  c #66412B",
"c  c #6D432A",
"v  c #6F482D",
"b  c #734325",
"n  c #794226",
"m  c #764827",
"M  c #72462A",
"N  c #754728",
"B  c #72452A",
"V  c #7B462A",
"C  c #754829",
"Z  c #76492A",
"A  c #774A2A",
"S  c #75482B",
"D  c #74492B",
"F  c #784A2B",
"G  c #7A4B2B",
"H  c #7C4A2E",
"J  c #7A4C2C",
"K  c #7D4E2D",
"L  c #7E4F2E",
"P  c #7B4B2C",
"I  c #7F502E",
"U  c #6E4730",
"Y  c #6A4531",
"T  c #6E4934",
"R  c #744631",
"E  c #754A33",
"W  c #7B4A32",
"Q  c #7E4D33",
"!  c #7B4D34",
"~  c #714D38",
"^  c #7F4F38",
"/  c #7D5134",
"(  c #735038",
")  c #7D5139",
"_  c #7A583F",
"`  c #804729",
"'  c #824C2E",
"]  c #894E2F",
"[  c #84522E",
"{  c #834E32",
"}  c #894E30",
"|  c #854F38",
" . c #815230",
".. c #825230",
"X. c #815130",
"o. c #875234",
"O. c #875437",
"+. c #845233",
"@. c #8A5332",
"#. c #845835",
"$. c #8C5934",
"%. c #815038",
"&. c #825139",
"*. c #85523A",
"=. c #85543B",
"-. c #87543B",
";. c #84523A",
":. c #88543A",
">. c #88553C",
",. c #89553C",
"<. c #8A553A",
"1. c #8D583C",
"2. c #8F5A3F",
"3. c #8F593F",
"4. c #8C593C",
"5. c #925432",
"6. c #935D35",
"7. c #92563A",
"8. c #935C3B",
"9. c #9A5D3B",
"0. c #A05F3C",
"q. c #966037",
"w. c #96603A",
"e. c #9A633B",
"r. c #9F683E",
"t. c #A0643D",
"y. c #A0683E",
"u. c #895741",
"i. c #855B41",
"p. c #8B5840",
"a. c #8D5F43",
"s. c #8E5A42",
"d. c #905A40",
"f. c #905C44",
"g. c #915D43",
"h. c #866147",
"j. c #8A6046",
"k. c #946047",
"l. c #956144",
"z. c #986042",
"x. c #9C6244",
"c. c #9B6442",
"v. c #9E6844",
"b. c #976349",
"n. c #956449",
"m. c #9A644B",
"M. c #97694C",
"N. c #9D6A4F",
"B. c #9D694D",
"V. c #9B7054",
"C. c #A06643",
"Z. c #A36B42",
"A. c #A96F44",
"S. c #A46C4B",
"D. c #A96F4C",
"F. c #AB714E",
"G. c #B2734B",
"H. c #A16E52",
"J. c #A37053",
"K. c #A47254",
"L. c #AE7452",
"P. c #AF7856",
"I. c #A67658",
"U. c #AA785A",
"Y. c #AD7B5C",
"T. c #AE7C5C",
"R. c #B17653",
"E. c #B37955",
"W. c #BC7D52",
"Q. c #B57E5A",
"!. c #B97E5C",
"~. c #B27F60",
"^. c #C07E51",
"/. c #BB815D",
"(. c #B38061",
"). c #B18060",
"_. c #BE8261",
"`. c #BB8868",
"'. c #C68255",
"]. c #CB8657",
"[. c #C0825D",
"{. c #CB8A5C",
"}. c #C18662",
"|. c #C28A69",
" X c #C98E6A",
".X c #D29060",
/* pixels */
"r r r r r r t g b F N Z K K F g f f t e e w e e e t e e 6 1 1 1 < & % x ) c x c U c c c c j j j j c c j c c N B f e e e e e w w e f f f f e > # X X # > w 1 > > < 3 3 3 3 3 3 3 3 w u u u u i e w w w 1 # # % < > * * % % % % $ # $ w P f w 7 6 6 6 6 6 6 6 7 w ",
"r r r r r r r t g N J K X.X.X.J Z F F Z Z Z Z Z Z M M M M c c c c e & c M.Y.U.T.U.N.l.p.>.&.&.&.&.=.,.,.>.=.=.Q S c j j j f w 6 w e i f f w > # X X # $ 1 u < < < 3 q q 3 3 3 3 6 w u i u i i e w q w 3 $ $ < > % % % % % % % $ # # 1 O.y w w w w w w w w w w r ",
"y y y t r r r t g b n n n n n N M M N Z Z c l f f f f f c l f j c i % q f a.(.~.J.b.f.p.=.&.&.&.&.=.4.4.4.d.d.z.x.g.1.>.W f w 6 6 w w e f 1 % # X X # $ > x 3 > > < i U u 3 3 6 w e i a a a a i u w w q * % > > & % % % % % % # # # 6 o.k r w w r y g g g g y y ",
"g g g g y t t y y g b b b b b b b M c M M c f f f f f f f f f f f q % > a l N.H.p.p.,.&.! E E E E ! ! ! %.=.,.x.C.4.E c f e w 6 6 6 6 w 6 > % $ X X # % - q 3 > > & < Y U 3 3 6 w i a a f f f a i u w e u % * > > % % % % % $ # # $ w @.P g t y k n V V n b b b ",
"V b b b g g y y y g g z b b b b n Z M M c c l f f f f f f f f f f e % % 6 f W a.p.p.>.! E E E E E ! ! ! ! ! E W E c c f r w 6 6 6 4 4 4 > & % $ X X # % > 3 > % % % % < u 3 1 3 q i a f f f f f a i w q 3 < < < > > % % % % # # $ % 4 V ] ` n b P ] @.] ` V V V ",
"` P V V n b g y y y y g b b b b N Z Z Z M c c l f j f f f f f f f f 1 $ > e c p.p.p.&.! E E E E E ! ! ! ! ! E B B c j f e 6 6 6 4 4 1 , > % % $ X X # % < 3 * % % % % % > < 3 6 w i a f f f f f f a i w 6 3 1 < < > * % > % # # $ % 4 g V @.7.@.@.6.8.@.] ] ' ' ",
"@.] ] ` V n g g y y y y g b b b n Z Z Z Z M M c c M c f f f f f l c f & % 6 f ,.p.=.! ! E E E E ! ! ! ! ! ! E D B j f d w 6 4 4 4 , , , > % % $ X X # % 1 < & % % % % % & < 3 6 w i a f f f f f f f a e w 3 3 1 < > > > 3 % $ # $ % 7 g g P 7.9.8.9.9.5.@.@.@.@.",
"5.5.5.@.' V b g y y y y y g b b n Z Z Z Z Z Z N Z Z N c l f f f l c c 1 $ 1 a =.>.! ! E E E E E E ! ! ! ! ! E D c j f e w 6 4 , , > > > > % $ # X X # % 1 < % % % % % % % > 1 6 w i f l l c c c l f a u q 3 3 3 < < < 3 1 % $ o $ % 5 k g b ` @.9.0.9.5.5.5.5.5.",
"5.5.5.5.} K n b g y y y y y g b b n Z Z Z Z Z Z Z Z Z Z M c l l c c l 3 $ > q / ,.! E E E E E E E E ! ! ! ! E D c f f w 6 4 , > > % & > & $ $ # X X # % 1 > % % % % % % % * < 3 w u a l c c c c c f f u w 6 3 3 < < < q < % $ X $ % 4 b b n V ] 6.t.6.5.5.5.5.5.",
"5.5.5.5.5.] V n z g y y y y y g b n Z Z Z Z Z Z Z Z Z Z Z Z M c c c f q $ % 1 B 4.E E E E E E E E ! ! E E E D B j f e w 4 1 , > & % % > & $ $ X X X # $ 1 > % % % % % % % % < 3 q u a l c c c c c l f u e w 3 1 < < < q < % # X # % 1 n n V ` } @.9.8.5.5.5.5.5.",
"5.5.5.5.5.@.' V b g y y y y y g g n Z Z Z Z Z Z Z N Z Z Z Z M c c l f u & % 1 f 4.E D D E E E E E ! ! ! ! E D c f f w 6 4 , , > & % % > % # X X X X # $ 3 < % % % % % % % % > 3 q i f l c c c c c l f u e q 6 1 < < < 3 > $ # X # $ > b V ] @.@.@.6.6.5.5.5.5.5.",
"5.5.5.5.5.@.} P b g g y y y y y g z b N Z Z Z M M c M M M M M c c f f a < $ > f 4.E D B R E E E ! ! ! ! ! E B c j f e 6 4 , > & % % % % # X X X X X # $ 3 < % % % % % % % * > 1 6 e f l c c c c f f a u w w 6 3 < < < 3 > % # X X # % g ` @.7.@.} } ' ] 5.5.5.5.",
"5.5.5.5.5.5.@.` n b g g g g y g g g z b M M N M c c c c c c c c l f f i 3 % - f p.E D D R E E ! ! ! ! ! ! E B c j f e 6 1 , > % % $ $ + + $ X X X # # $ 1 < % % % % % % % * > 1 6 w a f c c l f f f a u u w q 3 3 < < 1 > % # X X X # w P @.7.@.} V k k ] 5.5.5.",
"5.5.5.5.5.@.@.` V n b b g g g g g g g g c c c c c c c c c c c l l f f e 3 % % f l.E D D R E E ! ! ! ! ! W E B c j f e 6 1 , > % % $ $ $ $ $ # X X X # $ 1 < % % % % % % % > > < 6 w i f f f f f a f a i u e w 6 3 3 1 < > $ $ X X X X % g @.7.@.V t r V @.@.5.5.",
"5.5.5.5.5.@.@.' P V V n b b b b g g g g z M c c c c c c c c l l f f a a q & % w l.! B B D E E ! ! ! ! ! E E B c j f e 6 1 , > % % % $ $ $ $ $ X X X # $ < 3 % % % % % % % > > < 6 w u a f f a a a a a a u u w 6 6 3 3 1 > $ # X X X # # > V 7.} k k } 8.8.@.@.5.",
"5.5.5.5.5.@.@.o.{ K F F V Z F n b z z z c c c c M c c c c c l l f a a i u > % > %.=.B B D D E E ! ! E E E D M c j f e 6 1 , > & % % $ $ $ $ # X X X # $ 1 3 % % % % % % % > > < 3 w e i f f f a a u u u u w q 6 6 3 3 1 > $ # X X X # # $ 4 K @.7.9.9.9.7.@.@.5.",
"5.5.@.@.5.5.@.@.@.{ K F F F F F n b b M c c c M c c c c c c c l f a i a a 1 % > c 4.D B B D E E ! ! E E D D c c j f w 6 4 , > & % % $ $ $ $ $ X X X # $ 3 3 % % % % % % % * > > 3 6 w u i f a a i u u e w q q 6 6 3 < < < % X X X X # $ % % t @.7.8.8.7.@.@.@.@.",
"5.5.5.@.@.@.@.@.@.o.{ K K F F F F F Z D M c c c c c B M c c c l f f f a a 3 % > f 4.E D D D E E ! ! E E B D c j j f w 6 4 1 , > % % $ $ $ $ # X X X # % u < % % % % % * > > > > < 3 w w i a a a a u e w q w 6 6 6 1 % % % % X X X # # $ % % > V @.@.@.@.@.@.@.} ",
"@.5.5.@.@.@.@.@.@.o.o.{ ' K F F F F P Z D c c M M D D D M c c l l f f f f q % > e 4.W B B D E ! ! ! ! E R B c j f f e 6 6 4 1 > - % % $ $ % $ X X X # 1 u > % % % % % > - > > > > 3 6 w w i a a f a e w q q 6 6 6 < $ # X X X X X X # $ % % % w ` @.@.@.@.} @.@.",
"@.@.@.@.@.@.@.@.o.o.o.o.X.K F F F F F F D D c M D D D D D c c c l f f f f q % > e 4.E B B D E E ! ! ! ! E D c j f d e w 6 4 4 1 , > > & > - $ X X X # < < * % % % % & > - > * > > < 3 q w i a a f a i w w w 6 6 6 1 % # X X X X X X # $ % % % ; g ` ` } @.@.@.@.",
"@.@.@.@.@.@.@.o.o.} X.o.o.{ K K P P P F D D D D D D D D D c c c l f f f f e % > e 4.B c M D E ! ! ! ! ! ! E c j f d e w 6 6 4 4 1 , , , > $ X X X # # # % > % % % % * > > > > > > < 3 3 w w u a f a a u w w q w q 6 * $ # # X X X X % > > - % - 5 b V K } @.@.@.",
"@.@.@.@.@.@.@.o.o.' ' { o.o.o.{ K K F F F Z D D M D D M c c M c l l l l l q % > d g.S j c D E ! ! ! ! ! ! E B c f f e w 6 6 6 4 4 1 , , & X X X X # # % $ % % % % % * > > > > > > > 1 3 6 q e i a a f a u e w w q w > $ % - $ X X # % , 4 4 r g y V K ` @.@.} @.",
"@.@.@.@.@.o.o.o.o.{ K ' o.o.o.o.X.' P P F D D B c c c c c c c c l l l l a 3 % > f l.E j f c B R E ! ! ! ! W D c j f e w 6 6 6 6 4 4 1 , $ X X X X X X < * $ % % % > > > > & > > > > < 3 3 6 w u i a a a i u w q w w > % - - % X X # $ > , 1 B 7.' ' ` ] } @.@.@.",
"@.@.@.o.o.{ ' { { K K ' ' } { X.o.{ K P F Z D D c c c c c c c c l f l f q 3 & & q B E f f j c M E W ! ! ! ! D c f f e w 6 6 4 4 4 4 1 > X X X X X X X * % X * > * * > > > * > > > > > < 3 3 q w e i a a i u q q q w > % % - $ X X # $ - , 4 g } b g k N ` ] @.@.",
"@.o.o.} ' ' ' ' ' { K P K { ' ' ' ' K P P Z D B c c c c c c c l f f f f a e * % 1 1 c f f f j c B D E ! W E c j f d w w 6 6 4 4 1 , , & X X X X X X X X X X q q > > > & > > > > > > > > 1 3 3 w w w i a u u w w q w > $ $ % # X + # $ - 1 4 g N g g g b F ' } @.",
"o.} { K ' ' ' K K K K K K ' ' ' ' K K F P D D D c c c c c c l f f f f a i e % % 1 > f f f f f j c c D E E D c j f d w w 6 4 1 , , , > % X X X X X X X X X # q q > > > & * > > > > > > > > < 3 3 6 w e u u u q 6 6 w > $ $ $ X X # $ % ; 1 4 f g g g g b V K ` ] ",
"' ' ` ' ' K K K F F P { ' ' K { K P F P P Z D D M c c c c l l f f a e e w w $ % 1 > f d w i f f j c c D D B c j f d w 6 4 1 , > > > > % X X X X X X X X # # q 3 & & > > * > > > > > > > > > < 3 3 6 q w e w w 6 6 w > $ $ $ X X # $ % , , 7 g g g g g b N F ` ` ",
"' ' ' K K F F F F F F K ' ' K P F F P J P Z D D M c c c l f f f i e e e w 6 $ % 1 > e 6 4 w e i f c c c c c c c f r w 4 , > > > > > > % + X X X X X X # # % i > > * > > > > & % * * * > > > > < 1 3 3 3 6 6 3 3 3 6 1 $ $ # X X # $ % , 1 f z g g g g b N V K ` ",
"K ' ' ' P F F F F F P K K K P P J F F F F D D D D c c l l f f a e w w w q 6 $ $ 1 1 w 1 1 1 6 w e f f j c c c c f e 6 4 1 , > > > > > - $ X X X X X X X X 1 i > > > > > % % $ $ $ $ $ % > > > > > > * * & & % % % & & $ # X X X # % % , 4 N b g g g g b n V F ` ",
"K K ' K P P P P F P P F F P F F P F F F Z D D D D c c l l f f a w w w w w 1 @ @ - 1 q , , , 1 1 > > > , 6 w i f i w 4 , > % % > < > > & % + X X X X X X # < > % % & % % $ # $ $ # # $ $ $ % * * % % $ # # o X # # # # # # # X X # $ % , r J N g g g z b b N V K ",
"P P P F J F F Z F F F Z Z Z F F F F F Z Z D D D M c c l l f f e w w w q w 1 + + @ % % $ @ @ @ + + + + + + @ @ @ $ @ @ + X o s V.J.N.z.>.D f 1 - $ X X X # # X X X X X X X X X X X X X % u ! =.=.) ) ) ) ! ) =.i.i.i.s.c i 3 # X # $ % 4 P K N b b b b b b N V V ",
"J P F F F Z Z Z Z N Z N D D Z F F F Z D D D D D c c c l l f f e w w w q w 1 + + + % 1 ; - , f Z D / 4.4.8.4.4./ f w , % 1 j.`.|._._.E.S.4.P z e 1 % X % 1 1 1 1 , - - % # X X X X X 3 s.J.K.N.l.4.,.=.&.&.>.p.m.B.N.B.R w 1 % X # $ % e 4.Q F N b b b b M V V V ",
"F F F F Z M M M M M M M M D D Z D D D D D D D M c c l l f f a e w w w q q 1 @ + $ 9 w ; 4 o.e.v.C.Z.A.F.G.W.{..XW.A.z r o.F.!._._.!.L.C.4.Q M j e 1 > e #.+.+./ c f f e w 1 > % $ 3 n.I.H.l.p.=.! ! R R W ! =.s.m.m.) j u 1 * # X $ % 6 O.K J N b b b b b N V V ",
"F F F F Z M M M N M M M M M M M M M D D D D M c l l f f f f e e w w w q q 3 @ + & 4 1 ; D C.9.$.@.o.@.<.9.A.'.].G.8.6 w n e.!._.!.L.S.c.8.%.Z c j w 4 f $.%.J c f t e q q q 1 & > i ) J.B.4.%.! B B R R R ! >.f.m.m.) j a 3 > $ X $ % > z K F b b b b b b N V V ",
"F F F F Z N M M N M M M M M M M M M D D D M c l f f f f f a u e w w w w 6 1 @ + @ - ; f z.e.9.8.@.` } @.<.e.^.^.C.o.> 4 n v./.!.F.v.z.8.4.%.D M M j w Z O.W M f e e e q q 1 > & > u f l.N.4.! R c c R R ! ! >.s.m.m.=.c f 3 > % X $ % % w F N z g z b b b N V V ",
"F F F F Z N M M M M M M M M N M M M M M M c c l f f f f a a e w w q q 6 1 - + + + % w 8.e.8.7.<.} V ` } @.@.C.9.' N % 1 b v./.F.8.>.>.>.&.! W P Z M M +.@.J l f e e q q 6 < > & > u i W N.a.E c c c B E ! ) =.p.b.m.>.c h 6 < % X # % % 4 Z b j j j z b b b N V ",
"F F F F Z N M M M M M n M M M M M M M M c c c l f f f f a e w w q w w 6 > $ + + @ w >.@.} } } } ` V ' { @.@.7.K n f % 1 z C./.c.4.=.=.%.! ! ! ! W Z J $.$.Q l a e e q q 3 > > & , i i f s.>.B c c c B W ! ^ >.u.f.m.>.c f 6 < % X # % % 1 b z g g j g b b b n V ",
"F Z Z Z b c z b M M M N M M M M M M M M c c c l f f f a u w w q w 6 4 1 & + + % f 4.} y n V V V V V ` { } o.@.P b w % , g D.E.z.4.=.=.%.! ! ! ! ! Q Q @.+.D f a e e q 6 1 > > & 3 i i i f j c c c c R W ! ! =.>.p.f.=.c f q < % X # % % , z g g t g j z b b b M ",
"N M M M z g z z b N b N M M N M M M c M c c c l f f f a e w w q 6 1 1 , $ + % f 8.@.} ` K V V V V V ` ' ' ' { P g 1 % > M R.D.c.4.>.=.! ! ! ! ! ! ! ! %.Q c f e e q q 6 1 > > % 6 i u u u i j c c c R W ! ! &.>.u.p.) c f q < % X # $ % 1 g g t t t g g b b b b ",
"M M b z z g z z z b b M M M M M M M c c c c l f f f f a w w w w 1 1 , - @ + - M @.K ' } ` V V V V V ` ' ' ] ' K g 1 % - >.R.S.v.w.4.=.! ! ! ! ! ! ! Q W Z l f e e q q 6 1 > & # 6 i u u u i f c c B R R ! ! ) =.>.p.=.c f q 1 % X # $ % 4 g t t t t g g z b b b ",
"M b z z z z l j j z c c c M M n M M c l l l f f f a a e w q 6 6 1 , - % + @ ; N @.V V V V V V V V ` ] ] ' ` V V g 4 % > S.R.A.C.c.4.4.%.Q ! ! ! ! ! W F M f f e q q 6 6 1 > % # q u u u i i f j c c B R R ! ! &.=.u.>.c a 6 < % X # $ % w y t t t t g j j g z b ",
"M b z z j f f f f f l l c c M b M M c l f f f f a a e e w 6 6 1 , > - % + % ; N 7.] P V V V V V ` } } } ' V V V k w % u !.E.D.v.z.8.4.=.! ! ! ! ! Q J Z c f f e q q 6 1 1 1 % # q u u u i i f f j c c R R R ! ! &.>.u.R a 6 < % X X $ - w t t t t t f g g g g z ",
"c z j f f f f f f f f l l c c M M N c f f f f f a e w w q 3 1 1 , > - % + % : F 7.} ` V V V V ` } } } } ] V V b g e % q >.z.L.v.z.8.4.=.! ! ! ! ! Q P M l f f e q q 6 1 1 1 % % u i u u i i i f h j c B R R E ! &.&.>.E i 3 > $ X X $ > w t t g g g g g g g g z ",
"z j f f f f f f f f f f f l c b b M l f f f f a e w w w 6 1 1 1 , - - $ + - 4 K 7.] V V V V V ` } } } } ] P V b g w > % , B F.C.c.4.4.=.%./ ! ! ! W Z M l f f e q 6 6 1 1 1 % % u i i i i i i d f j c c c R E ! &.&.=.E u 3 > # X X $ > w r g F F g g g g g g g ",
"j f f f f f f f f f f f f l l c b c l f f f e e w w w 6 6 1 1 1 , - & X @ ; 0 [ 7.` V V V V V P ' } } } ] K V b g r , % , e S.C.c.8.4.,.=.o.%.! ! W F M l f f e q 6 6 1 1 1 % & i i e e u u i i f j c c c B W ! ) ) >.E q < > # X X $ % 6 e r f g g g g g g g g ",
"f t t f f f f f f f f f f l c c c c l f f f e e w w 6 6 1 1 1 1 , > $ . % ; y v.@.] V V V V V P ] } } } } ` V b g r 1 % > 7 c.A.v.c.8.4.4.=.%.! W J Z M l f f q 6 6 3 1 1 1 & * i i w 7 w u u u a j j c c B W ! ! ! ! c q < * # X X # > f e w w r t g g g g y t ",
"t e e w e t f f f f f f f f l c c l l f f i w w w 6 6 1 1 1 1 1 , > X X ; : F Z.@.' V N b V V K ] } } } } ] K N g t 6 % > 7 D.E.A.C.c.8.4.=.%.! W P Z c l f e q 6 6 1 1 1 1 % 1 i i w 4 7 w w u i f j c c B W ! ! R B j 6 < * # X X + < c w w w w e r t t t t t ",
"w w w w w w e e w e f f f f f f l f f f f e w q 6 6 1 1 1 1 1 1 , - . @ ; 4 F e.@.` V n b n V K } } } } } } ` V b f 6 & > 4 S./.L.D.C.w.4.=.%.! W P Z c l f e q 6 3 1 1 1 1 % 1 d i w 4 6 7 w u i f j j c B R ! ! R B j q < * # X X # % a e w 6 6 6 w w w w w w ",
"w w w w w w e e e w e f f f f f f f f f e e w q 6 1 1 1 1 1 1 1 , % . % : 0 [ 9.] V V b b n V ` } } } ] ` ` ` V b g w > - 4 8.}.E.F.S.z.4.=.%.Q J P Z c f f e q 6 1 1 1 1 1 $ 1 i w 6 4 4 7 w i f f j j c c R W ! R R j q < * $ X X # $ > w w 6 6 6 4 1 6 6 6 6 ",
"6 w w w w w w w w w w e e f f f f f a a e e w w 3 1 1 1 1 1 1 1 , $ . - 4 r 8.7.K V n b n N P ` ] } } ` V V V V b f w , - 4 =.}.E.L.S.z.4.=.&.Q J F Z l f f e w 6 1 1 1 1 1 # 3 i w 6 4 4 7 w i f f f j c c R R R R B c q < * $ X X # $ % 6 w 6 6 6 1 , 1 1 4 6 ",
"4 6 w w w w w w w w e w w e e e e e e e w w w 6 1 1 , , , , , , 1 $ X ; 0 b Z.@.V n b n V V ` ' ' ] ] K V V V V b r 6 1 - 4 Q !.E.L.S.c.4.>.=.%.W F Z l f f e q 1 1 1 1 1 , + 3 i w 4 4 4 7 w i f f f j c B B B B B c c u 1 * $ X X # % % 4 w 6 6 4 , , , , 1 4 ",
"1 4 6 6 w w w w w w w w w e w e w w e w q q 6 1 1 , , , , , , , 1 X X ; 0 $.C.` n b b n V V V P ` ` K V V V V V g e 6 1 % 4 B L.E.D.C.c.8.4.4.=.! Z Z l f f e 6 1 1 1 1 1 , X 3 i 7 4 4 4 7 w i i f f j c c c c c c c c f 3 * $ X X # % % , w 6 4 1 , - - > , , ",
", 1 4 4 6 w w w w w w w w w w w w e w w w 6 1 1 , , , , , , , , % . @ 4 y Z.7.V V n b b b b b n V V V V V V V n g w 6 1 % 1 g A.L.C.v.c.8.4.4.=.! P Z l f a q 6 1 1 1 1 1 > X 1 e 4 1 1 4 7 e u i d f j j j j j j c c c j 3 > $ X X # % % > 6 1 , , > - - - > , ",
", , 1 4 4 6 w w q w w w w w q w w q q 6 1 1 1 , , > > > > , , > # . % 0 @.v.V b b b b k b b b b b b b b b b b b t w 6 1 % , g A.S.v.v.z.8.4.>.%.! J Z l f e q 1 1 1 1 > 1 > X & w 1 , , 4 6 w i u f f j j j j j j j j j j q > % X X # $ % > 6 , > - - - - - - > ",
", , , 4 6 w w w w w w w w w w w w 6 6 1 1 , , > > > > > > > > > # . @ 1 X.' g g t r w w 0 4 w t b k g g g g g g e w 6 6 % % f S.8.4.8.8.4.4.>.=.Q P M f f e 6 1 1 , > > > > X X 4 1 , , 1 6 w u u i f j j j j j j j h f u 3 & % X   X $ % q e , - - - - - - - - ",
", , 1 6 w w w w w w w w w w w 1 1 , , , , > > > > > > > > > > 3 %   X + $ > 1 > - - - % % % % - 1 7 w w w 6 4 4 , > > > % # > f w 1 1 1 3 w a c w 6 a a w 6 1 , > % # $ & * X . - , - - > 1 w u i d f j j f u u 6 1 > % $ # # # X   X # * a 1 - - - - - - - - - ",
"- = > , - % % $ % - , 1 , , > > & % % % & & & & & & & & & & & > # . X + + + + + + + + + + + + + @ # $ $ $ # # @ @ @ # # O o X X X X o o X # # # # X # $ # # # o X . . X X X . . X # o O # # % < 1 1 3 i i 1 & $ # o o o O o o X .     . o # X X + + # # $ $ % % ",
"$ $ $ $ % % $ $ % % % % % % % % & & % % % % % % % % % % % % % $ X @ $ $ @ @ + + + + + + + + + + O X O O o X X o X o X o X X X o # # # # # # X O X . . . . . . . . . . . . . . . . . X . X X o # # $ $ $ % # o o o o o O # # % % % * * % $ $ $ % * < 3 3 3 > % % ",
"4.o.K V b b b M J I K J J o.o.K F b z g t t t f t f g g g z z b n K +.X.K z g w w w 9 4 4 4 1 , > - - - & & % % % % % % & & > < < < < < > < < > % # X . . X o # # o X . .   X O # # # o X X . X X o o o o o O o o o o $ & 1 f o.c.T.~.T.I.n.l.g.l.J.P.P.P.L.S.S.",
"L.z.@.] ` P P K ' X.@.$.8.e.@.F b z g g g g g g g g z z b n F K [ @.$.9.9.7.@.K F n b g g t r t t e w w w w w 9 4 4 1 f Z a a f f a u q 3 3 u u 3 < % . . # % % % % X . . X o % > > 1 q q 3 < * % % & * & % $ # # O # % > w K D.S.m.D.D.S.B.B.B.S.P.Q.Q.Q././. X",
"!.8.} ` K P P P P K X.+.4.8.b t t t y y g g g g g g g g b b n Z F ' [ [ [ [ I Z b b g g g t w r g g y f f f g g g t g X.o.K D N M c f 6 3 3 q i u 3 > X . # % % % $ X . . # % > < 3 q u u i a a u u u q 3 < * % % # $ % 1 w <.F.! c &.4.4.,.,.&.&.=.>.,.l.D.E.}.",
"R.8.} ] ` ` ` ` P V V V F n t t t t y g g g g g g g g g z b b n F K [ [ [ [ K F b b g g t e 4 r g z z z z b b b n Z F K K o.O.X.X.M q 3 3 3 q i a 3 > o . X $ % $ # . . # & < < 1 3 3 3 3 q u u u q q 3 1 > * % % # # % 1 w @.8.j f j W ! E R B R E R W ! &.p.D.",
"z.@.} ] ' ] ] ` V b b g g t t t t g g z z g g z z g g g z b b n Z P [ [ [ [ I J n b g g g t w t z n Z Z Z Z Z F F K K ' ' +.X.J D a q q q q q u u 3 & O X . X X X X . o > < < 1 3 3 3 3 3 q u u u q 3 3 < * * % % # O & 1 e >.R f a a j B B B B E ! ! ! ^ ! &.g.",
"<.@.@.} } } ] V V b g t r r t t y g z z z b b b b b z z z b n n n F K [ [ [ [ J F b b z g g t g Z F F Z F K ' ' ' ' ' ' K D c c c f i u q u e q 3 1 & o X . . . . . X > 3 3 3 3 3 3 3 3 3 q u u u q q 3 < > * % % # O % 1 w P j a a a h B B R E ! | &.&.&.=.=.,.",
"<.@.@.@.@.] P V b g t r r r r t y g z b b b b b b z z z z b b n n Z P K [ [ [ [ J Z Z Z n b g Z K F Z F ' [ X.X.X.[ ' K Z v c c c c f a f f u 3 2 3 % X X . . . . X & 3 3 q 8 3 3 3 3 3 q u u u u u q 3 3 > * % % $ O % 1 w f f a e e f B R W ! ^ >.4.,.,.p.p.p.",
"<.<.@.@.@.] P n g t r r r r r t g g g z b b b b b b b b b b b b n Z F K [ [ [ [ [ I I I ' K n [ [ ' K K [ +.+.+.+.+.[ K Z D D D c c c l c f e 3 3 2 % O X . . X X $ < 3 u u a q 3 3 q u u u u u u u q 3 3 < > * % $ O $ , 6 i a a w w f R ! ! ! &.p.p.d.d.d.d.p.",
">.>.>.@.@.` V b g t r r r r r r t g g z b b b b b b b b b b b n n Z P ' [ [ [ [ [ [ @.@.$.@.K @.+.+.X.X.+.@.$.$.$.+.X.[ K F Z D v c c c c f u 3 2 3 * o X . . X $ & 3 s c U _ u 3 q u u u u u u u u u q 3 3 < > * % # # > 6 w i e w w f R ! ! ! =.p.p.p.p.p.p.p.",
"<.>.<.>.@.` V b g t t r r r r r r t g g z z b b n n n n n b n n n F K [ [ [ [ @.@.$.$.$.6.$.$.$.$.$.$.$.$.$.$.$.$.@.+.+.o.[ K D D D c v c c i 3 < < > X . . X # % 1 ~ i.~ s a u u u u u u u a a a u u q 6 3 3 < > % # # & 6 w w w w w f B ! ! ! &.,.p.p.p.d.p.4.",
"<.>.>.>.} ` V b b g t t t r r r r t y g g b b n n n n n n n N Z F K [ [ [ [ [ @.@.$.$.6.6.6.6.6.$.$.$.$.6.6.6.$.$.$.$.$.$.@.X.P D D D D v c a 6 < > < o . . X % & x h.T q 3 3 3 3 q u u i a a f a a u u q 3 3 1 > * % # % 1 w w w w w a c ! ! ! ! =.,.p.p.d.4.>.",
"<.<.<.<.} K V n b g y t t t t r r r t g g z b b b n N n n n Z F K K [ [ [ [ [ @.@.$.$.6.6.6.6.6.7.6.6.6.6.6.6.6.6.6.6.6.6.6.+.F Z Z D D D c i q < > < # . X # & > a s 3 3 3 3 3 3 u u i a f f f a a u u q 6 3 3 < * % # % 1 w w w w e a c E E ! ! ^ =.,.4.4.>.>.",
"<.7.7.<.@.` P V b b g t t t t r r r t y g z b b b b n n n Z F J K K ' [ [ [ [ @.$.$.$.6.6.6.6.6.6.6.6.e.e.e.e.e.r.r.r.e.e.q.$.W D D v c c c f q 3 < & X . X $ & < q q 3 3 3 3 3 q u a f f f f f f a a u u q 3 3 < > % # $ 1 w w w w a f R ! ^ ! ! ! &.=.=.4.4.>.",
"<.7.7.7.@.} ` P n b g y y t t t r t t y g z b b b b b b n Z F J K K K ' [ [ [ @.$.$.7.6.6.6.6.6.6.6.6.e.e.e.r.Z.Z.Z.Z.Z.r.e.$.%.D D v c c c f e 3 > $ X . X % > 1 u u 3 3 3 q u u a f j f l l l f h f a u q 3 3 < > % # # 1 w w w e f c ! ! ^ ^ &.! ! ! &.=.>.4.",
"<.7.7.7.7.>.} ] V b b g y t t t t t t y g z b b b b n n Z Z Z Z F P K K [ [ [ [ $.$.$.6.6.6.6.6.6.6.6.e.e.r.y.Z.Z.A.A.Z.y.e.8.@./ D D v D D c i 3 % # X . # & < 6 u u u u u u u a f f c x c c x l f f a i u q 3 1 > * # # > 4 6 w f c W ! | &.=.=.&.^ ! ! =.=.>.",
"<.7.7.7.7.<.>.} ` V b b g y y t t t t y g z z b b b n n Z Z Z Z F F P K K [ [ [ @.$.$.7.6.6.6.6.6.6.q.e.e.r.Z.Z.Z.A.A.Z.Z.r.e.$.%.W D D D D c u < % % # X $ > 1 q i u u u u u a f c c c c c c c c l f f a u u q 3 3 < $ o # > 6 j R R E ! &.=.=.4.>.| ! ^ =.>.4.",
"<.7.7.7.7.<.>.@.} K V b g g y y y t t t y g z z z b b n n n N Z Z F J K K [ [ [ @.$.$.6.6.6.6.6.6.6.e.e.e.r.Z.Z.Z.A.A.A.Z.Z.e.8.O./ W P Z D c u < 3 u # X $ > 3 f i u i u u a f c c c c c c c c c c l f a a u u q < % # O O 3 j h f j j E | =.4.4.4.&.! &.>.>.>.",
"<.7.7.7.7.7.>.@.} ] P n b g y y y y y y y y g g z z z b b b n N Z F J K K ' [ [ @.$.$.6.6.6.6.6.6.6.e.e.e.r.y.Z.Z.A.A.A.A.Z.y.w.4.O.+.W D D x q 3 8 > X X $ > q i i u i a a f c c c c c c c c c c c l f a a u u 3 % # o O % j c u u f j j E &.,.f.l.&.! =.>.>.>.",
"<.7.7.7.7.<.>.<.@.] K N b g g y y y y y y y y g g z z b b b n n N Z F J K K [ [ @.$.$.6.6.6.6.6.6.6.e.e.e.r.y.y.Z.A.A.A.A.Z.Z.e.8.$.O.W D c f q 3 2 * X X $ > q i i i a f f c c c c c D R D c c c c l f a i u u 3 % # O # % q i u i f j j B W >.N.l.^ { >.4.>.>.",
"<.<.7.7.7.<.@.@.} ] K V b b g g g y y y y y y g g g g z z b b b n n F F K K [ [ +.$.$.6.6.6.6.6.w.e.e.e.e.r.y.y.Z.Z.A.A.Z.Z.Z.r.9.$.O./ D c f q q 3 > X X $ > 6 w w e a j x c c D R R R D D B c c c l f a u u u 3 % # O # % 3 i i a f j j B B ! N.m.=.>.4.>.<.<.",
"@.@.<.<.<.<.@.@.} ' P V b b g g g g y y y y y g g g g g z b b b n n n F F K ' [ [ $.$.7.6.6.6.6.q.e.e.e.e.r.y.y.Z.Z.Z.Z.Z.Z.Z.e.w.$.$.X.D c f q q q < # X $ > 3 w w w a l c c B R E E R D R D c c c l f a u u q 3 > $ # # % 3 u u a j j j B B R =.m.g.4.>.<.=.=.",
"@.@.@.@.@.<.@.} ] ` P V n b k g z g g y y y y g g g g g z z b b b n n F J K ' [ [ @.$.$.6.6.6.6.6.e.e.e.e.r.y.y.Z.Z.Z.Z.Z.Z.y.e.e.8.@./ D B f e q q 3 % X % < 1 3 q w a l c c D E E E E R D R c c l f f i u u q 3 < % O # % 6 u u i f j c B R W | 4.4.=.<.<.<.<.",
"@.@.@.@.@.@.@.} ] ` P V V b b b b g g g y y y y y y g g z z b b b b n Z F K [ [ [ @.@.$.6.6.6.6.6.6.e.e.e.r.y.Z.Z.Z.Z.Z.Z.y.r.e.w.8.O.Q D D c a q q q % X % 3 q 6 3 3 i x c D E E E E E E R D c c l j f u u u q 3 < * # $ % u u u i f j c B R ! | >.<.| | <.<.<.",
"@.@.@.@.@.@.} } ' K V V n b b b b b g g y y y y y g g z z z b b b b n Z F K [ [ [ @.@.$.6.6.6.6.6.q.e.e.e.y.y.y.Z.Z.Z.Z.Z.r.e.w.8.$.O./ J D c f i e < o X $ f c a q q i x c D E E E E E E E B c c l f a u u q q 3 < * # $ * u u u i h j B R ! ! | | | | | | <.<.",
"@.@.} } } } } ' K V V n n b b b b b z g y y y y y g g z z z z b b b n Z F K [ [ [ @.$.7.6.6.6.6.q.e.e.e.e.r.r.r.r.r.r.r.r.e.9.4.$.$.+.W D D c f f f & X X $ ( ! x f u a x c D E E E E E E R c c c f a i u u q 3 3 < * # $ > u u u i f c B R ! { | | | | | <.<.| ",
"@.@.} } ] ' ` K V V b b b b b b b b b g g y y y y g g g g g z z b b n Z F K [ [ [ @.$.6.6.6.6.q.e.e.e.e.e.e.e.e.e.e.e.w.9.8.$.$.$.+.%./ W D c c f v & X X $ x x f a a a f c B E E E E E E R c c c f a u u u q 3 3 < * # % < u u u a j c B W ! { | | | | | =.<.| ",
"@.} } ] ' ` P V V n b b b b z g g b b g g y y y y y g g g g g z b b n n F K [ [ [ $.7.6.6.6.e.e.e.e.e.e.e.e.e.e.e.e.e.9.8.$.$.@.O.X.X.W W D c c f f # X X # 3 a a a a f j c c R E E E E D c c c l f i u u u q 3 3 < > # % 1 q u u a j B S E ! { | | | | | =.<.<.",
"@.} } } ` P V V n b b b b b b k k b b g g g y y y y g g g g g z z b n N Z K [ [ @.$.7.6.6.q.e.e.e.e.e.e.e.e.e.e.e.e.9.8.8.$.$.$.+.X./ W W D B c f 6 o X X # 3 u a a f f j c c c E E E R c c c l f a u u u q q 3 3 2 > # % 1 q u u f j c B E ! { | | | | <.=.<.<.",
"@.} } } ] K V V b b b b z g g g b b g g g y y y y y y y y g g g b b n n Z K [ [ @.$.6.6.q.e.e.e.e.e.e.e.e.e.e.e.e.e.9.8.4.$.$.+.O.X.Q W J D c f e 1 X X X $ 3 q u a f f l l c c E E E D c c c f f u p u u 8 3 3 3 2 > # % < q u i f j B B E ! { | | | | =.<.<.<.",
"} } } } ' ` V V V b b b g g z b b b g g g y y y y y y y y g g g z b n n F P ' [ @.$.6.6.q.e.e.e.e.e.e.e.e.e.e.w.w.w.8.8.8.$.$.O.X.W W W D D c a q < X X X % 3 3 q p a f l x c B E E E R c x l f a u u u u 8 3 3 2 < > # $ * q u a j j B B R ! | | =.<.| =.<.=.=.",
"} } ] ] ' K V V V b b g g g z b g z g g y y y y y y t y y g g g z b n n Z P ' [ [ @.7.6.6.e.e.e.e.e.e.e.e.e.6.6.8.8.8.8.4.$.$.O.%.! W J D D c u 8 > X X # * 3 3 q u a f c c c R E E E D c x j a i p u u q 3 3 2 < < * # $ * q i f j c B R E { | =.<.<.| | | | | ",
"` ` ` ' ` V V V n b g g y g g b g g g g y y y y y y t y y y g g z b n Z Z J K [ [ @.$.6.6.6.q.q.q.6.6.6.6.6.6.8.8.8.$.$.$.$.$.O./ ! W D D v l q 3 > X X # * 3 3 3 q a f x c B R E E E E c c f a i p u q q 3 3 < > > * # $ > u a f j c B R ! | <.<.<.=.| | | | { ",
"P P K K V V n b b b g y y y g g g g g y y y y y t t t y y y g g z b n Z Z F K [ [ [ $.$.6.6.6.6.6.6.6.6.6.6.6.7.$.$.$.$.$.$.$.+./ W J Z D c f 3 < > X X # * 3 3 3 q u a x c R E E E E E B c j a a p u 8 3 3 3 < > > * # % > q f h j B R R ! | <.<.| | ! ! { ! ! ",
"V V V V V N b b b b g y y y g g g g y y y y y t t t t y y y g g z b b n Z F K [ [ [ @.$.7.6.6.6.6.$.$.$.$.$.$.$.$.$.O.$.O.O.O.O./ W W Z D c q 1 < > X X # > 3 3 3 q u a h c c R E ! ! E R c x h a p q 3 3 3 3 < < < * # % > q f j j c B E ! | =.=.| ! ! ! Q W V ",
"V V V n b b b b b g y y y y y y y y y y y t t t t t t y y y g g z z b b N F K ' [ [ @.$.$.6.6.6.6.$.$.$.$.$.$.$.$.O.+.O.O.O.@.O./ W E Z c f q < < > o X # > 3 3 3 8 q u a x c U R ! ) ! E c c h a u q 3 3 3 3 2 < > * # % > e f j j c B R ! { | | { ! ! ! K V V ",
"b b b b b b b g g y y y y y y y y y y y t t t t t t t y y y g g g z b n Z F K [ [ [ @.$.$.7.$.$.$.$.$.$.$.$.$.@.o.' { +.@.$.@.O./ W Z D c a q < < > X X # < 3 3 3 3 3 u a x Y U ~ ! ! ) ! D c x a u q q 3 3 3 3 < < % # % > a h f j j c B W ! | | | ! ! W V V V ",
"b b b b b g g y y y t t t t t y y y y t t t t t t t t y y y g g g z b n n F K K [ [ @.$.$.$.$.$.$.$.$.$.$.$.$.o.' ' ' { %.+.%.X./ W Z c c f q < < > X X # 2 3 3 3 3 3 u a h c Y T ! ! ! ) E c x a p q q 3 3 3 3 3 < * # % > h j f j j c B R ! ! { { { ! W V V V ",
"b b g g g y y y y t t t t t t y y y t t t t t t t t t y y y y g g z b n n Z F K [ [ [ @.$.$.@.@.$.$.$.$.$.$.$.] ' ' ' ' X.X.X.X./ W D c c f e 1 < > X X $ 2 3 3 3 3 q p a s x x Y T ! ( ! ! T x s u q q 8 3 q q 3 < & # % > h j f f j c B B E W ! ! ! ! P V V V ",
"b g y y y t t t t t t t t y y t y t t t t t t t t t y y y y y g g z b b n Z F P ' [ [ [ @.o.] ] o.@.$.$.$.$.+.' ' ' ' ' { X.X.W W D D v c f a 3 < > X X % 2 3 3 2 3 q p a s h x Y Y T ~ ~ ~ T x h a u q q q u q 3 < % # $ > a h f h j c B B R ! ! ! ! ! V V V V ",
"z y y t t t r r t t t t t t y t t t t t t t t t t y y y y y y g g g z b n n F P ' ' ' ' ' ' ' ` ] ] @.@.$.@.] ' ` ` ' ' ` ' Q W W P Z v c f f e 1 > X X % 3 2 3 3 3 q p a a s h x Y T ~ ~ ~ T Y h a p u u u u 3 3 < % # * 2 q i f j j j B B B E W E W P V V V B ",
"g y t t r r r t t t t t y y y y t t t y t t t y y y y y y y y y g g g b b b n V V ' ' ' ' ' ` ' ` ' ' o.o.[ ' K K P K P V V V F D Z D c c c f a q < # X * 3 3 3 3 3 q u p a a h x Y T ~ ~ ~ T Y x a a p p u q 3 2 > % * u 3 3 u a f f j c B c c B S V V V V b j ",
"y y t r r r r t t t y y y y y y y y y t t t t y y y y y y y y y y g g k k b n V V P ' ' ' ' ' ' ' ` ` ` ` ` V V V b b b b b b b c D c c c c f f a q $ X > 3 2 3 3 3 q u p a a h x Y T ~ ~ ~ T Y x s a a p u q 3 < > % % < > 3 u i f j j c B B B U B b B b b j j ",
"y y t r r r t t t t t y y y y t t t t t t t y y y g g y g g g y y g g k k b n V V ' ' ' ' ' ' P V V V V n b k k g g g g g g g g c c c c c f f f f i % X > 2 2 2 3 3 q u p a s h x Y T ~ ~ ~ U Y x s a a p u q 3 < > $ # * > 6 i u f f j j j c B B B B j B k j j ",
"y y t r r t t t t t t t t y y t t r r t t y y y y g g g g g g g g g g k k b n V V ' ' ` ' V V V V V n b k g t w w w w w w w w e f c c f f f f f f f & X * 2 2 2 3 3 q u a a s h x Y ~ ~ ~ T U c x s a p u q 3 3 < > # # * > 6 w u i f f j j j B B B k k B j j j ",
"y t t r r t t t r t t r r r t r r r r r t y y y y g g g g g g g g g g k k n n V V V V V V V n n n b k g g r 6 4 4 4 6 6 6 6 6 4 6 e f f f f f f f f & X * < 2 2 3 3 8 u a s h x x U ~ ~ ~ T Y x h a a u u 3 3 2 < * o $ * > 6 3 q u i f j j j B B B B B j j j g ",
"t t r r r r r r r r r r r r r r r r r t t y y y g g g g g g g g g g k k k n n n V V V V n n n k k k g g r 4 1 1 4 4 4 6 6 6 6 4 1 4 6 w u u i i i i & X > < < 2 3 3 3 u a s h x Y T ~ ~ T U Y x h a u q 3 3 3 < > & X $ * * 3 3 3 u i f h f j c B B B j j j j g ",
"t r r r r r r r r r r r r r r r r r r t t t y y g g g g g g g g g g k k k k n n n n n n n n k k k g g r 4 , , , , , 4 4 6 4 4 4 , , , , 1 6 w u u u % X > < < < 2 3 3 u a h x x Y ~ ~ ~ T Y x h s a q q 3 3 2 < > * X $ % > 3 3 3 q a i i f f j c k k c j j g g ",
"t t r r r r r r r r r r r r r r r r r t t y y g g g g g g g g g g g g k k k k b n n n n n k k g g g r 4 , , , , , , , 4 4 4 4 1 , > > > > - > 1 , 1 % # < < < < 2 3 3 u a h x Y Y ~ ~ ~ T Y x h a u q 3 3 2 2 < > * o # % > 3 3 3 6 a u u u f j j j j j j j f f ",
"t t r r r r r r r r r r r r r r r r r t t t y y g g g g g g g g g g g g g k k k n n n n b k g g g t 5 4 , , > > > > , , , , , , > = % % % % % & - , # % < < < < 2 3 3 u a h x Y U ~ ~ ~ T Y x s a u q 3 3 2 2 < > > # # % > 3 3 3 q f e w w u a f j j j j g g g ",
"t t r r r r r r r r r r r r r r r r r r t t y y y g g g g g g g g g g g g k k k n n n k k g g t r 7 4 4 , > > > > > > > > , , > - % % % % % % % & > + % < < < < < 3 3 u a h x Y T ~ ~ ~ T Y x a p u q 3 3 2 2 2 < < $ X % * 3 3 3 a f w 7 w w i i t f g g g g g ",
"t t r r r r r r w w r r r r r r r r r r r t t t y y g g g g g y g g g g g g k k k b k g g g t r w 4 4 1 , > > > > > > > > > > - % % $ $ % % % % & & # * < > * > < 3 q p a h x Y T ~ ~ ~ U x h a p u 3 3 3 2 2 2 2 < % X $ & 1 3 3 a u 6 6 6 7 w i r t t f f g g ",
"r r r r r r r r r w w w w w w w w r r r r r t t y y g g y y y y y y g g g g g k k k k g g t r w 4 4 1 , , > > = > > > > - - = % % % $ $ $ % % % % % # $ > > * > < 3 q p a h x Y U ~ ~ T Y x h a u u q 3 3 2 2 2 2 2 * X o % 1 < 3 a 3 3 3 3 6 w e e r r r r r t ",
"r r r r r r r r r w w w w w w w w w w r r r r t t y y y y y y y y y y g g g g g g g g g y t w 4 4 1 , , > > - = = - - = = % % % % % $ $ $ $ % % % % # # * < * > < 3 6 p a h x x Y U U Y Y x h a u u 8 3 3 2 2 2 2 3 * X o $ > < 3 3 < < < 1 6 7 w w w r r r r r ",
"r r r r r r r r r w w w w w w w w w w w r r r r r t t y y t t t t t y y y g g g g g g y t r w 4 4 1 , , > - = = = = = % % % % % $ $ $ $ $ $ $ % % % # # % > * * < 2 3 p a h x x Y Y Y Y x x s a u u q 3 3 2 2 2 3 3 # X X o % * & % * > > < 1 6 7 7 w r r r r r ",
"r r r r r r w w w w w w w w w w w w w w w r r r r t t t t t t t t t t t t t t t t t t t t r w 4 4 4 , > - = = = = % = % % % % % $ $ $ $ $ $ $ % % % # # % > * * > 2 3 u a s x x Y Y Y x x h a a u q 3 3 2 2 2 3 3 % X X X X $ % % % % % * < 1 6 6 6 w w r r r r ",
"r r r r w w w w w w w w w w 7 7 w 5 w w w w w w r r r r t t r r r t t t t r r r r r r r r r w 1 , , > > = = = = % % % % % % $ $ % $ $ $ $ $ $ % & % X # % * * * > < 3 q a s h h x x x x h s a a p q 3 3 2 2 2 3 & X X X X % > * & % % % > < 3 3 6 4 6 w r r r r ",
"r r r w w w w w w 7 7 7 5 7 7 7 7 7 5 7 7 w w w w w w r r r r r r r r r r r w w w w w w w w 4 , > > > - = % % % % % % % % % $ $ % % $ % % $ % % & % X $ * * * * > < 3 8 u a a a s h h h s a a p u q 3 3 2 2 3 * X X X X X % < < > * * * < 1 3 3 3 4 6 6 w r r r ",
"w w w w 7 7 7 5 7 7 7 7 7 7 7 7 7 7 7 4 4 4 4 4 4 4 7 w w w w w w w w w w w 7 7 7 w w w 6 7 e , - > > - = = % % % % $ $ $ $ $ $ $ $ $ $ $ % % % & $ X $ * * * * * < 3 3 q p p a a a s s s a a p u q 3 3 2 2 * X X X X X X # > < > * * > < 3 3 3 3 4 6 6 w w r r ",
"7 7 7 7 7 7 5 4 4 4 5 5 7 7 5 4 4 4 4 4 4 4 4 4 4 4 4 4 7 w w w w 7 5 4 4 4 4 4 4 4 4 4 , , 1 > = - = = = = % % % % $ $ $ $ $ $ $ % $ $ $ % % % & # X % * * * * * > < 3 3 u u p p p a a a a a a u q 3 3 2 > # X X X X X X O * < > * * > < 1 4 6 6 6 4 4 w w w w ",
"4 4 4 4 4 4 4 4 4 4 4 4 4 4 4 4 4 4 4 4 , , 4 4 4 4 4 4 4 5 5 5 4 4 4 4 4 , , , , , 4 , > - - = = = = = = = = = % % $ % $ # # $ $ $ $ $ % % % % & # X % * * * * * * < < 3 3 3 q u u p a a a a p u q 3 3 2 * o X X X X X o O & < > * * > < 1 3 4 4 6 4 6 6 w w 6 ",
"4 4 4 4 4 4 4 4 4 4 4 4 4 4 4 4 4 , , , , , , , , , 4 4 4 4 4 4 4 4 4 , , , - - - - > - - - = = = = = = = = = = = % % $ $ $ # # # # # $ $ % % % % # X $ * * % % * * > < < 2 3 3 q q u p a a p p u 8 3 2 > % O o o o X X o O % > > * * * > < 3 3 4 4 4 6 6 6 6 4 ",
", , 4 4 4 , , , , , , 4 4 4 4 4 , , > - - - - - - , , , , , , , , , , , > - = = = = = = - = = = = = = = = = = = % % % $ $ $ # # # # # # $ $ $ % % o X # $ * % $ % * * > < < 2 3 3 3 q u p p p p u 3 3 2 > % # o o o X . o O % > > * * * * > < < 1 6 4 3 6 4 4 1 ",
"> > > > > > - - > > , , , , , > - - = % % % % % % - - - - - > , , > - - % % % % % % % % = % % % = = % % % % % % % % $ $ # # # # # # # # # $ $ % % X X # # % % $ $ * * > < < 2 3 3 8 q q u u p p u q 3 < > % # o o o .   o # % * > * * * * * > < < 1 3 1 < 1 < < ",
"= = = = = = = = - - - - - - - % % % $ $ $ $ $ $ % % % = = = = - - - - % % % % % % % % % % % % % % % % % % % % % $ $ # # # # # # # # # # # $ % & % # X X # $ % % $ % * > < < 3 3 q q q q q u u p u 3 < > * * # o o X .   X # % * 1 < * % % % * * > < 3 < < > > > ",
"$ % % % % = = % = = = = = % % $ $ $ $ $ $ $ $ $ $ $ $ % % % % % % % % % % % % % % % % % % % % % % $ $ $ $ $ $ $ # # # # # # # # # # # # # $ % % $ o X X # $ % & $ % * > < 3 8 q q q q q u u u 8 3 < % $ % % # o o X .     X $ > 3 3 * % % % % * * > < < > % % % ",
"# $ % % % % % % % % % % % % $ $ $ $ $ $ $ $ $ $ $ $ $ $ $ % % % % % % % % % % % % % % % % % % % $ # # # # # # # # # # $ $ $ $ $ # # # # # # # X # X X X # $ * % $ $ % * > < < < < < < 3 3 3 < * % # X X X X o X X X .     X $ * 3 1 % % % % % % * * < > % $ # O ",
"# $ % % % % % % % % % % % $ $ $ $ $ $ $ $ $ $ $ $ $ $ $ $ % % % % % % % % % % % - - - - % % % $ # # # # # # # # # $ % % % % % $ # # # # # # X X X X X X X # $ # X X X X X X X X X X X X X X X .                             o % * % $ % % % % * * % % % # O O o ",
"# $ % % % % % % % % % % % % % % % % $ % % % % % % % % % % % & - - - & - & - - - - - - - - % % % $ # # # # # # # # $ % % % $ # # # # # X X X X X X X X X X X X X X # # $ % % % & * * * % # % # o o o X X X . . X X X X .     X X # X X O # $ $ $ # # # O o o O O ",
"# X X # # + # # # # # # # # $ $ $ $ $ $ $ $ $ $ % % % $ $ $ $ # $ $ $ $ $ $ $ $ $ $ $ $ $ # # # # + # X o o X X # # # X o X X X X X X X X X X X X X X # $ $ % % * > < < < < < 3 q q u e a a e q 1 1 > > # X # % % % % $ $ X X X X X X o o o X X X X X X X X X o ",
"X X # $ $ # # X X X X X X X X X X X X X o X X X # # # X X X X X X X X X X X X X X X X X X X X X X X X X X X X X X X X X X X X X X X X X X X X X X X $ > < > < < < < < < < < 3 3 q e e a f f f a e u u 3 # X # % % % % % % % % $ X X X X X X X X X X X X X X X X "
};
