/* XPM */
static char *texture13[] = {
/* columns rows colors chars-per-pixel */
"128 128 177 2 ",
"   c #26170F",
".  c #2A170E",
"X  c #27180F",
"o  c #29180F",
"O  c #271A11",
"+  c #2C1C12",
"@  c #301F13",
"#  c #2E2116",
"$  c #332215",
"%  c #382516",
"&  c #3B2917",
"*  c #342619",
"=  c #392718",
"-  c #362A1C",
";  c #3B2C1D",
":  c #3D301E",
">  c #3C2F20",
",  c #3E3121",
"<  c #402B17",
"1  c #412E1D",
"2  c #42311E",
"3  c #4A351D",
"4  c #50391D",
"5  c #412F20",
"6  c #443422",
"7  c #493622",
"8  c #463925",
"9  c #4C3B26",
"0  c #463929",
"q  c #4D3E29",
"w  c #513D26",
"e  c #513F28",
"r  c #583F29",
"t  c #4E4026",
"y  c #4F412B",
"u  c #514127",
"i  c #584327",
"p  c #54442B",
"a  c #59462C",
"s  c #56482D",
"d  c #5B492D",
"f  c #4E4130",
"g  c #544631",
"h  c #594730",
"j  c #564932",
"k  c #5C4C32",
"l  c #564B38",
"z  c #5A4E39",
"x  c #5F5134",
"c  c #5E523C",
"v  c #5E513A",
"b  c #614D2E",
"n  c #684F2F",
"m  c #65512F",
"M  c #68542F",
"N  c #624D32",
"B  c #684F31",
"V  c #614F38",
"C  c #655537",
"Z  c #645233",
"A  c #685233",
"S  c #695533",
"D  c #685334",
"F  c #695434",
"G  c #685537",
"H  c #6A5532",
"J  c #6D5933",
"K  c #645339",
"L  c #675438",
"P  c #655439",
"I  c #64553A",
"U  c #695639",
"Y  c #665838",
"T  c #66593C",
"R  c #6A5839",
"E  c #6A5B3E",
"W  c #6B5B3C",
"Q  c #705734",
"!  c #715C36",
"~  c #725E3A",
"^  c #766137",
"/  c #77623E",
"(  c #74613A",
")  c #7C653F",
"_  c #7A653B",
"`  c #7E693E",
"'  c #5E5340",
"]  c #635741",
"[  c #635641",
"{  c #665A43",
"}  c #675B44",
"|  c #655941",
" . c #685B44",
".. c #6C5D42",
"X. c #685D48",
"o. c #715E41",
"O. c #6F6143",
"+. c #6D6045",
"@. c #6E6249",
"#. c #6C6048",
"$. c #6F614A",
"%. c #736244",
"&. c #7A6644",
"*. c #7E6A46",
"=. c #7A6944",
"-. c #71654A",
";. c #71654C",
":. c #74654A",
">. c #7A6649",
",. c #766A4F",
"<. c #79684B",
"1. c #7F6D4B",
"2. c #7B6A4E",
"3. c #7C6B4C",
"4. c #766A51",
"5. c #786D53",
"6. c #7C6D53",
"7. c #7B7054",
"8. c #7F7051",
"9. c #7D715A",
"0. c #826D3F",
"q. c #806943",
"w. c #836E42",
"e. c #846D48",
"r. c #816E4C",
"t. c #857143",
"y. c #887346",
"u. c #85744F",
"i. c #84724D",
"p. c #8A754A",
"a. c #847253",
"s. c #8A7753",
"d. c #8B7954",
"f. c #807458",
"g. c #84765B",
"h. c #85785C",
"j. c #8C7B5B",
"k. c #937D52",
"l. c #917E57",
"z. c #917E5B",
"x. c #8E7E67",
"c. c #968253",
"v. c #95825B",
"b. c #9B855A",
"n. c #99855E",
"m. c #99885F",
"M. c #A28D5F",
"N. c #8E8464",
"B. c #8B8066",
"V. c #918766",
"C. c #948464",
"Z. c #9A8760",
"A. c #9B8964",
"S. c #958B69",
"D. c #97886D",
"F. c #9C8D6A",
"G. c #94836B",
"H. c #928870",
"J. c #9B8B72",
"K. c #A08C63",
"L. c #A5946D",
"P. c #A8976E",
"I. c #AA986F",
"U. c #A49573",
"Y. c #A99771",
"T. c #A79A77",
"R. c #AC9B71",
"E. c #A1967E",
"W. c #A89778",
"Q. c #A59A7E",
"!. c #B4A175",
"~. c #B2A179",
"^. c #A9A087",
"/. c #B3A582",
"(. c #BBAC88",
"). c #C2B48D",
"_. c #D1C5A3",
/* pixels */
"$ $ $ $ ; i A q.) e.a.C k 6 $ 2 w 9 7 2 2 2 2 ; ; ; ; ; ; ; = = = $   $ ; ; ; ; - $ +     X + + + + + + + + +       + + + + + + + + - + + = 7 9 2 2 & & = $ @ + O + + + + % ; ; $ + = 0 0 q K <.k u 6 $ ; q 0 6 : : 6 0 0 0 0 6 $ ; 7 q u p d a 7 $ $ $ $ $ $ $ ",
"$ $ $ ; i a D k.M.K.*.E Y d 2 2 q 9 7 7 3 2 ; ; ; ; ; ; ; = = = $ +   + + + + + + + + + X + % ; 6 0 q j -.7.7.g # + + + + + + + + + + + + = 1 9 3 ; = $ + + X + % ; = O + + # * + + ; 6 7 0 k I u 7 6 = 7 9 7 : : : 6 0 0 0 0 6 ; 0 7 q p d d d d u 2 $ $ $ $ $ ",
"$ $ = w d F / b.!.1.k k k d d u u q q 7 2 3 7 2 2 2 ; ; ; = = = $ $ $ $ = & ; 7 w d k k 6 @ - 0 j c ] 5.N.V.S.V.g * * 0 6 + + O + + +     $ 1 9 & $ @ O   + $ ; 3 7 6 + + + + + + $ ; ; ; 6 u s 9 , : : 7 0 , : : : 6 0 0 0 0 0 0 0 0 q a d d d a k u 9 2 $ $ $ ",
"+ + $ = 3 w a q.*.d d d d d d p u q 7 7 7 7 9 7 2 2 ; ; ; ; = = = ; 3 7 7 7 q d H W E %.2.= $ g | } } #.#.;.,.9. .- * p p = $ = 1 $ + +   + 3 = @ @ + + $ & 1 7 7 ; + % 6 % , = % - 6 6 6 6 7 q 6 : : : : : ; : : : 6 0 0 0 0 0 0 0 0 9 i p p p p u & 2 F G u ; ",
". . $ $ $ = 3 i d d d d d d d u u q 7 9 9 9 9 7 3 2 ; ; 2 2 2 2 3 7 7 9 9 q u d Z A F F E 1 + 6 | | I z j z c ] | 6 $ g p = $ q g q = + + + $ + + @ $ & 1 6 7 7 ; O % 7 q ,.4.y 9 6 0 0 6 6 : : ; - - - - - ; ; : : 6 0 0 0 0 0 0 0 0 7 q p p p k 7 = 3 E r.r.W ",
". @ 7 1 = & 3 w d d Z d u w u u u q u u w u q 7 7 3 2 3 7 7 7 7 7 7 9 q i a d d d Z H H J 7 + $ j | v j g g j l v g % g p 1 = p 7 q q ; + +   + + $ 6 e 7 7 6 ; * + 7 9 -.D.} g y 9 0 : ; ; ; - - - - - - - - - ; : : 6 7 0 8 0 0 0 7 q u p p p k 7 $ = 9 u u 7 ",
"+ 7 w E ..7 w d Z d ~ d q q q u u u u u u u u q 9 7 7 7 q q q q 9 q w p d d d d d J &.R F p + + 6 | v g g g g g g g , q p 7 = 6 7 7 7 7 $ +   + & k I K 9 6 ; - * + ; q C.;.g p y y 6 - - - - - - - - - - - - - ; : : 2 6 8 0 8 0 0 7 q u p p p p 7 $ $ ; 2 ; @ ",
"7 r a a.j.E N b d a W p 9 q q u u u u u u i p i u i p p p p p p i i a d b b d d Z ~ &.R i 9 + + ; I I j g g g p u p 7 0 q 7 1 % 7 6 7 7 % + + % 9 q q q 7 7 ; - - + $ 6 I l j p y 0 : - - - - - - - - - - - - - ; : : : 6 7 0 8 0 7 7 q u p p p p q $ = = = + . ",
"r a o.>.D D E %.D a a w q 9 q q u u p p p d d d d d d b b d d d d d b m m m b Z H H d 2 $ $ $ + - z | j g g g p u q q u q 7 6 ; 7 6 6 7 = + + 6 7 7 7 7 7 7 6 ; - + + ; 6 p g p 0 : : ; - - ; - - - - - - - - - ; : : , , 6 0 0 0 0 q y u p p p p 6 $ = = @ + & ",
"a >.%.i 9 9 q i u w q w q q w q w u d d d d b b m M H H H m m m M H J J J H m H d 3 $ + @ = & $ $ g | j g g g g p q q q 9 7 7 7 6 6 6 7 7 $ $ 7 7 7 7 6 7 7 6 ; - # + ; ; q 0 0 , : : : ; ; : ; - - - - - - - - ; : : , 6 6 7 0 7 7 q y u p p p p 2 $ = + + = 3 ",
"r.%.e 7 7 7 7 7 7 9 9 q q q 9 q q u a d d b m m H ! ! ! ! ! ! ! ! ! ! ! J J b 9 $ + + + + & = @ $ 0 I v j g g g p q 7 7 7 7 7 7 6 6 6 6 q , ; 7 7 6 6 6 6 6 7 6 ; # + - ; 0 0 6 : ; ; ; : : : : ; - - - - - - - ; : , 6 6 6 6 0 7 9 q u u p p p p 7 @ @ @ & 7 e ",
"k q 7 7 7 7 7 9 7 7 9 q w q 9 9 q w p d d b m H ! _ ) _ ) ) _ _ _ _ _ ( ! J 9 @ + $ % 2 k a.g.2 + : l c z g g g p y 7 7 7 7 7 7 7 7 7 6 7 y 7 7 7 6 5 6 6 6 6 6 > $ + % ; 0 7 6 ; ; ; ; ; : : : ; - - - - - - - : : 6 6 6 6 6 0 7 q u u u p p u 7 $ $ = 1 e K E ",
"q 9 7 7 9 9 9 q q 9 9 9 9 9 w q q u p b m m H ! _ ` 0.0.0.0.0.` ) _ _ _ ( ! d q u u a k I 1.U.p + ; g v z j g g g p q 7 7 7 7 7 7 7 7 7 7 9 7 7 7 6 6 2 6 6 1 1 6 * + % 1 7 6 , ; ; ; - ; ; ; ; : ; ; - - - - ; : 6 6 6 6 7 0 0 7 q u u p e 6 = = = 1 7 k K k u ",
"q 9 9 7 9 w q 9 q 9 7 9 q 9 w w u p d m M H J ! ( ` 0.0.0.0.0.0.0.` ` ` _ ( F k k k k k k k C 7 + ; y v l j g g g g u q 9 7 7 7 9 9 7 7 7 7 7 7 7 7 6 6 6 6 6 6 7 ; + $ 7 7 6 , ; ; ; - ; ; ; ; : : : ; ; ; ; : 6 6 6 6 7 0 0 7 7 q u q 6 = = 1 6 e a h p e q q ",
"7 7 7 7 9 9 q q q q 9 q q 9 w u p d d m M J J H J _ 0.0.0.0.w.t.w.` ` ` ` ) ( Z Z Z Z k k N Z = + : q z l j j g g p u u y q 7 7 9 9 9 7 7 7 7 7 7 7 7 6 7 7 7 7 7 6 # $ 0 q 0 6 , ; ; ; - - ; ; : : , : : : : 6 , 6 6 0 0 7 7 7 7 7 2 = & 7 p k I I a q q q q 9 ",
"7 7 9 9 q q q q 9 q w w q w u u a d b b m H H m H ( ` 0.0.0.t.p.p.w.` ` ` ` / W W W W Z k C 9 + ; 0 9 j j j j g p u u u p u q 9 9 9 9 9 9 7 7 7 7 7 7 7 7 9 9 9 7 7 % + ; q 0 6 , : ; ; ; ; ; ; ; , 6 6 6 : 6 6 6 6 6 0 0 7 7 7 7 = = 9 K 2.>.I k p q 9 9 9 7 9 ",
"7 7 9 w q 9 q 9 q w u u w u p a d b b m m m m m H ! ( ` 0.0.t.y.y.p.w.` ` ` _ ( W W ( W C k $ $ z j q j j j j j p p u p p p u q 9 9 9 9 9 9 7 7 7 7 7 7 9 q q q q 9 = + $ 7 q 6 6 : : ; : ; ; ; ; 6 6 , 6 6 6 6 6 6 7 7 0 7 7 7 7 $ 2 2.W.s.o.N p q 9 7 7 7 7 7 ",
"7 9 q q q w w w w u u u u p d d b b m M M M M H J J ! ( ` ` w.w.^ ` w.` ` ` _ ( ( W C C C ; * 0 ] p u p j j j j g p p g g p u u 9 9 9 9 9 9 9 7 7 7 7 7 7 q q q q q = + $ & 7 6 : : : : : : ; ; ; : 6 , 6 6 , 6 6 6 6 6 6 0 7 7 7 $ 1 2.F.r.%.N p q 9 7 9 7 9 7 ",
"7 9 q q w u u u u u p p i a b b b m M M M M M H J J J ( _ _ 0.t.w.` ` ` ` _ _ _ ( W E E d + ; f I u u p p j j j j j j j g p u u q q q 9 9 9 9 9 9 9 9 9 9 q q q u p 7 = + $ 6 6 6 , : : : : : ; : , 6 6 6 , 6 , 6 6 6 6 6 0 7 7 9 ; & k j.*.%.Z u 9 7 7 7 7 9 9 ",
"9 q q q w u u p a d d d d b m m m m m M M M M H J J J ( ( _ ` 0.t.w.` _ ( ( ( ! ! J E %.7 + , g k u u u p j j j j j j j j p u u p p q 9 9 9 9 9 9 9 9 q q q q u p q q 7 % + + $ $ $ = : : : : : : , 6 6 : : 6 6 6 6 6 6 6 7 0 7 6 = $ u a.%.%.I u 7 7 7 7 7 7 9 ",
"q q q q w u p d d d b b b b m m m b b M m m m M J J ! ( ( _ ` ` _ _ ( J J J J J ! W W C $ $ , g j p p p p g j j j j j j j g p g g u 9 9 q 9 9 9 9 9 q q q u i p p u q u 7 + + + + * 6 : : : : : : : , 6 , , 6 6 6 6 6 6 6 6 0 0 ; $ @ 7 6.<.%.E p 9 7 7 9 9 9 9 ",
"9 9 w w u p d d d d b b b b m m b b m M m b m M H J ! ( ( ( _ _ _ ( ! J J J ! J H R C u + % 6 z p p p p p p j j j j j j j j j j p q 9 9 q 9 9 9 9 9 q q q u p p p p p p u ; + + + ; 0 6 , 6 6 6 6 6 : : , , 6 6 6 6 6 7 6 0 0 7 6 - $ & %.a.%...k u 9 9 q q q q ",
"q q w u p d d d d d b b b m M m b b m m b m M H J J J ! ( ( ( _ ( ( ( ! J ! ( J Z Z b 7 + ; g z p p p p u p j j j j j j j j p p p q 9 9 9 9 9 9 9 9 9 q q q u p d d p p u 7 $ + + % 0 6 6 6 , 6 : 6 6 , 6 6 : 6 6 7 0 0 0 0 9 9 9 , % $ k j.%.E N d u q q q q q ",
"w u u p d d d d d b b m m m m m b b b m m m M H J J J J ! ( ( ( ( ( ( ! J ( ! H Z Z d 2 + 6 l p p p p p u p g j j j p p j j g p u u q 9 9 9 9 9 9 7 7 7 7 q p p a d a p u q 6 + + + 6 7 6 6 6 6 : , 6 6 6 6 : 6 6 0 0 0 7 9 q q q 6 ; $ & o.%.o.G N d u e q q q ",
"u u u a d d d k w b m m M M M m b b b b b m M H J J J J J J ! ( ( ( ( ( ( ( J Z Z Z N 1   > u u p p p p p u p p j p u u p j j p p u q 9 9 9 9 7 0 7 6 6 7 7 u p p d d p u q 9 ; + + ; 0 6 , , , 6 6 : 6 6 6 6 6 7 7 0 9 q 9 q q 0 9 6 % + $ 6 I o.E N p u q q q ",
"u i p p a N I Z & 3 H M M M H M m m m m m b m J J H M H H H H J ! ( ( ( ( ! Z b Z d q $   . $ 7 p p p p u u u u u y q q y p g u y q q 9 9 9 7 7 7 6 6 6 6 6 u p p a d d p p u 7 * + $ 6 7 6 6 , 6 6 6 6 6 6 6 6 0 0 9 q y u q q 9 7 0 , $ + + ; K %.G k u q u p ",
"d d d p k I I K 1 $ u J H H J J J H H M M m H J J J H H H M M M J ( ( ( ( J b d d 3 + . . .   + 6 u u p u y u u y q q q q y p u q q q q 9 9 9 7 7 7 6 6 6 6 u p p p d d d p p q 7 + + ; 0 6 6 6 6 6 6 6 7 6 7 0 9 q u p p 7 6 9 0 7 7 0 ; $ @ + ; E ~ N p p p p ",
"p p p p a k I I 7 $ $ d ~ F Z / ~ ! J J J H J J J J J J J H H H J ! ( ! J Z b d i q 1 + + = 6 2 7 q q q q q u u q q q q q q u u q q q q 9 9 9 9 9 9 6 6 7 7 u p p p d k k d a p q ; + $ 6 6 6 6 6 6 6 7 0 0 0 9 q u p p 7 # ; q 9 7 7 7 7 ; @ + X ; K G k s p p ",
"p p p p h k I I q $ $ ; o.I = %.&.~ ~ J J J J J J J H H H J J J J J J J J Z b d p u 3 ; u %.I q 7 0 7 7 7 9 q q q q q q q q y y q q q q q q q q q q q q q q u u p d d k k k k d u 7 $ + ; 7 6 6 6 6 7 0 6 6 6 6 y p p q $ > q 9 9 6 6 6 6 , % @ + + $ 7 k k p p ",
"p p h h p u q q 2 $ $ $ 7 K + e i./ ~ ! J J J J J J H H H H H J J J J J J Z Z d d q & p E a.a 7 0 0 0 0 0 7 9 q 7 7 7 9 9 q q q q q q q q q q q q q y u u q q u p d k k k k k d d u 6 + $ 6 6 0 0 6 , ; $ # + + ; I u - + 9 y 9 9 9 6 6 , > > % + X + + 6 k d p ",
"u e 7 ; $ + + + $ $ $ $ + 5 + $ k F J ~ ~ J J J J J J H H H H H J J J J J Z m b d 3 9 k 2.I u 7 0 0 0 0 0 0 7 7 7 7 0 7 7 q q q q q q q q q q q q y u p p u u p p a k k k k k k k d p % + # $ $ # % % % - - - $ + 6 %   + = 6 0 9 9 9 6 7 , > ; $ O + + 6 p 7 7 ",
"+ + + + $ $ & 1 3 3 3 7 = + + + + $ 1 d ~ ~ J J J H H H H H H H J J J J J Z Z d p 7 p k K u q 7 0 0 0 0 0 0 0 0 7 0 7 7 q q q q q q q q q q q q u p p p p p p p a d k k k k k k k d 7 + + + # * ; 6 ; ; , 6 6 ; % + +   + + + + # * ; ; : ; $ $ + + + + q 6 X + ",
"6 q q e u e u u u u u e 7 $ + + + + + $ 9 F J H H H H H H H H H J J J J J Z d d 9 7 p u u 7 7 7 7 7 0 0 0 0 0 0 0 7 7 7 q q q y q q q q q q u u p p d d d d p d k k k k k k k k k 2 + + + # ; ; z ;.g g p y q 6 ; ; = * +           + + + + + + +     + + + X + ",
"<.3.k a a p e e q 9 7 7 7 2 $ + + + $ $ $ 1 b J m Z H H H J H J ! ! J J H Z d p 1 7 q u q 0 7 7 7 7 7 0 0 0 0 0 0 7 q q y y u p p u u u u p p p a d d d d d a e 7 ; % 7 p k k q = + $ $ + # ; , j #.j q 9 q q q 0 6 6 6 = + + + @ + + $ = & & ; 6 e q % + + $ = ",
"I k a a p u q 9 7 7 7 7 7 7 7 % + + + $ $ $ 7 G d b Z H H J J ~ ( ( H b d d i 7 = 0 q u 0 0 7 7 q q q 7 0 0 0 0 0 7 q y p p p d a a a p p d d d d d d d p 7 = + + + + + + $ % % = & 2 6 + + ; 6 0 6 6 6 6 0 9 y y 9 0 6 % + @ ; 7 1 & & 1 9 V %.a.3...7 $ $ 2 1 ",
"N p i u q 9 7 7 7 7 7 7 7 7 7 q p ; + + $ $ = w a d d Z H J J ( ( ( b 7 1 1 1 & ; 6 k y 0 0 7 7 9 q q q 0 0 0 0 0 7 q u p a d d d d d d d d d d k d u 6 $ + @ $ $ $ $ $ @ = & ; ; 6 9 7 = + ; 0 6 6 6 , 6 6 0 0 q q 0 6 $ O $ 7 q 7 K 6.C.F.F.j.1...Z u & $ 1 2 ",
"a u q q 9 9 7 7 7 7 7 7 7 7 7 7 p k ; + + @ $ 1 9 d d b H J ! ( ( ( b ; @ $ @ = ; y j 0 0 0 0 7 9 7 7 q 7 9 7 0 7 7 q p d d d d d d d d d d d d q ; @ + $ 7 p a k Z E N = ; ; ; q g q 0 ; + 6 q 6 6 6 6 6 6 6 6 6 0 0 6 $ X % 7 6 7 6./.U.d.1.%.E k p p q % = 3 ",
"u 9 9 9 9 7 7 7 7 7 7 7 7 7 7 7 7 u p $ + + $ & 1 9 d b H ! ( ( ( ( Z $ + + $ ; 6 j q 0 0 0 0 7 7 7 q q q q q q q q p d d d d d d d d d d d u ; + + + 6 p k k Z ~ 1.i.*.7 ; ; p j 7 0 6 > $ 9 6 , 6 , , , 6 6 6 6 6 6 6 + + ; 6 6 6 7 a.j.>.E I K k h p p 7 = 7 ",
"9 9 9 7 7 7 7 7 7 7 7 7 7 7 7 7 7 7 9 1 = $ $ $ & 1 w b m H J ( _ ( w + + $ ; : q 9 0 0 0 0 7 7 7 7 q q y u u u u p d d d d d d d d d d a 7 $ + + $ q k p a d d Z E &.=.9 & g k q 0 0 6 , > 6 , > > > > > , 6 6 6 6 6 6 + @ 7 6 6 6 7 %.a.E N k k k h h p u 7 u ",
"9 9 9 7 7 7 7 9 7 7 7 7 7 7 7 7 7 7 7 7 1 & @ $ = 1 1 a H J / ) ( R % + $ ; ; 7 y 0 0 0 7 0 7 7 7 9 q u p p p p u u u a d d d d d d d u 2 + + + ; p k p p p p d k x Z C 9 q ] p y q q 0 6 , > > > > > > > > , 6 6 , 6 ; + = 6 6 6 6 6 Z >.Z p i p h a p p p u p ",
"9 9 7 3 7 7 7 9 9 9 7 7 7 7 7 7 7 7 7 7 3 7 $ + $ & 1 9 b J ! ~ ( q + + - ; 0 j 0 0 0 0 7 7 7 7 q q q u u p p u q q q p d d d d d a q ; + + % q h u q u q u p a k x Z Z q k v p p u u q 0 6 , > > > > > , > , 6 6 6 6 ; $ 7 6 6 6 6 6 q W k i w i p p p p p p p ",
"w 9 7 7 7 9 9 q w q 9 7 7 7 7 7 7 7 7 7 7 7 = + $ = 1 3 a b A ! Z $ + $ ; ; j p 0 0 0 0 7 7 7 7 7 7 7 q q u u q q q u p d d k d a q ; = + + z I q 7 7 9 9 q u p d k Z Z k k k s p p p u q 0 6 , > > > , 6 , , 6 6 6 6 = = 7 6 6 6 6 6 6 k k u q w u u u p p p p ",
"a e 9 9 9 q w w w q 9 7 7 7 7 7 7 7 7 7 9 9 ; + + = 1 1 w b Z ! 3 + + - ; 0 c q 0 0 0 0 0 7 7 6 6 , , 6 9 y u q q u p d d d d d u = $ $ + + q p 9 7 7 7 7 7 q u p k x Z Z k k k k s s p y 0 0 6 , > > , 6 6 6 6 7 ; ; $ ; 7 6 6 6 6 6 2 q k u 9 9 q q e i p p p ",
"a i q 9 9 q w w w w 9 9 9 7 7 7 7 7 7 7 9 q 1 $ + $ 1 1 7 b A d $ + $ ; ; g k q 0 0 0 0 0 0 6 , , , , , 6 7 q q u p p a d d d q % + + + + @ = 6 7 7 7 7 7 7 7 q q p k x Z Z Z k k k s p u q 0 6 6 , , 6 6 6 6 0 6 $ @ $ 6 6 6 6 6 6 6 6 q k u 9 9 9 9 q u p p p ",
"a a w 9 9 9 w w w w w q 9 9 7 7 7 7 7 w q 9 2 $ + $ & 1 1 d A 2 + + = ; 6 v p q 6 6 0 7 6 , , , , , , , , 6 7 q q y u a d p 2 $ = = $ $ + @ = ; 7 7 7 7 7 7 7 9 q p d d k Z Z Z Z x d p u q 9 0 6 , 6 6 6 6 6 0 ; + @ ; 6 6 6 6 6 6 6 6 7 k q 9 9 9 9 9 w u p p ",
"a a a e 9 q w w w w w w w 9 9 9 9 9 9 i i q 7 6 ; + = 1 1 a b $ + $ = ; j k p 9 , , , , , , , , , , , , 6 0 7 6 q u p d u % $ 2 9 w i a 9 ; $ 1 7 7 7 7 7 7 7 9 q u d d k Z Z Z Z Z k k p u q 9 7 6 , , 6 6 6 0 $ + $ 6 6 6 2 2 6 6 6 6 q k 9 9 9 9 9 9 q w i p ",
"a a a a i i a w w w w w w w w i i i a a a i w 7 ; $ $ 1 1 i 9 + $ = = 9 v p p 6 , , , , , , , , , , , 6 0 0 6 ; y p a d ; + 1 w a F s.%.%.o.Z q 7 7 7 7 7 7 7 9 q u p d k Z x x Z Z Z Z k s u q 7 6 , 6 6 6 7 7 $ + & 7 6 6 6 6 6 6 6 6 g p 9 9 9 9 9 9 q u u p ",
"a a a a a a a i i i w w w i a a a d N N b a i 7 2 = + = 1 a 1 + $ = 6 j j g 0 , ; ; , , , , , , 6 6 0 0 0 7 : ; u p p p = $ 1 b / l.a.a d k d 9 7 7 7 9 9 9 q q u p p k Z Z Z Z Z Z x k k k p u q 7 0 7 6 6 6 7 $ @ 2 7 6 6 6 6 6 6 7 p k q 9 7 7 7 9 q e p p p ",
"a a a a a a a a a a a a i a a a d b b B N d a w 7 ; $ $ & 9 = + @ = q l j p 6 ; $ ; , , , , , , 6 0 0 0 0 0 : % y p p u = $ 1 i &.j.q 7 2 2 2 2 7 7 7 9 9 q u u p p k k Z Z Z Z Z k k k k k s p u q q 0 0 7 0 0 % $ 7 7 7 6 6 6 7 p k k q 7 7 7 7 7 7 q e u u p ",
"a a a a a a a a a a a a a a a a d b b N b d a i w 7 7 $ + + + + + = ; g l q 6 ; $ ; , , , , , , 6 0 q q q q 0 $ ; q u u = + & 3 F k 7 7 2 2 2 2 3 7 7 9 9 q p p p k k Z N k k k k k k k k k k s p u q q 9 q q 7 $ = w w 9 7 6 q ..k u q 9 7 7 7 7 7 7 q e e u p ",
"i i a a a a a a a a a a a a d a b N A A b b d a a i i 1 + + + + 7 9 k %.x y 6 = + 6 6 , 6 6 6 7 0 q q q q q q = + = 7 9 $ + = 2 7 7 7 3 2 2 2 2 2 6 7 9 9 q p p a k d k d k k k k k k k k k k k s p u q q q q 7 $ 3 w w w 7 7 o.E p u w q 7 7 7 7 7 7 q e e i p ",
"p i i a a a a a a a a a a a d b b B H H A b b a a a a 3 + $ % = i Z N.<.I p 6 $ + 6 0 6 0 0 0 0 0 9 9 7 6 2 ; $ + = 3 3 $ + = 2 6 7 2 2 2 2 2 2 2 7 7 9 9 q u a p p p p d k k k k k k k k k k k s p p u u q 7 $ $ 9 w w w k a.i.G d s p e q 7 7 7 9 9 w e e e u ",
"i i i a a a a b b b b d b b b Z A A H A N b a a a a a 7 + $ $ 7 a j.C.>.E j 6 $ + 6 0 0 0 0 6 , , ; - + + + + = 7 7 3 7 1 $ & 2 6 7 2 2 2 2 2 2 3 7 7 7 9 9 u u q q p a d k k k k k k k k k k k s p p p p q = $ 7 w w w D Z.a.>.W d d s u q 9 9 9 9 q e e e e e ",
"i i p a a a b b b b N b b B J ! ! J H A N b d a a a i 1 + + $ d o.a.%.E Y l 7 $ + 6 q 0 6 ; - - - # + = 1 7 9 w w 7 2 3 2 $ & 2 2 2 2 2 2 2 2 2 7 7 7 9 9 q q q 9 q i p d d k k k Z Z N k k k k s p p p u ; @ 7 a a d F Z.i.%.%.F Z d s u e q q w q q e w e e e ",
"p p a a a d b b b B A N A J ! ! ! ! H H H B b d a a 9 % + + 7 s.K 7 7 7 7 6 = + + 6 y , - - % $ = 9 N H J &.Z i 9 7 2 2 2 $ = ; 2 2 2 2 2 2 2 2 7 7 7 9 9 q q q q q u p d d k k N Z Z D Z Z N k k p p p 1 @ 3 b N b ~ n.>.J %.%.C N d s u e e e u u u u u i u u ",
"a p p a d b b b B A H J ! ! ! ! ! H H A A A N d a i 7 $ + $ 7 h = $ $ $ $ + + + + , , - - ; 6 a / p.s.p.e.~ Z a w 7 7 7 2 = = & 2 2 2 2 2 2 6 7 7 7 7 9 9 9 q u p u p p d d k k Z Z C I I D Z k k d p 6 @ 2 b N N J v.*.Z W %.J Z N d s u w e e i p p p p p a a ",
"a a a d N N N B A H H J ! ! ! ! ! A A B B N b a a w 6 $ + $ $ + + + + + + + + + + $ % , K s.n.v.l.s.i.>.E Z k i q 7 2 2 2 ; ; 2 2 2 2 2 2 2 7 7 7 7 9 9 q q u p p d d d d k k k k Z I I I C Z Z k p 2 @ 3 m A A R n.s.F H E o.C Z N d s u w e u p p p p p p a d ",
"a a a b N N B A H H A A J R ! ! ! N d d b a a a a w 7 = = $ + + + + + + + + + + + + > Q._.).L.1.E Y Z k p u q 7 2 2 2 2 2 2 2 2 2 2 2 2 2 2 7 7 7 7 9 q u p p d d k k k k k k k k Z I I I I C Z k 2 @ 1 H J Q ~ l.u.F Z Z F k d d d d p u w u p p p p p p d d d ",
"a a a d b N B A A B B B A A A J R b p p i i w i i q 7 ; = $ $ $ $ $ @ $ $ $ $ $ $ + 6 U.(.A.J C W D k s u q 7 7 2 2 2 2 2 2 2 2 2 2 2 2 2 6 7 7 9 9 9 q i p a d k k k k k k k k Z Z D C I I I Z 7 @ & A ! ! ~ l.i.H Z F W d u i p d d s u u e u a p p p a d d d ",
"a a a a b b N B B A A A a 3 3 3 N N i u w w i w q q 7 6 = $ = = = $ $ $ $ $ $ $ $ + 1 d / J b W W Z k p u q 7 3 2 2 2 2 2 2 2 2 2 2 2 3 7 7 9 9 9 9 q u p a d d k k k k k k k k k k Z I I I I a $ & w b n H n.Z.Z F J N d t t u p d d d i p u e a a a d a a d d ",
"a a a a b b N A A H J A 3 % % 9 o.a u w w w w w w 9 7 7 6 ; ; ; = = = $ $ $ $ $ $ + i ~ *.( ~ W W Z k d p q 7 6 2 2 2 2 2 2 2 2 2 2 3 7 9 9 9 q q u p p 9 p d d d d u 2 = ; 6 q p p k Z I I I 7 @ < 3 3 3 r &.( J Z a u t t t u p a d d b d i e a d d d a p d d ",
"a a a a b b N H J H J b 1 % 7 %.N i w w w 9 9 9 q 7 7 7 7 6 6 ; ; = = $ $ $ $ @ + ; %.A.u./ ( W Y Z k k p q 9 7 7 7 6 2 2 2 2 2 2 3 7 9 9 9 q u p p a a i a k d d q $ + = 7 9 9 7 6 7 6 2 2 6 $ @ $ 4 m M ! ` R p t t t t t t u p p d d d b a i a d d d a a d d ",
"a a a d b b b A H J J Z 1 & o.J a u w w q 9 9 9 7 7 7 7 7 7 7 6 ; ; = = $ $ $ @ + q a.L.i.&.( W C Z Z k p q q 9 9 7 7 7 7 7 7 7 7 7 9 9 q q u p a a a a d k k d u $ + $ 3 q q w 7 ; ; ; = $ $ $ @ @ 3 ( c.=.d t t t t t t t t t u p d d d b d a d d b d d d b d ",
"a a a d b b b A J J J H 3 = i N a u w w 9 9 7 7 7 7 7 7 7 7 7 7 6 : ; = = $ $ $ $ 7 i.L.s.=.~ I Z Z k k p u y q 9 q q q 7 7 7 9 9 9 9 9 q p p a a a a k N N N N 6 + $ 3 w w k 5.k 7 2 ; ; ; ; ; $ @ < ! / u q t t t t t t t t t t u p d d b b b b b b b b b b d ",
"a a a a a a N H H H A i = % 3 N a i w w 7 7 7 7 7 7 7 7 7 7 7 7 6 6 , ; ; = $ $ $ ; %.P.l.1.( W D Z k d s p u q 9 q u u u q q 9 9 9 9 9 q q u p a a d N N N N a $ + 1 q w i B.6.d d d i 7 2 1 ; & $ = b p t u t t t t t t t t t u i p d d b b m b m m m m b b b ",
"a a a a a a b A Z i ; + + $ 3 Z d i w 9 7 7 7 7 7 7 7 7 7 7 7 6 6 6 6 ; ; = = $ $ ; ..Y.v.i.( C D Z k s s p u q 9 9 q u u q q 9 q 9 9 9 9 9 9 q i a a N N N N 9 + = 9 w w k 9.y 0 9 p d d d u 7 7 = $ i i u p u t t t t t t t u p a d d d b m Z Z m m m m m b b ",
"a a a a a a b b 1 + + + + $ & d N i w 9 7 7 7 7 7 7 7 7 7 7 7 7 7 6 ; ; ; ; = $ $ ; E R.A.i.&.W C k s s p p u q 9 9 q u u q q 9 q 9 9 q 9 e u q u a a d N N N ; + 7 w w q k T 7 0 0 u p u p p u u q ; q p p p p i t t u u u u p d d d b m m Z Z Z m Z Z m b b b ",
"b b b b b a b 3 + + $ % + + $ q Z d u 9 9 7 7 7 7 7 7 7 7 7 7 7 7 7 7 6 , ; = = $ $ 7 <.s.i.( k d p u p u u u y q q q q q 9 q 9 9 9 9 q q i a p p a a d N N a $ = w w a >.+.s 0 0 0 u u u u p u i u q w p p p p p u u p d p p d d b b m Z Z Z Z Z Z Z Z m b b b ",
"b b b b b b w $ $ $ $ 2 % + + $ w d p u w 9 7 7 7 7 7 6 6 6 6 6 7 7 7 7 7 6 ; = $ + + $ 6 7 6 * % ; 6 7 q u u u u q q q q q q 9 9 q q 9 q u a a a a k N N N 7 $ 7 7 7 G.D.K q 0 0 0 7 t t u u p p p p i p p p p p p p d d d d d d b m m Z Z Z Z Z Z Z Z Z m b b ",
"b b b b b b 1 @ $ $ $ 6 2 $ + + $ & 7 u w 9 7 7 6 6 6 6 6 6 6 6 7 7 7 7 7 7 7 , = $ + = ; ; ; ; ; ; ; ; 7 p u u u q q 9 q q q 9 q q q q q u p a a d N N N k = = 6 ; 6.J.K u 9 0 6 $ ; t t t u p p p p p p p p p a d d d b b b b b m Z m Z Z Z Z Z Z Z Z Z H Z Z ",
"b d d b b d % + @ $ % 7 7 = + + + + + 7 i q 7 7 6 6 6 6 6 6 6 6 7 7 7 7 7 7 7 6 ; $ = 7 u k K D Z d q j k p y u u u e 9 9 9 9 9 9 9 9 9 9 q p a a k N N N q $ 2 ; l J.I p t 7 0 : ; q t t t u p p p p p p p p p a b b b m m m m b Z Z Z Z Z Z Z Z Z H H H H H H ",
"d a a d b 3 $ $ $ $ = 7 7 2 $ + + + + % p q 7 7 6 6 6 6 6 6 6 7 7 7 7 7 7 7 7 7 6 $ 7 p h.j.<.%.E p k x k p y u u u q 9 9 9 9 9 9 9 9 9 9 q p a d N N N d ; = 1 6 x.>.k u q 0 0 0 t t t t t u p p d d d p p p p d b b b m Z Z Z m Z Z Z Z Z m m Z H H H H H Z Z ",
"a a a a d q 1 = $ $ 3 7 7 ; % + + + + + p p 7 7 6 6 6 6 6 6 7 7 7 7 7 7 7 7 7 7 2 % q p T.).z.1.E k k s s s u p p u u 9 9 9 9 9 9 9 9 9 9 q p a d N N d u $ ; ;  .C.k p t 7 0 0 7 t t t t t p p d d d d d d d d d b m Z Z Z Z Z Z Z Z H Z b b b Z H J H Z Z b b ",
"a a a p a a p u q q 9 7 7 ; ; $ + $ + + 6 j q 7 7 6 6 6 6 7 7 7 7 7 7 7 7 7 7 7 ; ; y u j.F.1.%.Z x k s s s s p s p u q 9 9 9 9 9 9 9 9 9 q u p d N N a q $ = 6 J.2.s t 9 0 0 0 0 q t t t t u p d d d b d d b b b m Z Z H Z H H H H H Z m b b m Z H H Z b d b b ",
"a a p p p p p u q 9 7 7 6 ; ; % $ $ + + $ q y 7 7 7 6 6 6 7 7 7 7 7 7 7 7 7 7 7 % 6 u s I x k s s s s s s s s s s p u q q 9 9 9 9 9 9 9 q q u p a N N a 7 + % , h.%.u 9 0 0 0 0 0 q t t t t u p a d d b d b b b b Z Z Z H H H H H H Z b b b b Z Z H Z m b d d d ",
"a p p p p p u e 9 w 9 7 6 ; ; - $ $ $ + + $ 7 q 7 7 7 6 7 7 7 7 7 7 7 7 7 7 7 2 * q u s E x k s s s s s s s s s s s p u q 9 9 9 9 9 9 9 q u u p a N k p 7 + $ ; k E p t q 0 0 0 0 0 q t t t u p p d d d b b b b b m Z Z Z H H H H H H Z Z b Z Z Z Z m b d d d p ",
"p p p u u u q 9 q q 7 6 6 ; ; - - $ $ + + + $ 6 7 7 7 7 7 7 7 7 7 7 7 7 6 7 7 = = q u p >.x s s s s s s s s s s s s p u q 9 9 9 q q q q q u i p a N k u 7 @ + ; 7 G k p y q 0 0 7 9 q t t t u p p p d d d b b b b b b m Z Z J J H H J H Z Z Z Z Z b d d d a p p ",
"p u e q q q 7 6 ; ; : ; ; ; ; - % $ $ $ + + $ = 9 q q q q 7 7 7 7 6 6 6 6 7 6 # ; 0 p ..O.x d s s s s s s s s s p p u q q e e u u u u u u u p p d N d u 7 = + = ; k Z k u t 9 q u u t t t t t u p p d d d b b b b b b b Z Z H H H H H Z Z Z Z Z b a p p p p p u ",
"q q 9 9 9 9 7 6 ; ; ; ; ; ; ; - $ $ $ $ + + + $ 6 q q q q q 7 7 6 , > > , 6 - + ; 6 k 5.W x k s s s s s s s s p i u q q q p p p p p p p p p a a d k a u 9 6 @ % ; u K k p t u p p u t t t t t u u a d d d d b b b b b Z Z H H H H H Z Z Z Z Z b a p u u p u t t ",
"9 9 7 7 7 7 7 7 6 ; ; ; ; ; ; - $ $ # $ $ $ + $ $ = 6 q q q 7 7 6 , > > > > $ $ ; ; I 8...Z k s p p p s s s s p u q q q q p a a p p p p p a a a a a a i q 7 = $ ; 7 Z k p u p k p u t t t t t t u p d d d d d d b b b Z H J H H H Z Z Z Z Z b d p u t t u t t t ",
"9 7 7 7 7 7 7 7 6 6 6 ; ; ; ; - % $ $ $ k q $ $ # $ $ 6 q q 7 7 6 , > > > ; + % ; ; I <.E Z x s p p p p s s s s p q q q 9 u a a a s a a a a a a a a a p u 9 ; + = ; k k p p d k d p t t t t t t u a d d d d d b b b b Z Z H H H Z Z Z Z Z Z b d p p t t t t t t ",
"9 7 7 7 7 7 7 7 7 6 2 ; ; ; ; ; - $ $ % , 6 ; $ $ $ $ $ ; 7 7 7 7 , > > > - + - ; > Z E Z k k s s s p p p p s s p q 9 q u p a a a a a a a a a a a a a p u 7 $ + % ; 7 Z d p k k k p t t t t t t u p a d d b b b b b m H H H H Z Z Z Z Z Z m b d p p u u u t t t ",
"q 9 7 7 7 7 7 7 7 6 6 6 6 ; ; ; - % $ - - ; 7 & $ $ $ $ $ % 6 7 6 , > > > % + ; 7 , K Z p p p p s s p p p p s s p u q u p a a a a a a a a a a a a a a a q = + + $ ; > k k k k p k p p t t u u u u p p d b b m m m m Z H J H H Z b b b b b d b d d d p p p p u t ",
"q 9 9 7 9 9 7 7 7 6 7 7 7 6 ; ; - - % - - - ; ; - $ $ $ $ $ $ ; , > > > ; # # 2 7 7 k x p p p p p p p p p p p s s s p p a a a a a a a a a p p a a a p p ; + + + + % ; q K k p 9 k s p p u p p u u p p d d b b m m Z H H H H Z Z Z Z b b b d d d d b d d d p u t ",
"q q 9 9 9 q 7 7 6 6 7 7 7 6 , ; - - - - - - - ; ; = $ $ $ $ $ $ ; > ; % + + + 6 7 6 7 p p u q q p p p p p p p p s s a d k k k a a a a a a p p p p p p p 7 9 e = + $ ; 6 Z Z p 7 p k p p p p p u u u p d b b b m Z H H H H Z Z Z Z Z b b b d d d b b b d d p p u ",
"q q q q q q 7 7 6 6 7 7 7 7 6 ; ; ; - - - - ; ; ; : ; $ $ $ $ + $ $ + + + + + 1 ; % $ $ $ % % = 7 p p p p p p p s p d k k k k d a a a a a p p p p p p p u 9 p i $ + % ; p I p 7 u k k p p u p p p u p d d b b m Z H H H Z Z Z Z Z Z b b b b b b b b b d d d p p ",
"q q q q q q 7 7 7 7 7 7 7 7 7 ; ; ; - - ; ; ; ; ; , 6 : % + + + + + + + + + + + + + + + + + + + % q p p p p p p p p p d k k k k a a a a p p p p p p p p u 7 7 e 7 + + % 6 K k q e k s p u u u p p p p d d b b b m Z Z Z Z Z Z Z b b b b b d b b b d d d d d p p ",
"q q q q q 7 7 7 7 7 7 9 9 7 7 7 6 ; ; - - - ; ; ; ; 6 6 6 % * * * % * * $ $ + + + + # # $ $ # % ; 7 s s s p p p p p p p p k d d a a a a p p p p p p p p u 7 6 7 9 & + + @ p k p p s p u u u u u u u i p d d d d b b b b b d d d d b d d d d b b d d d d d a p u ",
"q q q q q 9 7 q q q q 9 9 7 7 7 6 6 ; ; - - ; ; ; ; 6 6 6 6 ; ; ; ; ; ; ; ; - + + + * ; 6 6 q I I Z k d s s p p p p p p s d k d a a a a p p i e e e i p u 7 7 6 7 7 $ + + % p p p p p p u u u u u u u p p p p p a d d d d p p p d d d d d d d d d d d d a p u u ",
"q q q q q q q q q q q 9 9 7 7 7 6 6 6 ; ; ; ; ; ; ; ; 6 6 6 : ; ; ; ; ; ; ; ; $ # # ; 7 y p | ..I I k k s s p p p p p p s k Z k a p p a a i w w w u p p u 9 7 6 7 7 & @ + + q s p p p p u q q q q q u u p p p p p p p a p p p p d d d d d d d d d p p p p u u u ",
"q q q q q q q q q q q 9 9 7 7 7 7 7 6 ; ; ; ; ; ; ; ; ; 6 6 6 6 ; ; ; ; ; ; ; + $ ; p p k %.E Z I Z k k s s d d d d d d k N Z k p p p u u u w w w u i i e 9 7 7 6 7 ; @ + + 6 p p p u u u q q 9 7 9 q u p p p p i p p p p p p p a d d d d d d a p p u u u u u q ",
"9 9 q q q q q q q q q 9 9 7 7 7 7 7 7 ; ; ; ; ; ; ; ; 6 6 6 6 6 6 7 6 6 ; - + + - ; y k ..>.k k k k k k s d k k N k N Z Z Z N d p u e w w w w w w u w w w 9 7 7 6 6 ; $ + + = % = q u q q q 9 7 7 7 9 u i p p a u u p i p p p p a d d d d a p p p u u q q q q 9 ",
"9 9 q q q y u y q q q q q 9 9 7 7 7 7 6 6 ; ; ; ; 6 6 6 6 6 6 7 7 7 6 6 6 * + + ; , p k ..%.k g k k k k k k N Z Z Z Z Z Z Z k p u w w w w w w w w w w e u q 7 7 6 6 & $ + + + $ 6 q e 9 7 7 7 7 7 7 9 q t u d m q q q u p p p p a d p p p p p p p u u q 9 9 9 9 ",
"9 q q q q u p p q q q q q q q 7 7 7 7 7 6 ; ; ; 6 6 6 6 7 7 7 7 7 6 6 6 7 ; + + - ; y p T ..k p p k k k k k Z Z Z Z Z Z D Z k p w w w w w w w w w w w u p q 7 7 6 ; = $ + + $ 6 q q 7 7 7 7 7 7 7 7 7 9 q t p p u q q q u u p a a a p p p p u u u u u u q 9 9 9 ",
"9 9 9 q u p p p u q q q q q 7 7 7 7 7 7 6 6 6 7 7 7 6 6 6 7 7 7 7 7 6 6 6 6 > + * ; 7 p x I j g q p k p p k N Z Z C C C D N d i w w w w w w w w w w u u i w 9 7 6 = $ + + + $ % % = 7 7 7 7 7 7 7 7 7 9 9 q q u u u u q q q p a d p p p p u u u u u u u u 9 9 9 ",
"9 9 q q p p p p u q q y q q 7 7 7 7 7 7 7 7 7 7 7 7 6 6 7 7 7 7 7 6 6 6 6 7 7 ; # - 6 p K Z g g y y p q 9 p k N Z C C C C N a u w w w w w w w q w e p p i w 7 6 = $ + $ % $ + $ $ $ 2 7 7 7 7 7 7 7 7 9 9 9 q q q q u q q q u p d p p p u u u u u u u u u q 9 9 ",
"9 9 9 u p p p p p u q q q q q 9 9 7 7 7 7 7 7 7 7 7 7 7 7 7 7 7 7 7 7 7 6 7 7 0 ; % ; g %.Z g g g q y 0 0 y p k Z C C C Z N a u w w w w w 7 6 9 9 w p p u 9 7 = @ + % ; ; $ + $ $ + % 7 q 7 7 7 7 7 7 7 9 9 9 9 q q q q w q p d d a p u u u u u u u u u u u q 9 ",
"9 9 9 q u u y p p y q q q q q 9 7 7 7 7 7 7 7 7 7 7 7 q u u 9 7 7 7 7 7 7 7 7 6 0 % % 6  .I g g p q 0 6 ; : q k k Z Z Z Z k d i w w w w w 1 $ 7 9 w i u w 7 = + + ; 7 7 6 $ $ + $ + + ; q q 7 7 7 7 7 7 9 9 9 9 q q q u u p a d d a p p p u u u u u u u u u q 9 ",
"9 9 q q q q q u p p y q q q q 9 7 7 7 7 7 7 7 7 7 q q u p u 9 9 7 7 7 7 7 7 7 7 7 , # - y ..j g p 0 % $ - 7 p k d d k k k k d p u w w w w 1 + ; 9 q u q 7 $ + + 6 p q q 7 $ $ + + + + + 7 q 7 7 7 7 7 9 9 9 9 9 9 q u p a d d d d d a u 7 1 ; 7 d p u u u u q 9 ",
"9 9 q q q q e p p p p y q q q 9 7 7 7 7 7 7 7 7 q q u p a u q 9 7 7 7 7 7 7 7 7 6 6 + * > I v g 6 # % 6 p k d s p p s s p p d p p e w w w 6 @ $ 7 9 7 ; $ + % q p q 9 7 7 % $ $ + + + + % 9 7 7 7 7 7 q 9 9 9 9 q u p p d d d i 9 w 9 ; $ + + + 2 u u u u u q 9 ",
"9 q q q q q e p p p p u q q q 9 7 7 7 7 7 7 7 9 q u p a a d p q 7 7 7 7 7 7 7 7 7 6 # + - g K > # ; q p x k s p y u p p y p s s p u w w w 9 $ + ; 6 % + + 6 p p 9 9 9 7 6 ; % $ $ + + + + 6 7 7 7 7 7 7 9 9 9 9 q u p a d d 9 % ; q 7 = $ $ $ $ + % 7 q u u q 9 ",
"9 q q q q q q p p p p u q q q 9 9 7 7 7 7 7 7 9 q p a a k N k u q q 9 7 7 7 7 7 7 7 $ + # ; = $ 6 q p I I s p y y y y y y p s s s p w w q 9 = + + + + % q p 7 6 7 9 9 7 6 ; ; - 6 = + + + * ; ; 7 7 7 7 7 9 9 9 q q u p d 7 % 2 e k p e k | k ; $ $ $ = 2 7 q 9 ",
"9 9 q q q q q q u p p u q q q 9 9 q 9 7 7 7 9 9 u a a a k N N a u q 7 7 9 q q 9 7 9 = + + + ; 7 q g ..E p u q 9 0 q y p u p s s p u 7 ; % $ + + + $ 9 j 7 7 6 6 6 7 9 9 6 - - - > ; $ + + # * - 7 7 7 7 7 9 9 9 9 q q u q $ 2 7 9 k ..E.^.B.4.g ; = $ # + $ 2 7 ",
"9 9 q q q q q q q q u u q q q q q q q 9 9 9 q q p a a a k N N k a u q q 9 9 9 9 9 7 $ + + % 7 0 p ..T p y 7 0 0 0 0 y p s s s s p 1 + + + + $ % ; g ..p 6 6 6 6 6 7 6 7 6 - - - - - ; $ + $ * ; 7 7 7 7 7 9 9 9 q q q u = % 7 7 7 K h.H.g.+.T v g 7 & $ $ + # & ",
"= 7 q q q q q q 9 q q q q q q u u q q q 9 q q u p a a a a k N N N k u q 9 7 9 7 2 $ % % + % 6 7 p j u y q 0 0 0 0 0 y p p y 7 7 ; + + + $ % % ; p k y 6 6 6 6 6 6 6 6 6 , - - - - - ; ; + + $ ; 7 7 7 7 9 9 9 9 q q w u $ = ; 7 7 k ;.+.| v l k j p u 7 6 ; + # ",
"+ = 7 q q q q 9 7 q y u u u u p p q q q q q u p p p a a a k N N N k p u q 9 7 ; $ ; 6 7 & = 0 q 0 0 0 7 0 0 0 0 7 : ; = $ # + + + $ $ $ $ $ = K I ; ; 6 6 6 6 6 6 6 6 6 > - - - - - - > ; + + ; ; ; 6 9 9 9 q q q q 3 = + $ 6 9 7 p | v l k k k p q q y j u $ + ",
"$ + 6 y q q 7 7 9 q p p p p p p p q q q q q u p p p p a a k k d k N a p q 6 % $ ; y g g k 6 6 0 6 ; = $ $ = : ; $ + + + + + + + % % $ $ % ; k ..q > ; 6 6 6 6 6 6 6 6 6 , ; - - - - - ; > - + + + ; g 9 7 9 q q q q $ + + % 7 7 7 p I l p j g p y q 9 7 q p 6 + ",
"$ + % y p q 7 7 7 q u p p p p p y q q q q q p i i u p a a p a a k N d e ; $ * , l c z z X.g = $ $ @ + + + + + + + + O O O O + # $ % $ ; e K N 7 ; ; ; 6 6 6 6 7 7 7 6 6 6 6 ; - - - - - ; , ; + + y q 7 7 9 q q i q + + $ 6 7 7 7 j I j p j p y y y q 9 q p p ; ",
"7 @ + % 9 p u q 7 q y y y u u q q q q q 9 e u q q q i a p p p p a a 7 $ $ - 6 c ] l l z c z q - + + + + O O O O + ; 6 6 ; ; ; * + = ; h %.D w 6 ; ; ; ; ; 6 7 7 7 2 ; 7 6 , ; ; - - - - - > 6 % + % ; 7 7 9 q u a 2 + + 6 9 7 7 q k j p y p p y y y y y u p k k ",
"E k ; + + ; y p q q q q q q 7 q 7 9 9 7 9 q q q q q y p p p p p q ; $ * ; q ] ' l l j g g g q 0 ; - - + O O + $ - q y 0 , ; ; % + % 6 <.E e 9 6 ; ; = ; ; ; 6 7 7 7 7 7 6 , ; ; - - - - - ; , , * + $ 6 7 q u a e $ + 6 q 7 7 p p p y y y y y y y y u p p p k x ",
"W &.%.p % + $ 6 q q 7 9 7 7 7 7 9 9 7 7 q q q q q q u p p p q ; $ $ ; 6 f z l g g y q q q 7 6 6 6 , % O O O # - - - - - - ; ; ; + % 6 >.i e e ; ; = = = = ; 6 7 7 7 7 7 6 6 6 ; ; ; - - ; > > , , % + = 7 q p p = + = 7 q q v ..q 9 q q q y y y y y p p p s k x ",
"W W E W p 6 + + $ 6 7 7 9 9 7 9 7 9 7 q q q q q u u p p u 2 $ + - 6 f y q q q q 9 0 6 6 6 6 6 6 , ; + O + $ * * * - - - - ; ; ; $ % 6 I 9 ; ; ; ; = = = = = : 6 7 7 7 7 7 6 , > > > > > > > > , 6 , $ + ; q u 6 + $ 7 q q ] ;.y 0 0 0 0 q q y y y y p p p s k x ",
"W Y x s q 6 $ + ; 7 7 7 7 7 q 9 7 7 q q y u u p p p u 7 6 6 , > 6 y q 0 6 7 6 6 6 6 6 , , > , , ; + + # * * * * * - - - - ; ; ; * $ , k 9 ; ; ; ; = = = = = ; 6 7 7 7 7 7 6 6 > > > > > > > > 6 6 6 - + + 6 1 + + 6 q q g 9.g 0 0 0 0 q u y y y y y y y p s k x ",
"W C k q 7 % $ $ q q 7 7 7 9 9 7 7 q u u p p p p p p 7 $ $ % = % = 0 6 6 6 6 , 6 6 6 , - - - ; , * + * - - - - * * - - - ; ; ; ; - + $ 7 7 ; ; ; ; = = = = = ; ; 7 7 7 7 7 6 6 6 , > > > , , 6 6 6 6 , $ + $ $ + = 9 q q p g 0 0 0 0 0 9 y y y p p u p p p k x x ",
"W Y k u 7 $ $ % q 9 7 7 q 9 9 q e i p p p u u u u u 7 ; + + + + + ; 6 6 6 6 > > , , ; - - % - - + # > - * - - - - - - - ; ; ; ; * + + + @ @ $ $ % ; = = = = ; ; 6 7 7 7 7 7 6 6 6 , 6 6 6 6 6 6 6 6 6 ; + + + $ 7 9 q #.k 0 0 6 6 0 0 0 y y p p p p p p k k x Z ",
"W W Z u 7 $ $ = y 7 q i p i u i p p p u 7 = % % = ; 6 7 ; + + + $ , 6 6 6 6 ; - - - - - * * * * + > - * * * - - - - ; ; ; ; ; * + + + $ @ + + $ $ ; ; = = = = ; 6 7 7 7 7 7 6 6 6 6 6 7 7 6 6 6 ; ; , ; + + $ 7 q 9 q | j 0 0 0 7 6 0 0 q y p p p p p p k x I I ",
"E 3.E u 6 $ + ; q 9 i a a a a a p p u ; + + + + + + $ = 2 = + + ; 6 6 6 6 , - - - - - - * * * * % > * * * * * - - - ; ; ; ; ; ; ; % @ = & 3 7 2 2 2 ; ; = = = = , 6 6 7 7 7 7 7 6 6 6 7 7 7 7 6 $ + + + + + 7 9 q u u l p 0 0 6 6 6 0 0 q y p p p p p k k C I p ",
"+...k q 7 % + ; q e a a a a a 9 1 = = + $ $ $ 6 6 : ; $ $ + + + $ 6 6 6 , , ; - - - - - * * * * % * * * * * % - ; ; ; ; ; > ; ; ; - + = 9 w 7 7 3 2 ; = = = = = ; 6 6 6 7 7 7 7 7 7 7 7 7 7 7 7 % + $ + + = 7 7 l O.I I y 0 0 6 6 6 6 0 q u p p p p s k Z I p 6 ",
"E k u 9 7 % + $ 7 u a a a a 2 + + + + $ = = ; 7 7 7 q 7 7 $ + + + = 6 6 6 , , ; - - * * * * * * * * * * * * - ; ; ; ; ; ; ; ; ; ; ; + 3 w w 7 3 2 2 ; = = = = = = 6 6 6 6 6 7 7 7 7 7 7 7 7 9 9 $ % 7 % + ; 7 7 k %.-.I y 0 6 6 6 6 6 q y p p p s s k C I Z u x ",
"k p q 7 6 ; $ + ; i a a a 3 $ + + $ $ = & 2 6 7 7 7 7 7 7 1 + + + $ 6 6 6 6 , ; - * * * * * * * * * * * * * * - ; ; ; ; ; ; ; ; ; ; @ & w a 9 3 2 2 ; = = ; = = = ; ; , , 6 6 7 7 7 7 7 7 7 p 6 $ $ = $ + = : 7 p x #.k y 0 6 6 6 6 6 q y p p s k k x I Y k k T ",
"p p q 7 7 ; = + $ u a p 6 = $ $ = & 6 9 q 7 7 7 6 7 7 7 7 6 $ + + $ , 6 6 6 , > - * * * * * * * * * * * * * * - - ; > ; ; > ; ; , ; + = 3 a w 7 3 2 ; ; ; ; ; ; ; ; ; ; ; , 6 7 7 7 7 7 7 7 7 % $ $ + + + + $ = 2 0 q q q y g y y 9 9 y p p p j k x x I k l I k ",
"u u 9 7 6 = ; $ + 9 p 6 = = = = 2 p p u 7 7 7 7 7 7 7 7 7 7 = + + % , 6 6 6 6 , ; - * * * * * * * - - - - ; - - ; ; ; ; ; ; > , , ; + $ & i w 9 3 2 1 ; ; ; ; ; ; ; ; ; ; 6 6 7 7 7 7 7 7 7 ; $ = 7 & + + $ $ $ $ % + + $ ; 6 q q 0 y y p p s k k k k k k I l y ",
"q q 7 7 ; = 6 $ + = 1 = $ = = q p u 9 7 7 7 7 7 7 7 7 7 7 6 ; + + $ ; 6 6 6 6 , ; - - * * * * % - - - ; ; ; ; ; ; ; ; ; ; ; ; , , ; + $ & e w 9 7 2 ; ; ; ; ; ; ; ; ; ; ; , , 6 6 7 7 7 7 7 $ 6 ..a.7 $ $ ; ; 1 q k 7 ; % # + + + $ 6 q q u p k k l l k I v p y ",
"7 7 7 7 = ; 6 $ + + + + $ 1 K >.p 9 7 7 7 7 7 7 7 6 7 ; ; ; ; $ + + - 6 6 6 , , > - - - - % - - - - - ; ; ; ; ; ; ; ; ; ; ; , , , ; + $ & w i 9 7 2 ; ; ; ; ; ; ; ; ; ; > ; ; ; , 6 7 7 7 $ ; >.F.A.9 $ $ 2 2 7 I K k k p q 6 ; + + + $ $ % ; 6 7 y j l x g y y ",
"9 7 7 ; = ; % + + $ + + @ 5 N k 9 7 7 7 7 7 7 7 7 7 ; ; ; ; = $ + + $ : 6 , , , > - - - - - - ; ; ; - ; ; ; ; ; ; ; ; ; ; ; > , , ; + + = q a 9 7 2 ; ; ; ; ; ; $ - ; ; ; ; ; ; ; 6 6 7 = ; ..j.Y.L.e + $ 2 p k k p p s k k l p $ + + + + $ * * * * - q p y y y ",
"7 7 7 ; = % + + 6 w 3 $ + @ & u 9 7 7 7 7 7 7 6 6 2 ; ; ; ; = = $ + + ; 6 , , ; ; ; - - - ; ; ; ; ; ; ; ; ; > ; ; ; ; - % % % - ; , $ + = 9 a 9 7 2 ; ; ; ; ; ; + + $ - ; ; ; ; ; 6 6 ; = k %.j.~.L.q + $ e K p u q q q q u v T ; + + + $ $ $ * * * * ; q k g y ",
"9 9 6 ; % + $ q D d k 7 = $ = 7 9 7 9 9 7 7 7 2 ; ; ; ; ; = = = = + + = 6 , > ; - - - - - ; ; - - - % % * - - - - - * # # # # # $ ; % + $ 7 a 9 7 2 ; ; ; ; ; ; $ + + + ; ; ; ; ; ; ; $ 7 k ..A.~.<.7 + $ k p q 7 0 7 7 0 7 q q $ @ $ ; p q $ + * * * * - g z g ",
"7 7 6 - # + q G G N E 9 1 = % 7 e 7 9 7 7 7 7 6 ; ; ; ; ; = = = = $ + % 6 , , , > ; ; - # # + + + O O O O + + # # # # # # # # # # * * + $ 2 a 9 7 2 ; ; ; ; ; ; $ + + ; 9 ; ; ; ; ; + ; q p E L.s.K 7 + % g 7 7 7 7 7 7 7 7 7 7 $ = 2 p s d q $ + * * * * - 6 6 "
};
