/* XPM */
static char *texture15[] = {
/* columns rows colors chars-per-pixel */
"128 128 163 2 ",
"   c #080712",
".  c #0F0D17",
"X  c #100E16",
"o  c #151217",
"O  c #161318",
"+  c #19161B",
"@  c #1C191E",
"#  c #121220",
"$  c #1F1B20",
"%  c #211E23",
"&  c #1D2233",
"*  c #242126",
"=  c #282326",
"-  c #262329",
";  c #29262B",
":  c #2D292E",
">  c #302B2F",
",  c #242635",
"<  c #2E2C31",
"1  c #27283B",
"2  c #2A2D3D",
"3  c #322E32",
"4  c #353136",
"5  c #393336",
"6  c #363338",
"7  c #3A353A",
"8  c #3D393D",
"9  c #403739",
"0  c #403739",
"q  c #40383B",
"w  c #403A3D",
"e  c #413A3D",
"r  c #433B3E",
"t  c #403B3F",
"y  c #443D3F",
"u  c #413A3D",
"i  c #393740",
"p  c #3E3B40",
"a  c #3F3C41",
"s  c #3E3B41",
"d  c #30364E",
"f  c #3B3D4C",
"g  c #363850",
"h  c #403B40",
"j  c #403B41",
"k  c #413C41",
"l  c #403D41",
"z  c #403D42",
"x  c #413D42",
"c  c #413E42",
"v  c #413E43",
"b  c #423E43",
"n  c #433E43",
"m  c #453F43",
"M  c #443E42",
"N  c #433D42",
"B  c #483F42",
"V  c #454043",
"C  c #464043",
"Z  c #434045",
"A  c #424044",
"S  c #454247",
"D  c #454246",
"F  c #474347",
"G  c #444145",
"H  c #454146",
"J  c #494447",
"K  c #4A4245",
"L  c #464348",
"P  c #464449",
"I  c #494448",
"U  c #4A4549",
"Y  c #48454A",
"T  c #4A464A",
"R  c #4B464A",
"E  c #4C4649",
"W  c #4F4749",
"Q  c #4C464A",
"!  c #4D474B",
"~  c #4B474C",
"^  c #4A454A",
"/  c #4E484B",
"(  c #4C494D",
")  c #4D4A4F",
"_  c #4E4A4F",
"`  c #4F4A4E",
"'  c #4D494E",
"]  c #504749",
"[  c #504A4D",
"{  c #524A4D",
"}  c #4F4B50",
"|  c #4F4C51",
" . c #4E4B51",
".. c #42455E",
"X. c #504C50",
"o. c #524D50",
"O. c #534E51",
"+. c #514E53",
"@. c #524F53",
"#. c #554E50",
"$. c #564F52",
"%. c #524E52",
"&. c #584E50",
"*. c #555156",
"=. c #555155",
"-. c #595154",
";. c #5A5356",
":. c #5C5557",
">. c #5A5355",
",. c #575458",
"<. c #565459",
"1. c #585559",
"2. c #59575B",
"3. c #5E5558",
"4. c #5F575A",
"5. c #5A565A",
"6. c #5B585C",
"7. c #5C595C",
"8. c #5E595C",
"9. c #5E585C",
"0. c #5E5A5F",
"q. c #5D595D",
"w. c #615657",
"e. c #605758",
"r. c #655D5F",
"t. c #625A5C",
"y. c #685C5E",
"u. c #5E5C61",
"i. c #665F61",
"p. c #625E61",
"a. c #695F60",
"s. c #636065",
"d. c #656165",
"f. c #6A6265",
"g. c #6C6365",
"h. c #6B6466",
"j. c #6A6366",
"k. c #676468",
"l. c #6A666A",
"z. c #6C696D",
"x. c #706768",
"c. c #736C6D",
"v. c #786C6D",
"b. c #6E6C71",
"n. c #746E71",
"m. c #757274",
"M. c #7B7374",
"N. c #7B7678",
"B. c #7E7A7C",
"V. c #857C7C",
"C. c #7F7E81",
"Z. c #827E80",
"A. c #858283",
"S. c #898383",
"D. c #8A8688",
"F. c #8B888A",
"G. c #948A89",
"H. c #908E90",
"J. c #949192",
"K. c #999697",
"L. c #9A9799",
"P. c #A09C9B",
"I. c #A9A6A5",
/* pixels */
"- - 4 A 3 3 6 3 3 : : : : : : : : : : : : 3 l ~ - % : ; ; ; ; ; ; ; ; ; ; ; ; ; ; ; : : < 3 3 7.8 o ; 3 3 > 3 3 3 3 3 3 5 7 r Z Y [ +.+.Y % o 4 9.i.f.h.r.r.7 + : : < 3 8 Z 8 4 3 4 4 4 4 4 4 4 4 7 l Y +.7.5.5.< o $ 4 ) ) *.6.) 6 4 4 7 L 7 6 6 6 7 +.) * + o ",
"- - 4 p < : 4 4 3 : : < : : : : : : : : : 3 3 8 ; $ ; ; ; ; ; ; ; ; ; ; ; ; ; ; ; ; : : : 3 3 Y 8 o - 3 3 > 3 3 3 3 3 3 3 3 3 4 5 8 C J +.8 + o + > W 9.i.:.* O ; ; ; 4 a 3 < : : : : < < < < < < < 3 4 6 @.,.( * o @ ; ,.d.} 8 4 3 4 6 6 7 6 4 6 6 6 l Z * + o ",
"- ; 4 4 : : 3 4 3 3 3 3 3 3 : : : : : : : 3 3 7 ; @ ; ; ; ; ; ; ; ; ; ; ; ; ; ; ; ; : : : 3 3 l p o * 3 3 3 3 3 3 > 3 3 3 3 3 5 5 5 5 5 C [ 3 O o o 3 W 3.8 o + - ; ; < 8 : : : : : : : : : : : < < < < 3 l } h % o $ - l Y 3 3 3 3 4 4 4 4 4 4 4 6 6 7 7 - + + ",
"- < 3 < : : : 3 3 3 3 3 3 3 3 : : : : : 3 3 3 7 : $ : : : ; ; ; ; ; ; ; ; ; ; ; ; : : : 3 3 3 l ~ + * 3 3 3 > 3 3 3 3 3 3 3 3 5 5 5 5 5 5 N Y ; o o @ N -.3 o + ; : : ; 4 4 : : : : : : : : : : : : : < < 3 l l * o % ; < 3 3 3 3 3 4 6 4 6 4 4 6 7 7 7 7 - + + ",
": 3 3 < 3 : : : 3 3 3 < 3 3 3 : : : < 3 3 3 3 7 ; % : : : ; ; ; : ; ; ; ; ; ; ; ; : : : 3 3 3 Z | + * 3 3 3 3 3 3 3 3 3 3 3 3 5 5 5 5 5 5 5 K r % o o 4 #.3 O + ; : : : : < : : : : : : : : : : : : : : < < 4 h * o % : 3 3 3 3 3 3 4 6 4 4 4 6 6 7 7 7 7 * + @ ",
"4 3 3 3 3 3 : : < : : : 3 3 3 : 3 3 3 3 3 3 3 7 ; * 3 : : : : : : : ; ; ; ; ; ; ; : : : 3 3 3 ) A + * 3 3 3 3 3 3 3 3 3 3 3 3 3 5 5 5 5 5 5 7 Y 4 @ X ; #.: O + - ; : : : : : : : : : : : : : : : : : : < < 4 h - o % : 3 3 3 3 3 3 4 4 4 4 4 6 6 7 7 7 4 % O $ ",
"4 3 3 4 3 3 : : : : : : 3 3 3 3 3 3 3 3 3 3 3 6 ; * 3 : : : : : : : : : ; ; ; ; ; ; : : : 3 4 Z : o * 3 3 3 3 3 3 3 3 3 3 3 3 3 4 5 5 5 5 5 5 r Y 3 + @ r ; o @ ; ; ; ; : : : < < : : : : : : : : : : : < < 3 8 * o * 3 3 3 3 3 3 3 3 3 3 3 4 4 4 6 7 7 4 % + % ",
"7 4 4 4 4 3 : : : : : : : 3 3 3 3 3 3 3 3 3 3 6 ; * 3 : : : : : : : : : : ; ; ; ; ; : : : : 3 4 ; o * 3 3 3 3 3 3 3 3 3 3 3 3 3 4 5 5 5 5 5 5 5 y W 3 + + $ o @ ; ; ; ; ; : : < < < : : : : : : : < < < < 3 3 7 % O * 3 4 3 3 3 3 3 3 : : < 3 3 3 3 4 4 4 $ + % ",
"7 7 4 4 4 3 3 : : : : : : < 3 3 3 3 3 3 3 3 3 7 * * 3 : : < 3 3 : : : : ; ; ; : ; ; ; : : 6 4 3 ; o % 3 3 3 3 3 3 3 3 3 3 3 3 3 4 5 7 7 5 7 5 5 7 W -.4 O o o $ ; ; ; ; : : : : < < < < < < < < < < < < 3 3 3 6 $ + * 3 6 3 3 3 3 3 3 : : : : ; ; : < 3 4 @ + % ",
"7 7 7 4 4 3 3 < : : : : : < 3 3 3 3 3 3 3 3 3 7 * * 3 : 3 3 3 3 : : : : : ; : : : : ; ; : 3 7 4 3 + % > : > 3 3 3 3 3 3 3 3 3 3 5 5 0 0 7 7 q 7 7 r :.g.5 o o @ ; ; ; : : : : : < < < < < < < < < < < < 3 3 3 6 $ + * 3 6 4 3 3 3 3 3 < : ; ; ; ; ; : < 3 + @ * ",
"8 7 7 4 4 4 3 3 : : : : < 3 3 3 3 3 3 3 4 4 4 7 % * 3 : < 3 3 : : : : : : : : : : : : : : : 3 4 l + % : : > 3 3 3 3 3 3 3 3 3 4 5 7 0 0 0 q y y r r K c.N.* o @ - ; ; ; : : : < < < < < 3 3 3 3 3 3 < < 3 3 3 6 $ + * 3 6 6 4 3 3 3 3 : : ; ; ; - ; : < : + @ - ",
"8 7 7 4 4 4 3 3 : : : 3 3 3 4 4 4 4 4 4 4 4 4 4 $ * : : 3 3 3 : : : 3 3 : : : : ; ; : : : : 3 4 8 + $ : : > 3 3 3 3 3 3 3 3 4 5 5 0 0 0 q r N K C C K :.M.r o + - ; ; ; < < < < < < 3 3 3 3 3 3 3 3 3 < < 3 4 7 % O - 4 6 6 6 3 3 3 3 : ; ; ; - - ; ; 3 < + @ ; ",
"l 7 7 6 4 4 3 3 3 < 3 3 4 4 4 4 4 4 6 6 6 4 6 4 % $ : : 3 3 3 : : : 3 3 3 : : ; ; ; : : 3 3 3 4 7 + + ; : 3 3 3 3 3 3 3 3 3 5 5 7 0 0 0 r N C E ] W ] &.a.N o + ; ; ; ; < < < < < < 3 3 3 3 3 3 3 3 3 3 3 3 7 7 % O ; 4 6 6 6 3 3 3 : : ; ; ; - - ; ; < 3 + + ; ",
"l 7 7 6 4 4 4 4 4 4 4 4 4 4 4 4 4 6 6 6 6 6 6 4 % @ : : 3 3 3 : : 3 3 3 3 : : ; ; ; ; : 3 3 3 4 7 + O % : : : : > 3 3 3 3 3 5 5 7 q r r r N K K ] ] { -.r.r o @ : : ; ; : < < < < < 3 3 3 3 3 3 3 3 < < 3 4 8 7 $ + : 6 6 6 6 4 3 3 : : : ; ; - - - ; : 4 + + - ",
"l 7 6 4 4 4 4 4 4 4 4 4 4 4 4 4 4 4 6 6 6 6 6 7 % @ ; : : < 3 3 3 3 3 3 3 : : ; ; ; ; : 3 3 3 4 6 + O % : : : : : 3 3 3 3 3 5 7 0 r r r r r N K E ] { >.a.r o % : : : : : : < < < < < 3 3 3 < < 3 3 < < 3 7 8 7 $ + 3 6 6 6 6 6 3 3 3 < : ; ; - - - ; ; 4 @ + * ",
"p 7 6 4 4 4 3 4 4 4 4 4 4 4 3 3 4 4 6 6 6 6 7 l * @ ; ; ; : 3 3 3 3 3 3 3 3 : ; ; ; ; : : 3 3 4 3 o + * : : : : > 3 3 3 3 3 5 7 q r r r r r N K W ] &.:.r.5 o ; 3 : : : : : : < < < 3 3 3 < < < < < < < 4 7 8 7 $ @ 4 6 6 6 6 4 3 3 3 : : ; ; - - - - ; 4 * + ; ",
"8 7 4 4 3 3 3 3 3 3 3 4 3 3 3 3 4 4 6 6 6 6 8 l % @ ; ; ; : 3 3 3 3 3 3 3 3 : ; ; ; ; ; : : 3 l 3 o + - : : : > 3 3 3 3 3 3 5 7 0 q r r r C C C E ] &.t.t.* + ; 3 : : ; ; ; : : < < 3 3 3 < < < < < < 3 4 7 p 8 @ $ 4 6 6 6 4 3 < 3 3 : ; ; ; - - - - - : % + < ",
"7 4 4 4 3 3 3 3 3 3 3 3 3 3 3 3 3 3 4 4 4 6 8 8 @ @ ; ; ; : : : 3 3 3 3 3 3 < ; ; ; ; ; : : 6 Y : o + ; 3 3 3 3 3 3 3 3 3 3 3 5 7 0 q r N C C C K W { :.3.% + : 4 : : ; ; ; ; : : < 3 3 3 3 < < < < < 3 3 6 l n @ $ 4 6 6 4 3 3 : : : ; ; ; ; - - - - - - @ + ; ",
"3 4 4 4 3 3 3 3 3 3 3 3 3 < < 3 3 3 3 3 4 6 8 4 + $ ; ; ; ; : : : 3 3 3 3 3 3 : ; ; ; ; : 3 8 h : o @ 3 4 4 4 3 3 3 3 3 3 3 3 4 7 q r r C E K K K E ] &.-.% @ : 4 : : ; ; ; ; ; : : < 3 3 3 < < < < 3 3 3 3 7 l + @ 4 4 4 3 3 : : ; ; ; ; ; ; - - - - - - + + @ ",
"- 7 4 3 3 3 < : : : < : : : : : : : : < 3 4 8 3 + % ; ; ; ; ; ; ; : 3 3 3 3 3 : ; ; ; : 3 4 4 8 ; o $ 7 K r q 7 3 3 3 3 3 3 3 4 5 q r r C { ] E C E ] >.E + @ : 4 : : ; ; ; ; ; ; : < < < < < < < < 3 3 3 3 4 4 + + < 3 3 3 : : ; ; ; ; ; ; ; - - - - - % + + @ ",
"$ 3 8 3 3 < : : : : : : : : : : : : : : < 4 p 7 + % ; ; ; ; ; ; ; : 3 3 3 3 3 3 : : : 3 4 r r h ; o @ : K 7 3 : ; ; ; ; : 3 3 3 3 4 4 ; 4 #.#.] K W -.V.W o + : 4 : : : - % ; ; ; ; : < < < < < < 3 3 3 3 3 3 ; O + ; 3 : : ; ; ; ; ; ; ; ; ; - - - - - % O + @ ",
"@ % 4 7 3 < : : : : : : : : : : : : : : : < 8 4 + % ; ; ; ; ; : : 3 3 3 3 3 3 3 3 : : ; : l ~ Z * o o O + @ @ @ @ @ @ % ; : : : : ; ; + @ Z #.[ ] { -.[ - o + ; 7 4 4 ; + $ * ; ; ; : : < < < < < 3 3 3 3 3 4 ; O o $ : : ; ; ; ; ; ; ; ; ; - - - - - - @ o + @ ",
"+ @ % ; : ; - * * % * ; ; ; ; ; ; ; * % % % * % + @ - ; : : 3 3 3 3 3 3 < : : * $ + + o o @ : : + + + + + + @ + O o o + + @ @ @ + + + o o $ ; : : : * o o o o $ ; * @ O o O @ % % % * * % % * - - ; : : : : : * o o O $ - - - - - - - - - * * * * * - * + o + @ ",
"+ @ + + + + + + @ @ @ % * % % @ + @ @ + + + + + + + + @ % % % % % % % @ % - ; ; ; - ; < 3 4 4 4 7 8 r N / 3.t.3.[ l : o o o ; Z L 8 5 4 3 3 3 3 4 4 4 5 4 : % $ + o + 7 8 4 6 l Z 4 + $ % $ $ % % * - - * * % $ + O + + @ @ $ $ @ @ $ $ @ @ @ + + + + + + + + + ",
"3 3 % + ; 8 7 a Y 8 a p.d.) Z 3 @ - 4 3 3 : : ; * % % * ; : 3 3 : % + + @ : 6 6 6 8 8 8 l l l l l l Z [ 9.f.d.z.V.V.c.8 + + : 5.J.K.D.m.c.i.3.3.t.t.t.r.r.i.7.7.Z + + ) m.B.D.P.I.B.: 7 p 8 a L ) 7.z.m.m.k.} ,.Z % ; 8 a a l n 7 6 p l 8 4 4 < ; ; ; - - - - ; ",
"7 7 3 + 3 I n n n 8 8 h l h 8 : + * 4 3 3 3 3 3 > : : > 3 3 r K #.#.3 + + - 7 7 7 4 : : : < 3 3 3 3 3 4 6 4 6 7 #.t.f.i.; + : 4 i.N.t.W W [ *.3.t.t.p.p.p.p.7.p.l.l o @ 7 *.7.z.B.7.: < 7 7 8 n Y ,.u.p.p.7.Y 6.| $ ; 6 3 < < 3 < ; : ; : < 3 < : < < < : < 3 3 ",
"7 7 6 % + * 3 7 7 7 7 7 7 7 3 @ + ; 3 : : : : : : : : : : > 3 5 l [ B * + % 7 4 < : : : 3 3 3 3 3 3 4 4 4 6 4 4 8 -.f.x.3 + : Y Z r r l h h l N L Y Y Y I Z Z Z 7.n.Z - + 8 +.*.6.5.; % - < 4 6 7 7 p p a L Y @.< o ; 4 ; ; ; ; ; ; ; ; ; ; ; ; ; ; : < < 3 3 3 ",
"4 7 7 3 @ + @ : 7 7 7 7 7 4 % + % 3 3 : : : : > > > : : > 3 5 5 7 K { 7 + + ; : : : : 3 3 3 3 3 4 4 6 6 4 4 4 4 6 Z x.M.5 @ 3 l.+.h l l l l l n Z Z Z Z Z Z Z Z Z 7.n.Z % ; Y +.5.+.* % ; 3 3 4 7 7 8 p p A | =.% o * < : ; ; ; ; ; ; ; ; ; : : ; ; < < 3 3 3 3 ",
"3 4 7 7 : + + + - 4 7 7 3 * + + ; 3 > : : : : : : : > > 3 5 7 7 7 7 K ] : + * : : : : : 3 3 3 4 6 6 6 4 4 6 6 6 6 7 9.Z.l @ 4 d.[ l l l l l l N Z n N Z Z N N Z Z Z +.p.7 @ ; Z 5.l % ; 3 3 3 4 6 7 7 8 p 7 l ) < o * < ; ; ; ; ; ; ; ; ; ; : < < < < 3 3 3 3 3 ",
"3 3 7 Z 8 * + + @ ; 6 6 * @ + * 3 3 : : : > > : > > 3 3 4 5 7 q r r r C N @ % : : : : : 3 3 4 6 6 4 6 6 6 6 7 6 4 6 l M.Z $ 7 Y N l l l r r r r l l l l N h l N Z Z n ) f.) * % 8 4 % 3 3 3 3 3 6 6 7 7 p 8 7 7 3 + % < ; ; ; ; ; ; ; ; ; ; ; < < < 3 3 3 3 3 3 ",
"3 < 4 | *.7 @ + + * 4 4 @ + * 3 3 > : : > > > > > 3 3 4 5 7 r N N B N N r + % : : : : 3 3 3 4 4 4 4 6 4 4 6 7 7 6 6 8 h.l $ 7 h l l l h 8 8 8 8 r h l l l l l l l Z Z Z ) d.i.4 % % % 3 3 3 3 3 4 6 7 7 7 7 7 4 : + % ; ; ; ; ; ; ; ; ; ; ; ; < < < 3 3 3 3 3 3 ",
"< < < 8 s.+.; + + * 6 3 + @ : 3 : : : : : : > > 3 3 4 5 7 r C K K K K E 7 + % : : : < 3 3 3 3 3 3 4 4 6 6 6 7 7 7 7 8 5.7 % 7 h l l l 8 8 7 8 8 8 8 r l l l l l l l n Z Z Y *.5.4 @ % 3 3 < 3 3 4 7 7 7 7 7 7 4 ; O % ; ; ; ; ; ; ; ; ; ; ; < < < < 3 < 3 3 3 3 ",
"< < < < L s.l @ + % 4 ; + * : : : : : > : : > 3 3 4 5 7 q N K K K K K ] 7 + % : : : : : 3 3 3 3 3 3 4 6 7 7 7 7 8 8 8 ) : % 7 l l l 8 8 8 7 7 7 8 8 8 l l l l l l l h N n Z N Z Z % % < < < < 3 4 6 7 7 7 7 7 4 ; o % ; ; ; ; ; ; ; ; ; ; ; : < < < < < < < < < ",
"< < < < < @.*.: + + % @ @ : : : > > : : : : > 3 3 5 7 8 r N K K K E ] { 5 + * 3 : : : : 3 : 3 3 3 4 4 6 7 7 7 8 8 8 8 r $ * 7 l l l 8 8 7 7 7 7 8 8 8 h l l l l l l h N N Z n Z l $ $ : < < < < 4 6 7 7 7 6 4 4 ; o % ; ; ; ; ; ; ; ; ; ; ; : < < < < < < < < < ",
"< < < < < 4 | l ; + + @ ; > : : > > > > > 3 3 3 5 5 7 q r r C K E ] [ [ 3 + * 3 : : : : : : : : 4 6 6 7 7 7 8 8 8 8 8 7 + * 8 l l l 8 8 7 7 7 7 7 8 8 8 h l l l l l l N Z Z Z Z l @ @ : < 3 3 < 3 4 6 6 4 4 3 3 ; + % ; ; ; ; ; ; ; ; ; ; ; : < < < < < < < < < ",
"< < < < < < 4 =.Y - + * : : : : > > 3 3 3 3 3 5 5 5 7 q r r r C K W [ [ 3 + * 3 : : : : : : : 3 4 7 7 7 7 8 8 8 8 8 8 4 + % h l l r 8 8 7 7 7 7 7 8 8 8 8 8 h l l N l N Z Z N Z l @ @ < 3 3 3 3 3 4 4 4 3 < : : ; + % ; ; ; ; ; ; ; ; ; ; ; < < < < < < < < < < ",
"< < < < < < < 8 7.L % @ ; : : > > 3 3 3 3 3 5 5 5 7 7 r r r r r B K K ] 3 + * < : : : : : : : 3 4 6 7 7 8 8 8 l l l l 5 + % r l l 8 8 8 8 7 7 7 8 8 8 8 8 8 8 8 8 l r N N N l N l @ $ < 3 3 3 3 3 3 3 3 : ; ; ; ; @ % ; ; ; ; ; ; ; ; ; ; < < < < < < < < < < < ",
"< < < < < 3 3 3 Y p.4 @ % ; : : : > 3 3 4 4 5 5 5 7 8 8 r r r r r r q N 3 + * : : : : : : : : 3 4 6 7 8 8 8 8 l l N N 7 @ @ 8 l h 8 8 7 7 7 7 7 7 8 8 8 8 8 8 8 8 r l l l l l N 8 @ @ < 3 3 3 3 3 3 3 : ; ; ; ; : @ % ; ; ; ; ; ; ; ; ; ; < < < < < < < < < < < ",
"< < < < < 3 3 3 A Y < @ @ ; ; ; : : 3 3 5 5 5 5 7 7 7 8 8 8 r r 8 8 8 r : + - : : : : : : : 3 3 4 7 7 8 8 8 8 8 h l N r $ @ 8 l l 8 8 7 7 7 7 7 8 8 8 8 8 8 8 8 8 8 l l l l N N 7 @ @ < 3 3 3 3 3 3 < ; ; ; ; ; 3 $ $ ; ; ; ; ; ; ; ; ; ; < < < < < < < 3 3 < < ",
"< < < < < 3 3 7 4 ; % + + * ; ; ; : > 3 4 5 5 5 7 7 8 8 8 8 8 8 8 7 7 q > + - : : : : : : < 3 3 4 7 7 7 8 8 8 7 8 8 l n * + 8 l l 8 8 8 7 7 7 7 7 8 8 8 8 8 8 8 8 8 l l l l l N 7 @ $ < 3 3 3 3 3 < : ; ; ; ; ; 3 @ % ; ; ; ; ; ; ; ; ; ; : < < < < < 3 3 3 3 < ",
"< < < < 3 3 7 6 ; % + + + * ; ; ; : > 3 4 5 5 5 7 7 7 8 8 7 7 7 7 7 7 q 3 + - : : : : : 3 3 3 4 6 7 7 7 7 8 8 8 7 8 8 ! - + 8 l l r 8 8 8 7 7 7 7 8 8 8 8 8 8 8 8 l l l l l l N 7 @ % 3 3 < < < < < : ; ; ; ; : < + % ; ; ; ; ; ; ; ; ; ; ; : < < < < < 3 3 3 3 ",
"3 < < 3 3 6 7 : % + % % + % ; : > > > 3 3 5 5 5 7 7 7 8 7 7 5 5 5 5 5 7 4 + * : : : : 3 3 4 4 4 6 7 7 8 8 8 8 7 7 7 7 Y - @ 8 l l l r 8 8 7 7 7 7 7 7 7 7 8 8 8 8 r l l l l N N 7 @ % : : : < < < < < : ; ; ; : ; + % ; ; ; ; ; ; ; ; ; ; ; ; < < < < < 3 3 3 3 ",
"3 < < 3 3 4 3 % + + % ; % $ ; : > > > 3 3 5 5 7 7 7 7 7 7 5 5 5 4 4 5 5 4 + * : : : : 3 4 6 6 7 7 7 8 8 8 8 8 7 7 7 7 I ; @ 8 l l l l 8 8 8 7 7 7 7 7 7 7 7 8 8 8 8 l l l l l N 7 + @ ; ; ; : < < < < < ; ; ; ; * O % ; ; ; ; ; ; ; ; ; ; ; ; < < < < < 3 3 3 3 ",
"3 3 3 3 3 4 < + + + @ - - * ; : : : > 3 4 5 7 7 7 7 7 7 7 5 4 4 4 4 5 5 3 + - : : : : 3 3 4 6 7 7 7 8 8 8 8 7 7 7 7 8 +.; % r l l l l 8 8 8 8 7 7 7 7 7 7 7 7 7 7 8 l l l l l N 8 + @ ; ; ; ; < < < < < ; ; ; ; * O $ ; ; ; ; ; ; ; ; ; ; ; ; < < < < 3 3 3 3 3 ",
"3 3 3 3 3 4 4 + @ @ @ % ; ; ; ; : : : 3 3 5 5 7 7 7 7 4 5 5 4 4 4 4 4 5 3 + ; : : : : : 3 4 4 6 6 7 7 8 8 8 7 7 7 7 l ) * * h l l l l r 8 8 7 7 7 7 7 7 7 5 5 7 7 7 r l l l l n l @ @ ; ; ; ; < < < < : ; ; ; ; * O @ ; ; ; ; ; ; ; ; ; ; ; ; ; < < < 3 3 3 3 3 ",
"3 3 3 3 4 6 7 % @ @ @ @ % ; ; ; ; : > > 3 4 5 5 7 5 7 4 4 4 4 3 3 3 4 5 : + ; : : : : : 3 3 3 4 6 7 7 7 7 7 7 7 7 7 8 n % ; l l l l 8 8 8 8 7 7 5 5 5 5 5 5 5 7 7 7 r l l l l N l @ @ - ; ; ; ; : < < : ; ; ; ; * O @ - ; ; ; ; ; ; ; ; ; ; ; ; < < < < 3 3 3 3 ",
"3 3 3 3 4 6 8 : + @ @ @ @ % : : : : : > > 3 5 5 5 5 7 7 3 3 3 3 3 3 3 5 ; + ; : : : : : : 3 3 4 6 7 7 7 7 7 7 7 7 7 7 l @ : l l l h 7 7 8 7 7 7 5 5 5 5 5 5 5 5 5 7 r l l l l N l @ + % - ; ; ; ; ; ; ; ; ; ; ; * O + - ; ; ; ; ; ; ; ; ; ; ; ; : : < < 3 3 3 3 ",
"3 3 3 3 4 7 8 3 + @ @ @ @ @ * > > > > > 3 4 5 5 5 5 5 5 4 3 3 3 3 3 3 3 % + ; : : : : : 3 3 4 4 4 7 7 7 7 7 7 7 7 7 7 7 @ 3 r l l l 7 7 7 7 7 7 5 5 5 5 5 5 5 5 5 7 r l l l l r 3 + + @ * ; ; ; ; ; ; ; ; ; ; ; % O + - ; ; ; ; ; ; ; ; ; ; ; ; ; ; < < < 3 3 3 ",
"3 3 3 3 4 7 3 % + @ @ @ @ @ % : > > > > 3 4 4 5 8 8 7 5 5 4 4 4 3 3 < * @ + ; : : : : : 3 4 4 4 6 7 7 7 7 7 7 7 7 7 h 3 @ 4 8 l l l 8 7 7 7 7 7 7 5 5 5 5 5 5 5 5 7 8 8 h l l 4 % O O % - ; ; ; ; ; ; ; ; ; - - % O @ - ; ; ; ; ; ; ; ; ; ; ; ; ; ; < < < 3 3 3 ",
"3 < ; ; * $ + + + + + + + + + @ % $ @ @ % % % % % % % % * : : 3 3 > % @ + + $ ; : : : : : 3 4 4 6 7 7 7 7 7 7 7 8 l 3 + + 4 8 l l l l 8 7 7 7 7 7 7 : 4 5 5 5 5 5 5 8 8 8 r 8 : $ O o @ - ; ; ; ; ; ; ; ; ; % * % o + % ; ; ; ; ; ; ; ; ; ; ; ; ; ; ; ; : < 3 3 ",
"; * @ + + o o o o o o o o o o o o o o o o o O + + + + + O O O + + + + + + + + + $ % % % % % * * - ; ; ; ; ; ; ; ; * + o + 3 7 r h h r h r 7 7 7 7 3 * 5 : : 5 5 5 5 7 7 8 8 7 ; $ O o + * - - - - - - - - * - 6 % o o @ $ - ; ; ; ; ; ; ; ; ; ; ; ; ; ; ; ; ; ; ",
"@ % - 3 5 7 5 : $ + o + : : ; ; % O o + ; 4 6 7 7 7 8 8 3 < : < 3 3 3 ; % $ @ + + @ @ + @ $ $ $ @ @ + + + + @ @ % % * % + @ % % * % % % * % % % % + + @ . X % - ; ; ; ; ; ; * @ + o o o + @ @ @ @ @ @ @ @ @ $ * @ o o O + + $ $ $ % % $ $ $ $ $ $ $ $ $ % $ $ @ ",
"/ { e.a.x.x.g.g.{ 7 % @ 7 Y h.t.: + + * n Z Z Z I I +.u.=.) ) +.*.,.,.*.Z 8 7 6 4 8 l - l ) +.+.+.) n 6 @ @ 6 Y *.p.5.-.Z r n Z Y Z 7 6 7 8 l 4 @ o X   # 1 4 8 l a 8 7 % 4 7 5 5 5 3 : ; ; - * + o @ * - % % $ @ + + O o o O O O O o o o o o + $ % * : 3 : : 3 ",
"K Z [ -.a.c.M.G.V.>.5 + : l f.;.$ + % 8 8 8 8 l N Z ) u.s.*.| +.+.+.+.+.+.=.| ) Y Y Z - Z p.h.h.h.f.d.d.4 + 3 N +.7.N l l l l l N N Z ! ) X.*.p.) 3 X o g ..*.5.d.z.N.F.*.+.t.;.=.=.3.3.t.f.g.-.% ; a L L Z A l 7 4 4 4 4 3 3 < : 3 4 4 3 - @ + @ - 7 r r r r r ",
"3 3 4 5 r N ] y.v.y.r $ ; l Z : + @ 7 l 8 8 8 8 l n Y *.p.*.) Y Y Y Y Z Y +.5.5.=.) p * 4 *.f.h.h.h.d.7.8 + - 8 [ n 7 7 7 7 7 7 7 7 8 r l r 8 Z 7.7.O , d f p.z.l.m.Z.z.+.*.d.5.Z N Y Y K W g.{ % l P P L A l l 8 8 Z Y Y +.~ n l Y +.+.+.) 8 * + + * 5 r 7 5 5 ",
"3 3 3 5 8 y K E w.g.] * @ 3 3 @ + 4 l 8 8 8 8 h N Z Y =.*.} Y Y Y Y Z N l n ) *.2.5.A * : Z 7.h.h.h.d.5.4 o % 7 Y 7 7 7 7 7 7 7 7 7 r l l 8 7 7 r ) O & 2 6 +.p.+.+.( Z N Z Y N 8 8 8 8 r N -.r + p ~ a 6 4 4 4 7 h N Z Z 2.p.! W ) +.) ) ) ) Y : @ @ % 4 5 5 5 ",
"3 3 3 3 5 8 N C E t.t.> + : : + ; Z 8 8 8 8 8 h l I ! =.+.) Y Y Y L n N n n N Z ) 5.+.: - N +.p.h.h.f.7.4 o $ 4 7 5 7 7 7 7 7 7 7 r l l h 7 5 7 8 l O , 7 7 ~ | L L P r 8 8 8 8 8 8 8 r N K #.8 o ; A 4 3 3 4 6 8 l l l l Z 5.*.Y N 8 7 8 l L Y l ; @ @ % 3 5 5 ",
"3 3 > 3 3 4 7 r y ] a.B + * ; + 7 Z 8 8 8 8 8 l N Y ) *.+.) Y Y Y Z N N N n N N n ) *.l * 8 +.*.t.d.h.p.6 o % 3 3 3 4 5 5 7 7 7 r l l l r 7 5 5 7 8 + ; 7 7 ) ~ L Z Z 8 8 8 8 8 8 8 r l K ] -.7 o % 4 4 3 3 4 7 8 l l l l 8 8 8 7 7 7 7 7 7 8 Z L p 3 % @ % 3 5 ",
"3 3 3 3 3 3 4 5 q y &.-.; + @ @ l h 8 8 8 8 8 l N Y +.+.) ~ Y Y Y Z N N N n N N n L ( +.7 : Y +.+.*.t.d.7 o * 4 > > 3 3 4 5 7 7 r l h r 7 7 7 5 7 7 @ - 6 p +.Z r 8 8 7 7 7 7 7 8 8 l N K ] -.7 o % 3 4 3 3 4 7 8 l l l h 8 8 8 8 7 7 7 7 7 7 7 l Z l 4 % @ % : ",
": 3 3 3 3 3 3 5 5 r y ] K % o % 8 8 8 8 8 8 h l n Y ) Y Y Y Y Y L n N N N N N n N n P ) } 3 ; Y +.+.*.d.4 o - 4 : : : > 3 4 5 7 7 7 7 7 7 7 5 5 4 7 @ - 3 l K r 7 7 6 6 6 6 7 7 8 r l N K ] -.7 o % 3 4 3 3 4 6 7 h l 8 8 8 8 8 8 7 7 7 7 7 7 7 7 8 n L 7 * @ @ ",
"% : 3 3 3 3 3 3 5 7 8 r ] 7 O $ 8 n n n n Z Z Z Z L L P Y Y Y P Z l N N n N n n l N Z Y +.Y ; : ) +.*.d.4 o ; 4 : : : : : 3 4 5 5 5 7 5 5 5 4 3 3 5 @ - 3 8 8 8 7 6 6 6 6 6 7 7 8 r l n K W *.4 o % 4 4 3 3 4 6 7 8 8 8 8 8 8 8 8 7 7 7 7 7 7 7 7 7 7 N W 8 * @ ",
"@ % ; > 3 > 3 3 3 5 5 5 C N + + : I ) ) Y Z N l r l N Z Y Y Y P n l n Z Z Z Z Z N l Z P ) +.7 * 7 +.*.7.; O ; 3 : : : : : : 3 3 3 4 5 5 5 5 3 3 3 5 @ - 4 8 8 7 7 6 6 6 6 6 7 7 8 8 r l K W *.4 o * 4 4 3 3 4 6 7 8 8 8 8 8 8 8 8 7 7 7 7 7 7 7 7 7 8 8 l Y 7 ; ",
": @ @ % ; 3 3 3 3 3 4 4 7 : + O % p @.) Z l r r r h l Z Y Y Y Y Z l n P P P P P Z Z L P Y +.Y : * l @.+.% + : 3 : : : : : : 3 3 3 3 3 4 5 4 3 3 3 4 @ * 7 8 7 7 7 6 6 6 6 6 6 7 7 8 8 l Z ] #.3 o * 6 6 4 4 4 6 7 8 8 8 8 8 8 8 8 8 7 7 7 7 8 8 8 r r r r 8 Y Y ",
"t.7 @ @ @ * > 3 3 3 3 3 3 % o O * 6 ~ n l l r h r h N L Y Y Y Y P Z Z P P P P P P P P P Y ) +.8 * - Y ) % + 3 3 : : : : : : : 3 3 3 3 3 5 4 3 3 3 4 @ * 7 8 7 7 6 6 6 6 6 6 7 7 7 8 r l K [ [ : o - 7 7 6 6 6 6 6 8 8 8 8 8 8 8 8 8 8 8 8 8 r r r r r r q 7 8 *.",
"3.+.4 % @ @ % : 3 3 3 3 > @ o @ - 6 Y N l l r r r h l L Y Y Y P P P P P P P P P P P P P Y Y ) ~ 3 % 8 Y @ @ 4 3 : : : : : : : : : > 3 3 5 5 3 3 3 4 @ * 7 8 7 6 6 6 6 6 6 7 7 7 7 8 r l Y [ ] ; O ; 7 7 6 6 6 6 7 8 8 8 8 8 q r 8 8 8 8 8 r r r r r r 8 8 8 7 r ",
"N W K 7 * @ @ % : 3 3 4 : + + * - 6 Y N l l r r h l l L P P P P P P P P P P P P P P P P P P Y ) Y ; ; : o + 3 3 : : : : ; ; ; ; ; : 3 3 3 3 3 3 3 4 @ % 4 7 7 6 6 6 6 6 6 7 7 7 7 7 r l K [ E % O ; 7 7 6 6 6 6 8 8 8 8 8 r r r 8 8 8 8 q r r r r q 8 8 7 7 7 7 ",
"5 r K W K 3 @ + % : 3 4 * O @ - - 7 Y l n l l r r l n P P P P P P P P P P P P P P P P P P P P P ) Z < @ o O ; 3 : ; ; ; ; ; = ; ; ; : > 3 3 3 3 5 4 @ % 3 7 6 6 6 7 7 6 6 6 7 7 7 8 8 l n ] K $ + : 7 8 7 7 7 7 8 8 q r l l l r 8 8 8 8 r r r r r 8 8 7 7 7 7 7 ",
"5 5 N *.d.l.Y % + % ; * + o @ - - l Z l l l r r h l n P P P P P P P P P P P P P P P P P P P P P P ( 5.Z % O ; > ; ; = = = = = ; ; ; : : : 3 3 3 6 4 @ % 3 4 6 6 6 7 7 6 6 6 6 7 7 8 8 l N W N @ + : 7 8 8 8 8 8 8 r r l l l l r r r 8 8 q r r r 8 8 8 8 7 7 7 7 ",
"5 5 5 l t.N.n.` : + O o o + % - < Y l r r h h r r l N Z Z L Z Z P P P P P Y Y P P P P P P P Y P P P +.*.- O ; > ; = ; ; = = = = = ; ; ; : : : > 4 4 + $ 3 3 4 6 6 6 7 7 6 6 7 7 7 r l l N W C @ + < 7 8 8 8 8 8 r r r l l l l N r r r r r r 8 8 8 8 8 8 7 7 7 7 ",
"5 5 5 5 5 Y *.+.*.l @ o + @ % - p Z r 8 8 8 8 r r r l N l l l l L P P P Y Y Y Y Y Y P P P P Y Y P Y ) } - o * > ; = ; = = = = = = ; = = ; : : > 4 4 + % 3 4 6 6 6 6 7 7 7 7 7 7 7 r l l N W W % + < 8 8 8 8 8 8 r r r l l l l l l l r r r r 8 8 8 8 8 8 7 7 7 7 ",
"5 5 5 5 5 5 l ) ) +.3 o @ % % : Z 8 7 7 7 8 r r r r l N N l l Z P P P P Y Y Y Y Y Y Y Y Y Y Y Y Y Y ) ) - o % : ; ; ; = = = = = = ; ; ; ; ; : > 3 3 + % 3 4 6 6 6 6 7 7 7 7 7 7 7 8 h l N W [ : + < 8 8 8 8 8 8 r r r r r l l l l r r r r r q 8 8 8 8 8 7 8 8 7 ",
"5 5 5 5 5 5 5 r Y Y 3 O $ % % : 8 8 7 8 6 7 r r r r l N N l l Z P P P Y Y Y Y Y Y Y Y Y Y Y Y Y Y Y +.+.; o @ : : ; * % % * = = = ; ; ; ; ; ; : 3 3 + * 3 3 4 6 6 6 6 7 7 7 7 7 7 7 8 l N W { 3 O 3 8 8 8 8 8 r r r l l r r r r l l l l l r r q r r 8 8 7 7 7 7 ",
"5 5 5 5 5 5 5 5 Z L : + @ % % - 7 8 7 7 4 4 8 r h r r l l l l Z P P P Y Y Y Y Y Y Y Y Y Y ! ! Y Y Y *.=.; o + - ; * @ @ + % * ; ; ; = ; ; = ; : 3 4 + % 3 3 3 4 6 6 6 6 6 6 6 6 7 7 8 8 l W -.4 o : 8 8 8 8 8 r r l l l r r r h l l l l l r r r n N r 8 7 7 7 7 ",
"5 5 5 5 5 5 5 5 8 A : + @ % % - 4 8 8 7 4 4 7 7 8 r r r l l l n P P P Y Y Y Y Y ) ) ) ) ) ) ) ) ) ) ,.*.; o + @ % @ + @ + + @ % * * = ; ; = ; : 3 3 + @ 3 3 3 3 4 6 6 6 6 6 6 6 6 7 7 7 r W =.; o : 8 8 8 8 r r l l l r q r l l l l l l l l l N L Z l r 7 7 7 7 ",
"5 5 5 5 5 5 5 5 7 A < @ + % * ; 5 8 5 3 3 3 4 7 7 8 8 r l l l n P P Y Y ~ Y Y ! ) ) ) ) ) ) ) ) ) ) 5.5.; o + + + + + + + + + + + @ % ; ; ; : : 3 : + + ; 3 3 3 4 6 6 6 6 6 6 6 6 6 7 7 7 / Z % o : r 8 8 r r r r l h r r l l l N N l l l n Z Z I L Z r 8 8 7 7 ",
"5 5 5 5 5 5 5 5 5 l 6 $ O @ * 3 5 3 : : 3 3 3 4 7 7 7 8 r l l N L P P Y Y Y Y ) ) +.+.+.+.+.+.) ) ) 5.5.; o + + + + + + + + + O + + + @ * : : : > % o + % 3 4 4 3 3 3 4 6 6 6 6 6 6 7 7 7 +.) ; o > r r r r r r r r r r r r r N N N N n Z L P P I I I n r 8 7 7 ",
"5 5 5 5 5 5 5 4 5 7 l * o + * 3 3 : : : : < 3 3 4 5 7 7 r l N Z P P P Y Y Y W ) +.+.+.+.+.+.+.) Z 8 7 3 @ o o o o o o + + o o o o o o o + * : > ; + o o + * 4 3 $ + @ $ * ; < 3 4 7 8 8 8 *.*.3 + 4 r r r r r r r r r r r r r N N N n L P I K K K Y Y L r 8 7 7 ",
"4 4 4 5 5 5 4 3 3 4 l 6 + + * ; : : : : : : 3 3 3 4 7 7 r l Z P Y Y Y Y Y Y Y ) +.+.+.+.+.+.Y 3 * % % + o o o o o o o O O o O O o o o o o + @ % @ o o o + @ % @ o o o o o O + @ @ * 4 8 Z 7.#.: @ 7 8 8 r r q q r r r r r r l N N N Z I L I Y Y K Y Y K N 7 7 7 ",
"3 3 3 4 4 4 3 3 3 3 4 l - O % * : : : : : > : 3 3 3 5 7 8 l Z P Y Y Y Y Y Y Y ) ) +.+.+.+.Y ; % % * ; * o + @ @ @ @ @ @ @ $ $ $ @ @ @ @ @ @ @ $ % % % % $ @ @ @ @ @ + + O o o o o o + @ * 7 3 + $ 7 8 8 8 8 8 7 8 8 8 q r r l l N N Z P I I K K I Y Y K N 7 7 7 ",
"3 4 7 4 3 3 3 3 3 3 3 7 - o $ % ; : : : : > : : 3 3 5 7 7 r Z Y Y Y Y Y W Y Y Y Y ) ) +.Y ; % % - 3 8 7 + O $ % % $ % % % * * * * ; ; * ; 4 4 4 4 6 7 7 7 7 7 7 7 8 l p 7 6 3 < ; * $ @ + o o o @ 3 8 7 7 7 5 5 7 7 7 8 r r l l N N Z Y I I Y Y Y Y Y I N 7 7 7 ",
"4 3 4 4 3 3 3 3 3 3 3 4 @ o @ % - ; : : : : : : 3 3 5 5 7 8 l L P Y Y Y Y Y Y W X.) ) ) 3 $ % ; 3 8 Y l + o @ * * * * * - ; ; ; ; ; - - 7 A 7 8 l l l Z Z Z Z Z Z +.7.6.5.,.,.,.,.,.| } ) Y n % O * 7 7 5 5 5 5 5 5 5 7 r r l l l n Z K P Y Y Y Y Y Y K l 7 7 7 ",
"6 4 4 3 3 3 3 3 3 3 3 4 % o @ $ * ; ; : : : : : > 3 4 5 7 r r Z P Y L L P Y Y Y @.7.) 4 @ + - 3 7 p ) 6 + o + % * * * * * * * * * * : 7 8 < ; < 4 6 6 7 l Z Z L +.) l ) 5.,.5.5.2.2.2.l.B.B.z.4 o @ : 8 5 5 5 5 5 5 7 7 8 l N n N Z K K P Y P I K K Y Z r 7 7 7 ",
"6 6 4 3 3 3 3 3 3 3 4 4 * o + @ @ % - ; ; : : : : 3 4 5 7 8 r l Z Z l l Z L P Y ) @.3 + O * 3 4 8 8 ~ 4 O o @ * * * * * * * * ; 3 7 8 6 : ; ; < 3 4 6 4 4 l Z } Y 7 7 7 ) Y Z Z L P L P 5.l.*.3 O @ * 7 7 5 5 5 5 5 7 C r l Z P P L L Z P Y P L Y K Z l 8 7 7 7 ",
"6 6 6 4 3 3 3 3 3 4 4 3 % o + @ @ @ % * ; ; ; : : 3 4 5 7 8 r r r h r r l n P P Y 7 + o $ < 3 7 8 8 Y l + o @ * * % % * - : 4 4 3 < ; ; ; ; ; : < 3 3 3 3 4 7 7 7 7 7 6 a +.l 8 8 8 8 8 p *.Y 3 O @ % 3 5 5 5 5 5 5 7 ) K Z Y Y P Y K P P Y Z n N l r r 8 8 7 7 ",
"3 3 4 4 3 3 3 3 3 3 : * + o O + @ @ @ @ $ % * * - ; ; : : 3 3 3 3 3 4 3 4 4 4 3 3 % o O ; 4 6 8 8 8 Z 8 + o @ % % % - : < : ; ; ; ; ; ; ; ; ; ; < < 3 3 4 6 6 7 7 7 7 6 6 p l 8 8 8 8 8 l +.Y : o @ $ ; 4 7 8 8 8 8 7 r N l l l n Z Z Z Z N 7 : 3 7 8 r 7 4 ; ; ",
"+ + + @ @ @ + + + + + O O + + @ @ + + + + + + + O + @ @ @ @ + @ @ @ $ $ @ + $ % + o o o % 4 8 p Y ~ L 4 O O $ * * - ; ; - ; ; ; ; ; ; ; ; ; ; ; : < 3 3 4 6 7 7 7 7 6 6 6 6 6 7 8 8 n n Z +.Y : o + + @ * * * % % % @ @ @ @ @ @ $ $ % * * % + o + @ % % $ + o o ",
"@ @ @ + + @ $ % % % $ % * ; : < 3 : ; - ; ; ; ; $ $ 3 6 6 4 3 3 4 6 7 7 6 6 P 7 3 % o o O $ < 8 @.7.Z : o o @ * * * * - - - ; ; ; ; ; ; ; ; ; : < < 3 3 4 6 6 7 7 7 6 4 4 4 6 7 8 n Z Z Z +.Y ; + % ; ; ; - * * % % % % % % * ; ; ; - ; - - * % * @ o o @ $ % % ",
"7 6 7 4 - 4 7 3 3 < : : < 3 4 4 6 6 4 3 3 3 3 3 % @ ; 6 p a n p p a A L P ,.u.P n p - o o o + ; l Z 7 - o O @ % * * * - - - - ; ; ; ; ; ; ; : < < 3 3 3 6 6 6 6 6 6 6 4 3 4 6 7 8 n Z Z Z +.~ ; % W *.+.) Y Y Z Z Z Z Z Z Z Y ) X.~ L Z L Y l 7 7 3 @ * 6 6 6 6 ",
"n Y =.+.8 Z 8 : : : < < : : < < < < < : : : < < @ + % * 3 a *.P n Y +.5.p.u.| n l Z n : + o o + - 7 4 - O O @ % * * * - - - - - ; ; ; ; ; ; : < < 3 3 4 4 6 6 4 4 4 4 3 3 3 6 7 8 n Z Z Z | Y ; @ d.S.x.f.p.7.5.;.,.,.) Y ) =.@.+.) ~ P Y ~ =.| ,.( $ < 5.P n A ",
"=.,.a 4 8 Y 7 : : ; : : : : : : ; ; ; ; ; ; ; ; @ + % * * 4 ) 2.d.p.7.*.P a p p p a Z | 8 % o O $ * ; - O O @ % * * * - - - - ; ; ; ; ; ; ; ; : < < 3 3 3 4 4 3 3 3 3 3 3 3 6 7 8 n Z Z Z } Y ; @ 8 A.S.c.f.t.=.{ ) ) N 8 8 7 4 6 7 6 6 6 6 Z } 7.Z $ + a 6.) P ",
"*.l 3 < 3 a 7 < < < : : : : : : : ; ; ; ; ; ; ; @ + % * * ; 8 Y 5.Y 8 7 7 p p p p p a Y ,.~ ; O + % * * + + $ % * * * * - - - ; ; ; ; ; ; ; ; ; < < 3 3 3 3 3 3 3 3 3 3 3 4 6 7 8 l Z Z Z ) Y ; @ : ) c.;.K B B N l 8 7 7 4 3 3 4 6 6 6 6 6 6 ( d.p % o * S ,.+.",
"Z 6 4 3 3 4 3 3 3 3 3 : : : : : : : ; ; ; ; ; ; $ + % * * 3 8 p 7 3 4 6 7 8 p p p p p A } =.| < + @ % % + + % * * % * * - - ; ; ; ; ; ; ; ; ; ; : < < 3 3 3 4 4 4 6 4 4 4 4 6 7 8 l Z Z Z ) Y - % 3 #.3.K N N C N h 8 7 6 4 3 3 4 4 6 6 6 6 6 6 =.P ; o % i  .*.",
"7 4 4 3 3 3 3 3 3 3 < : : : : : : : : ; ; ; ; ; @ + * * - 4 8 6 3 3 3 6 7 7 8 p p p p n Z P =.6.6 @ + @ O + % % % % % * - - ; ; ; ; ; ; ; ; ; ; : < < < 3 3 4 6 6 6 6 6 6 6 6 7 8 8 Z Z Z ) P * % 3 #.E N K K K N r 8 7 6 3 3 3 3 3 4 4 4 4 6 4 P +.3 O @ i  .+.",
"4 4 4 4 4 4 4 4 3 3 : : : : : : : : : : ; ; ; ; + @ * * : 3 3 < < < 3 4 7 7 7 8 p p p l A Z P 2.b.=.* o o + $ % % % % * - - ; ; ; ; < < : ; : : < < < < 3 3 4 6 6 6 6 6 6 6 7 7 8 8 l ~ Y ) ) * $ 3 Z K K K K Z N 8 7 7 4 3 3 3 3 3 3 3 3 4 6 6 p *.8 + @ i } Y ",
"4 4 4 4 4 4 4 4 3 3 : : : : : : : : : : : ; ; % o @ * - < < ; ; ; : < 3 6 6 6 7 7 8 p p p n Z Z 5.C.l.4 % O $ % % % % * - - ; ; ; : : ; : : : : < < < < 3 3 4 4 6 6 6 6 6 7 7 7 8 8 8 ) 7.7.9.; + : r K K K K N h 7 7 6 4 3 3 3 3 3 3 3 3 3 4 6 6 @.L $ + i } 8 ",
"4 4 4 3 3 3 3 4 3 3 < : : : : : : : : : : : : @ o % * ; : ; ; ; ; ; : < 3 4 4 6 7 7 p p p p l Z Z | l.*.3 O @ % % % % * - - ; ; ; ; : : : : : : : < < < 3 3 3 4 6 6 6 6 6 7 7 7 8 8 8 *.m.z.l.< + - l K K K N l 8 7 7 6 4 3 3 3 3 3 3 3 3 3 4 6 4 L | % + p Z 4 ",
"4 4 4 4 3 3 3 3 3 3 3 3 < : ; : : : : : : 3 3 + O % ; : ; ; ; ; ; ; ; < 3 3 3 4 6 7 8 p p p p n Z Z Z 4 % O $ % % % % * - - - ; ; ; : : : ; : : : < < < 3 3 3 4 6 6 6 6 6 7 7 7 7 8 8 l.Z.N.p.: + % h K K C N l 8 7 7 6 4 3 3 3 3 3 3 3 4 4 6 6 6 8 @.* + 8 7 3 ",
"4 4 4 4 4 4 3 3 3 3 3 3 3 3 < : : < : < 3 7 a @ O - < ; ; ; ; ; ; ; ; < < < 3 3 4 6 7 p p p p l Z Z l 3 $ O $ % % % % * * - - ; ; ; ; : : ; : : : < 3 3 3 4 4 6 6 6 6 6 6 6 6 6 7 7 Z B.G.d.L 3 + % 8 K N N N N r 7 7 7 6 4 4 3 3 3 3 3 4 6 6 6 6 6 ) ; @ 7 4 3 ",
"4 4 4 4 4 4 4 3 3 3 3 3 3 4 4 3 < 3 3 3 3 a Z - o $ ; ; ; ; ; ; ; ; ; < < < 3 3 4 6 7 8 p p p a Z L l 3 @ + $ % % % % % * - - ; ; ; ; ; : : : : < < 3 3 4 6 6 6 6 6 6 6 6 6 6 6 7 7 Y A.L.p.) 4 @ @ 7 K N C N N l 8 7 7 7 6 6 4 3 3 3 3 4 6 6 6 6 6 p - @ 6 3 3 ",
"4 4 4 4 4 4 4 4 4 4 4 4 4 4 4 4 3 3 3 3 7 l A 4 o @ ; ; ; ; ; ; ; ; ; < < < 3 3 4 4 7 8 p p p p A Z l 3 @ + % % % % % % * * - ; ; ; ; ; : : : : < 3 3 3 4 6 6 6 6 6 6 6 6 6 6 6 7 7 7 7.J.Z.,.3 + @ 7 K C C N N N l r 7 7 7 6 6 4 4 4 4 6 6 6 6 6 6 8 ; + 3 3 3 ",
"4 4 4 4 4 4 4 6 6 6 4 4 6 6 6 4 4 3 4 4 8 7 7 7 + @ ; ; ; ; ; ; ; ; ; < < < 3 3 4 4 6 7 8 p p p l Z n < + + % % % % % % * * - ; ; ; ; ; ; : : : < 3 3 4 6 6 6 7 7 7 7 6 6 6 6 7 8 7 7 7 *.B.5.* + % 8 W K N N N N N l 8 7 7 7 7 6 6 6 6 6 4 4 4 4 4 8 3 + : 3 3 ",
"4 4 4 4 6 6 6 6 6 6 6 6 6 6 6 6 4 4 4 6 a 6 6 7 + @ ; ; ; ; ; ; ; ; ; : < < 3 3 4 4 6 6 7 7 8 p p n Z : o + $ $ $ $ % * * - - ; ; ; ; ; ; ; : : < < 3 4 6 6 7 7 7 7 7 7 7 6 6 7 8 8 8 8 A *.( % + * r ] J K K Z N N N 8 7 7 7 7 7 7 7 6 6 4 3 3 4 4 7 7 @ : 3 3 ",
"4 4 4 6 6 6 6 6 6 6 6 6 6 6 6 6 4 4 4 8 8 4 7 7 @ $ ; ; ; ; ; ; ; ; ; ; ; < 3 3 3 4 4 6 7 7 7 7 8 l Z ; o + $ $ $ $ % % * * - - ; ; ; ; : < : : < < 3 4 6 6 7 7 7 7 7 7 6 6 7 7 8 8 8 8 n +.Y % + ; K { W K K N N N l 8 7 7 7 7 7 7 7 7 6 4 3 3 4 8 7 7 @ : 3 3 ",
"4 4 4 4 6 6 6 6 6 6 6 6 6 6 6 4 4 4 3 Z } 7 8 7 @ % ; ; ; ; ; ; ; ; ; ; : 3 3 3 3 3 3 4 6 6 7 7 7 p n ; o + $ $ $ $ $ % % * * - - ; ; ; : < < : < 3 4 6 6 6 7 7 7 7 7 7 7 7 7 7 p p p 8 l +.) * @ : ) { W K K N N l r 8 7 7 7 7 7 7 7 6 6 6 4 3 3 4 7 7 @ : 3 3 ",
"4 4 4 4 6 6 6 6 6 6 6 6 6 6 6 4 4 3 3 4 Y @.Z 7 @ $ ; ; ; ; ; ; ; ; ; ; ; 3 3 3 3 3 3 3 4 4 6 7 7 8 l - o + $ $ $ $ $ % % * * * - - ; ; : < < < < 3 4 4 4 6 6 7 7 7 8 7 7 7 7 8 p p p 8 l ) ) ; @ 3 +.{ E K K N N l 8 8 7 7 7 7 7 7 7 7 6 6 4 3 3 3 4 6 @ : 3 3 ",
"4 4 4 4 6 6 6 6 6 6 6 6 6 6 6 4 4 3 3 : ; 7 L 8 + @ ; ; ; ; ; ; ; ; ; ; ; < < < 3 3 3 3 4 4 6 6 7 8 l - o + @ $ $ $ $ % % % * * - - - ; : < < < < 3 3 4 3 4 6 6 7 8 8 7 7 7 8 8 p p p 8 l ) ) : + 3 *.{ E K C N N l 8 8 7 7 7 7 7 7 7 6 6 6 4 3 3 3 4 4 $ ; 3 3 ",
"4 4 4 4 6 6 6 6 6 6 6 6 6 6 4 4 3 3 3 ; ; ; 3 7 + @ ; ; ; ; ; ; ; ; ; ; ; < < < < < 3 3 4 4 6 6 7 8 A < o + @ $ $ $ $ % % % % * * - - ; ; : < < 3 3 3 4 4 6 6 7 8 8 8 7 7 8 8 p p p p p l ) [ 3 + 3 5.] K K N N N l 8 8 7 7 7 7 7 7 6 6 4 4 3 3 3 3 4 3 $ ; < 3 ",
"4 4 4 4 6 6 6 6 6 6 6 4 4 4 4 4 4 3 < ; ; ; < 8 @ $ ; ; ; ; ; ; ; ; ; ; ; ; < < < < 3 3 4 4 6 6 7 8 Z 7 + + @ $ $ $ $ % % % % * * - - ; ; ; : < 3 3 4 6 6 6 6 7 8 8 7 7 7 8 p p p n n a l ) +.< + 3 5.] K K N N N N r 8 8 7 7 7 7 7 6 6 3 3 3 3 3 3 3 3 % : 3 3 ",
"4 4 4 4 6 6 6 6 6 6 4 4 4 4 3 3 3 3 3 ; ; ; < 8 $ % ; ; ; ; ; ; ; ; ; ; ; ; < < < 3 3 4 4 6 6 6 7 8 n 6 + + @ $ $ $ $ % % % % % * * - - ; ; : < < 3 3 4 6 6 7 8 8 8 7 7 8 p p p n Z Z Z Z ! ) ; o 3 7.W K C N N N l l 8 8 7 7 7 7 7 6 4 3 3 3 3 3 3 3 3 % : 3 3 ",
"3 4 4 4 4 6 6 6 6 4 4 4 3 3 3 3 3 3 3 ; ; ; : : @ * ; ; ; ; ; ; ; ; ; ; < < < < < 3 3 3 4 6 6 6 6 7 p 3 + + @ $ $ $ $ $ % % % % * * - - - ; ; : < 3 3 4 6 6 7 7 8 8 7 7 p l l l l Z Z Z Y Y Y ; o 4 -.K K C N N N l r 8 8 8 7 7 7 6 6 3 3 3 3 3 3 3 3 3 % : 3 3 ",
"3 3 3 4 4 4 6 6 4 4 4 4 3 3 3 3 3 3 3 : ; ; : % @ ; ; ; ; ; ; ; ; ; ; : < < < 3 3 3 3 3 4 4 6 4 6 7 7 3 @ + @ $ $ $ $ $ % % % % * * * - - ; ; ; : < 3 3 4 4 6 6 7 8 8 8 p n Z Z n Z Z Z L Y Y - o 3 [ K K N N N N l 8 8 8 7 7 7 6 4 4 3 3 3 3 3 3 3 4 3 % ; 3 3 ",
"< < 3 4 4 4 6 6 4 4 4 4 4 3 3 3 3 3 3 : ; : ; + @ < : ; ; ; ; ; ; ; ; ; : < < < 3 3 3 3 4 4 4 4 4 6 7 4 @ + $ $ $ $ $ $ % % % % * * * - - - ; ; ; < < 3 3 3 4 6 7 7 8 a a Z Z Z Z Z Z Z L Y Y ; o 3 / K K K C N N l 8 8 7 7 7 6 4 3 3 3 3 3 3 3 3 3 4 3 % ; : : ",
"< < 3 4 6 6 6 4 4 4 4 4 4 4 4 3 3 3 3 ; ; < % o % 4 : ; ; ; ; ; ; ; ; ; ; < < < 3 3 3 3 4 4 4 4 4 4 7 4 @ + $ $ $ $ $ % % % % % % * * * - - - ; ; : < < 3 3 3 6 6 7 p l Z Z L Y Y Y L Z I Y Y < o 3 W K K K K K N l 8 7 7 7 6 4 3 3 3 > > : : 3 3 3 4 3 $ ; : : ",
"< < 3 4 6 6 4 4 4 4 4 4 4 4 4 3 3 3 3 ; < : @ o ; 6 < ; ; ; ; ; ; ; ; ; ; : < < < 3 3 3 4 4 4 3 3 4 7 4 @ + $ $ $ $ % % % % % % % % * * - - - - ; ; : < < 3 3 6 7 7 8 p l Z Y Y Y Y Y Y Y K Z : o 4 Y Z K K K K N l 8 7 7 7 4 3 3 3 3 > : : 3 3 3 3 3 3 $ - : : ",
"< < 3 4 4 4 4 3 3 3 4 4 4 4 4 4 3 3 3 < 6 : + + 6 6 < < ; ; ; ; ; ; ; ; ; ; ; < < < 3 3 3 3 3 3 3 4 7 4 @ + $ $ % % % % % % % % % % * * * - - - ; ; ; < < 3 3 4 7 7 8 8 p Z Y Y Y Y Y Y Y l 4 $ O 7 K C K K K K K N r 7 7 6 4 3 3 3 3 3 > : : 3 3 3 4 4 @ * : : ",
"< 3 3 3 3 3 3 3 3 3 4 4 4 4 4 4 3 3 3 4 8 ; + @ 3 4 < < ; ; ; ; ; ; ; ; ; ; ; : < < 3 3 3 3 3 3 3 4 7 4 @ + $ % % % % % % % % % % % % * * * - - - ; ; ; < < 3 4 6 7 7 8 p n Y Y Y Y Y Y *.+.; + + 8 K N K K K K K N r 7 7 4 3 3 3 3 3 3 3 > : 3 3 3 4 4 @ * : : ",
"< 3 3 3 3 3 3 < 3 3 3 3 3 3 3 4 3 3 3 7 8 * + @ ; 4 < < : ; ; ; ; ; ; ; ; ; ; ; : < 3 3 3 3 3 3 3 3 6 3 @ + @ $ % % % % % % % % % % % * * * - - - ; ; ; : < 3 3 4 6 7 8 8 n Y Y I ) *.} z.l.* o @ N Z N N K K K K N 8 7 6 4 3 3 3 3 3 > : : : > 3 3 3 3 @ * ; : ",
"; < < < < < < 3 3 3 3 3 3 3 3 3 3 3 3 a 7 % + + ; 4 < < < ; ; ; ; ; ; ; ; ; ; ; ; < < 3 3 3 3 3 3 3 4 3 @ O @ $ % % % % % % % % % % % * * * * - - ; ; ; : < < 3 4 6 7 7 8 p n Y *.,.L 7 Y Y @ o % Z l l N N Z K N r 7 6 4 4 3 3 3 : : : : : : : 3 3 4 4 @ % - : ",
"; < < < < < < 3 3 < < 3 3 3 3 3 3 3 6 A 3 % $ @ ; 6 < < < : ; ; ; ; ; ; ; ; ; ; ; ; ; : < < 3 3 3 3 4 < @ + @ $ $ % % % % % % % % % % % * * * - - ; ; ; : < < 3 4 6 6 7 7 7 Y 7.} 8 7 7 n ; o o ; K 8 8 l N N N r 7 6 4 3 3 3 > : > > : : : : : 3 3 3 3 @ @ * ; ",
"; : < < < < < < < < < < < < 3 3 3 8 7 < * ; * @ * 3 < < < < ; ; ; ; ; ; ; ; ; ; ; ; ; ; ; ; : : < < 3 : @ O @ $ $ % % % % % % % % % % % % * * - - ; ; ; : : < 3 3 4 6 6 6 7 l p 6 7 7 7 8 % o * l K 8 8 8 8 h r 8 7 4 3 3 3 3 : : : : : > : : : : 3 3 3 @ O % - ",
"; ; < < < < < < < < < < < < 3 4 7 3 * @ $ : * @ % - < < < < ; ; ; ; ; ; ; ; ; ; ; ; ; ; ; ; ; ; ; ; < : @ o + @ $ $ $ $ % % % % % % % % * * * - - ; ; ; : : < < 3 3 4 4 6 6 6 7 7 7 6 6 8 % o ; +.W 8 8 8 8 8 7 7 7 4 3 3 3 : : > > : : : : : : 3 3 3 3 @ O % - ",
"; ; ; < : ; : : < < < < < < 3 4 ; % @ O * < * @ % % * ; ; < : ; ; ; ; ; ; ; ; ; ; ; ; ; ; ; ; ; ; ; ; ; + o + @ $ $ $ $ $ % % % % % % % * * * - ; ; ; : : : < < < 3 3 3 4 6 6 7 7 6 4 4 8 % o @ 4 Y 7 8 8 7 7 7 7 6 4 3 3 3 : : : : : : : : : > 3 3 3 3 @ O % - ",
"; ; ; ; ; ; ; ; ; ; ; ; ; ; 3 < % @ + + % - % @ % % % % % * - ; ; ; ; ; ; ; ; ; ; ; ; - * * - - ; ; ; - + o + @ $ $ $ $ $ % % % % % % % * * * - ; ; : : < < < < < 3 3 4 6 7 7 7 7 4 4 4 7 @ o @ ; l 7 7 7 7 7 7 6 6 6 4 3 3 3 : : : ; : : : : 3 3 3 3 3 @ o $ - ",
"* * % % $ $ % % % % % % % % % $ + O o + + + + + @ @ @ $ $ $ $ $ % - - - ; - - - * % $ @ @ @ + @ @ @ @ + o O + + + + + + @ @ + + + @ @ @ @ @ $ % * - ; ; : < : < < 3 3 4 6 7 7 7 6 4 4 4 < + o $ ; 7 7 7 7 7 7 7 7 7 7 7 7 4 3 3 > : % % ; ; ; : ; ; - * @ o + $ ",
"+ + + + @ % % % % % $ @ @ @ @ @ @ @ @ @ @ @ + o o o O O O + + @ $ @ $ @ $ @ @ @ @ + + O o o O o o o o o o o o o o o o o o o o O O o o o o o o o o + @ @ @ @ @ @ * ; ; : 3 3 4 4 4 3 4 4 ; O o $ - 7 7 7 7 7 7 7 7 7 7 7 7 7 4 4 4 : + o + + @ @ @ @ @ + + o o o ",
"; < 3 6 n Z Z A A n l a 8 p p p a l n Z Z Z 4 @ o % : 3 4 7 7 4 4 4 4 3 3 3 7 l l l p 7 6 4 4 3 ; o @ ; : : ; ; ; ; ; ; ; : 3 3 3 < ; % + % : : 4 8 8 l 7 % o @ - % @ + + + + @ $ * ; ; % o o @ * 5 7 7 7 7 7 7 6 6 6 4 3 ; - * % % * < 8 6 > > 3 l p 4 4 3 + o ",
"3 6 7 A L Z 8 7 6 4 4 4 4 4 4 4 4 4 6 7 8 ) n 3 O * Z Z l 8 7 < : : : : : ; < 3 4 4 7 8 8 l ~ 5.) O ; 8 p 8 8 7 4 4 7 7 n Z Z Z Z Z l 7 ; ; Y #.*.-.9.t.t.J + ; 7 6 4 : * @ + O o O + @ + o o + % : 3 3 3 : : ; * % @ + @ * < 7 8 l +.u.l.K 5 5 5 l ) ) +.Y $ o ",
"; : 6 Z l 8 4 3 < : : : : : : : : : : : : l L 8 % $ 7 3 ; ; ; ; ; ; ; ; ; ; ; ; ; ; ; 3 4 4 l l.P o : p 6 4 3 3 3 3 3 4 p Z Z Z Z Z Z Z 7 % 7 3.t.t.t.t.t.:.- ; 8 6 6 6 6 4 < - % @ O o o o o o O + @ % % @ O + + o + % 6 n Z Z Y ,.5.Y ,.Z 5 5 5 5 Z ) +.4 + o "
};
