/* XPM */
static char *texture07[] = {
/* columns rows colors chars-per-pixel */
"128 128 172 2 ",
"   c #5E594F",
".  c #74694D",
"X  c #6C6655",
"o  c #6A655A",
"O  c #6E685C",
"+  c #796E52",
"@  c #7D7355",
"#  c #7D745D",
"$  c #736C67",
"%  c #767267",
"&  c #7A746A",
"*  c #817654",
"=  c #847957",
"-  c #807658",
";  c #857B5A",
":  c #8A7F5D",
">  c #857D64",
",  c #8A7F60",
"<  c #887F6E",
"1  c #847B74",
"2  c #8C815E",
"3  c #878061",
"4  c #8D8362",
"5  c #8C856B",
"6  c #8E886F",
"7  c #918665",
"8  c #938967",
"9  c #908768",
"0  c #958C6B",
"q  c #948C6B",
"w  c #968C6A",
"e  c #978C6A",
"r  c #978C6B",
"t  c #978D6B",
"y  c #968C6B",
"u  c #938B6C",
"i  c #948B6C",
"p  c #948C6C",
"a  c #958C6C",
"s  c #958D6C",
"d  c #958D6D",
"f  c #968C6C",
"g  c #968D6C",
"h  c #978D6C",
"j  c #968D6D",
"k  c #978D6D",
"l  c #958E6D",
"z  c #968E6D",
"x  c #978E6D",
"c  c #968E6E",
"v  c #978E6E",
"b  c #978F6E",
"n  c #978F6F",
"m  c #958C6B",
"M  c #988D6C",
"N  c #988F6D",
"B  c #998E6D",
"V  c #9A8F6D",
"C  c #988E6E",
"Z  c #988F6E",
"A  c #998F6E",
"S  c #988F6F",
"D  c #9A8F6E",
"F  c #988F6F",
"G  c #97906F",
"H  c #99906E",
"J  c #98906F",
"K  c #99906F",
"L  c #9B906E",
"P  c #9A906F",
"I  c #9B906F",
"U  c #9B916F",
"Y  c #9C916F",
"T  c #9C916F",
"R  c #858175",
"E  c #868276",
"W  c #8A8572",
"Q  c #8D8770",
"!  c #8E8770",
"~  c #8B8273",
"^  c #908772",
"/  c #948B71",
"(  c #998F70",
")  c #938B7E",
"_  c #979070",
"`  c #979171",
"'  c #979070",
"]  c #989070",
"[  c #999070",
"{  c #989171",
"}  c #999171",
"|  c #9A9070",
" . c #9A9170",
".. c #9A9171",
"X. c #9B9171",
"o. c #999271",
"O. c #989172",
"+. c #989272",
"@. c #999272",
"#. c #999273",
"$. c #999373",
"%. c #9A9272",
"&. c #9B9272",
"*. c #9B9372",
"=. c #9A9273",
"-. c #9B9273",
";. c #9A9373",
":. c #9B9373",
">. c #9C9170",
",. c #9C9270",
"<. c #9D9270",
"1. c #9C9271",
"2. c #9D9271",
"3. c #9D9371",
"4. c #9C9272",
"5. c #9D9272",
"6. c #9C9372",
"7. c #9D9372",
"8. c #9C9373",
"9. c #9D9373",
"0. c #9E9372",
"q. c #9E9373",
"w. c #9D9473",
"e. c #9E9473",
"r. c #9A9374",
"t. c #9B9374",
"y. c #9C9374",
"u. c #9D9374",
"i. c #9B9474",
"p. c #9C9474",
"a. c #9C9475",
"s. c #9D9475",
"d. c #9D9475",
"f. c #9E9474",
"g. c #9F9474",
"h. c #9E9475",
"j. c #9E9575",
"k. c #9F9575",
"l. c #9C9576",
"z. c #9E9576",
"x. c #9F9576",
"c. c #9C9677",
"v. c #9D9677",
"b. c #9D9777",
"n. c #9F9676",
"m. c #9F9677",
"M. c #9B9273",
"N. c #9D9778",
"B. c #9E9778",
"V. c #9E9778",
"C. c #9E9878",
"Z. c #9E9879",
"A. c #A09675",
"S. c #A09576",
"D. c #A09676",
"F. c #A19776",
"G. c #A09677",
"H. c #A19677",
"J. c #A09777",
"K. c #A19777",
"L. c #A09576",
"P. c #A29877",
"I. c #A29877",
"U. c #A19778",
"Y. c #A19778",
"T. c #A39A7C",
"R. c #A99E7E",
"E. c #948B81",
"W. c #A79D80",
"Q. c #A99E81",
"!. c #ADA181",
"~. c #B0A383",
/* pixels */
"7 7 7 7 7 7 7 7 7 7 7 8 C C n %.B.Z.Z.Z.Z.Z.g.%.C n n C C 0.e.e.e.e.n 4 4 4 4 4 4 4 4 4 4 4 4 4 8 8 8 8 q q q q q q q q q q q q q q q q q q q q q q q q q q q q q q q q q q q q q q q q q q q q q q q q q q q q q q q q q q q q q q q q q q q q q q q q q q q q ",
"7 7 7 7 7 7 7 7 7 7 7 7 m C C C i.Z.Z.Z.Z.Z.B.%.C C n n C 0.e.e.e.e.m 4 4 4 4 4 4 7 7 4 4 4 4 4 4 4 4 7 8 q q q q q q q q q q q q q q q q q q q q q q q q q q q q q q q q q q q q q q q q q q q q q q q q q q q q q q q q q q q q q q q q q q q q q q q q q q q ",
"7 7 7 7 7 7 7 7 7 7 7 7 7 q n n %.B.Z.Z.Z.Z.B.%.n n n n n %.e.e.e.e.8 4 4 4 , 4 8 q q q 8 8 8 8 8 8 8 8 q q q q q q q q q q q q q q q q q q q q q q q q q q q q q q q q q q q q q q q q q q q q q q q q q q q q q q q q q q q q q q q q q q q q q q q q q q q q ",
"7 7 7 7 7 7 7 7 7 7 7 7 7 8 n C C i.Z.Z.Z.Z.B.%.n n n n C C 0.e.e.0.8 4 , 4 4 8 q q q q q q q q n q q q q q q q q q q q q q q q q q q q q q q q q q q q q q q q q q q q q q q q q q q q q q q q q q q q q q q q q q q q q q q q q q q q q q q q q q q q q q q q ",
"7 7 7 7 7 7 7 7 7 7 7 7 7 q C n n %.g.Z.Z.Z.B.%.n C C n n %.0.e.e.0.8 4 4 8 8 q q q q q q q q q q q q q q q q q q q q q q q q q q q q q q q q q q q q q q q q q q q q q q q q q q q q q q q q q q q q q q q q q q q q q n n n n n n n n n n n n n n n q q q q q ",
"7 7 7 7 7 7 7 7 7 7 7 7 7 n C n n n %.Z.B.g.g.n n C n n C %.0.0.%.n 8 7 8 m q m q q q q q q q q n n q q q q q q q q q q q q q q q q q q q q q q q q q q q q q q q q q q q q q q q q q q q q q q q q q q q q q q q q n n n C C C C C C C C C C C C C q m m q q q ",
"7 7 7 7 7 7 7 7 7 7 7 7 7 m C n n n %.%.%.%.C n n n n n n %.C q q q q q q q q q q q q q q q q q n q q q q q q q q q q q q q q q q q q q q q q q q q q q q q q q q q q q q q q q q q q q q q q q q q q q q q q q q q n C C C C C C C C C C C C C C C n m 8 8 m q ",
"7 7 7 7 7 7 7 7 7 7 7 7 7 8 n C n n n n n C n n n n n n %.C q q q q q q q q q q q q q q q q q q n q q q q q q q q q q q q q q q q q q q q q q q q q q q q q q q q q q q q q q q q q q q q q q q q q q q q q q q q n C C C C C C C C C C C C C C C C C C m 8 7 8 ",
"7 7 7 7 7 7 7 7 7 7 7 7 7 7 m n n n C C n n n n n C n C %.q q %.%.n q q q q q q q q q q q q q q q q q q q q q q q q q q q q q q q q q q q q q q q q q q q q q q q q q q q q q q q q q q q q q q q q q q q q q q q n C C C C C C C C C C C C C C C C C C 8 7 7 7 ",
"7 7 7 7 7 7 7 7 7 7 7 7 7 7 7 q C n n C n n C C n n C %.n q n g.U.g.u.%.n n q q q q q q q q q q q q q q q q q q q q q q q q 8 8 q q q q q q q q q q q q q q q q q q q q q q q q q q q q q q q q q q q q q q q q q n C C C C C C C C C C C C C C C C C n 7 7 7 7 ",
"7 7 7 7 7 7 7 7 7 7 7 7 7 7 7 8 C n n n n C n C n n %.C q q %.U.U.U.U.U.U.g.%.%.%.n n 8 q q n n q 8 7 8 q q q q q q q q q q 4 4 q q q q q q q q q q q q q q q q q q q q q q q q q q q q q q q q q q q q q q q q q q n C C C C C C C C C C C C C C C C 8 7 7 7 7 ",
"7 7 7 7 7 7 7 7 7 7 7 7 7 7 7 7 n C n n C C n C n n %.n q C D.U.U.U.U.D.i.%.%.r.g.g.g.m 8 8 8 7 4 2 : 2 8 q q q q q q q q q 2 4 q q q q q q q q q q q q q q q q q q q q q q q q q q q q q q q q q q q q q q q q q q n C C C C C C C C C C C C C C n 8 7 7 7 7 7 ",
"7 7 7 7 7 7 7 7 7 7 7 7 7 7 7 7 8 n C n n n C n n C P q n g.U.U.U.g.r.%.%.%.` ` %.g.g.%.%.q 7 2 : : : : 2 8 q q q q q q q q 8 8 q q q q q q q q q q q q q q q q q q q q q q q q q q q q q q q q q q q q q q q q q q q n C C C C C C C C C C C C n 7 7 7 7 7 7 7 ",
"7 7 7 7 7 7 7 7 7 7 7 7 7 7 7 7 7 q C n n n n n n n n q 0.U.U.U.U.g.%.%.%.%.%.%.g.g.%.%.` %.%.n 8 2 : : : 2 8 q q q q q q q q q q q q q q q q q q q q q q q q q q q q q q q q q q q q q q q q q q q q q q q q q q q q q n C C C C C C C C C C n 8 7 7 7 7 7 7 7 ",
"7 7 7 7 7 7 7 7 7 7 7 7 7 7 7 7 7 8 n n n n n n n n q %.U.U.U.U.U.D.%.%.%.%.` %.g.%.%.%.` ` ` %.%.8 : : : : 2 7 q q q q q q q q q q q q q q q q q q q q q q q q q q q q q q q q q q q q q q q q q q q q q q q q q q q q n C C C C C C C C C C m 7 7 7 7 7 7 7 7 ",
"7 7 7 7 7 7 7 7 7 7 7 7 7 7 7 7 7 8 n n n C C n m q C D.U.U.U.U.U.D.%.%.%.%.` %.%.%.%.%.` ` ` ` %.q 2 2 2 2 2 2 4 8 q q q q q q q q q q q q q q q q q q q q q q q q q q q q q q q q q q q q q q q q q q q q q q q q q q q n C C C C C C C C n 7 7 7 7 7 7 7 7 7 ",
"7 7 7 7 7 7 7 7 7 7 7 8 7 4 4 4 7 n C n n C q m q q 0.U.U.U.U.U.U.g.%.` %.%.%.%.%.%.%.%.` ` ` ` %.G n n n n n n 8 7 7 q q q q q q q q q q q q q q q q q n q q q q q q q q q q q q q q q q q q q q q q q q q q q q q q q q n C C C C C C C C n 7 7 7 7 7 7 7 7 7 ",
"7 7 7 7 7 7 7 7 7 7 7 7 8 8 4 4 8 n n C C n q q q q 0.U.U.U.U.U.U.g.` ` %.%.%.%.%.%.%.%.` ` ` ` %.%.%.%.` ` %.%.%.%.4 4 q q q q q q q q q q q q q q q q n n q q q q q q q q q q q q q q q q q q q q q q q q q q q q q q n n C C C C C C C C n 7 7 7 7 7 7 7 7 7 ",
"7 7 7 7 7 7 7 7 7 7 7 7 7 7 8 m q n C C C n q q q n g.U.U.U.U.U.U.g.%.` %.%.` %.` ` %.%.` ` %.` ` ` %.%.` ` ` ` %.` X O Q u q q q q q q q q q q q q q q n n q q q q q q q q q q q q q q q q q q q q q q q q q q q q q q n C C C C C C C C C n 7 7 7 7 7 7 7 7 7 ",
"7 7 7 7 7 7 7 7 7 7 7 7 7 7 7 8 n n n n q n q n C 0.D.U.U.U.U.U.U.U.i.%.%.%.` ` ` ` %.%.%.%.%.%.` %.%.%.` ` ` ` %.5   & R 6 q q q q q q q q q q q q n n C n q q q q q q q q q q q q q q q q q q q q q q q q n q q q q q n C C C C C C C C C n 7 7 7 7 7 7 7 7 7 ",
"7 7 7 7 7 7 7 7 7 7 7 7 7 7 7 7 m n 8 n n C C P Y e.U.U.U.U.U.U.U.U.U.g.` ` ` ` ` ` ` ` %.%.%.%.` ` %.%.%.%.` n P 5 % R R 6 q q q q q q q q q q q n C C n n q q q q q q q q q q q q q q q q q q q q q n n n n n n n n n C C C C C C C C C n 8 7 7 7 7 7 7 7 7 7 ",
"7 7 7 7 7 7 7 7 7 7 7 7 7 7 7 7 8 q 7 7 m P Y Y Y g.U.U.U.U.U.U.U.U.U.%.` ` ` ` ` ` %.` %.%.%.%.` ` %.%.%.%.n n P 5 1 R W u q q q q q q q q q q n C C C n q q q q q q q q q q q q q q q q q q q q q q q q q q q q q n n C C C C C C C C C 8 7 7 7 7 7 7 7 7 7 7 ",
"7 7 7 7 7 7 7 7 7 7 7 7 7 7 7 7 7 8 7 8 C Y Y Y 0.D.U.U.U.U.U.U.U.U.g.i.%.` %.%.%.%.%.%.%.%.` ` ` ` %.%.` n n n %.5 Q 6 u q q q q q q q q q q q n C C C n q q q q q q q q q q q q q q q q q q q q q q q q q q q q q n C C C C C C C C C n 7 7 7 7 7 7 7 7 7 7 7 ",
"7 7 7 7 7 7 7 7 7 7 7 7 7 7 7 7 7 7 8 C Y Y Y Y 0.U.U.U.U.U.U.U.U.U.U.g.%.%.%.%.%.%.%.%.%.` ` ` ` ` %.` n n n n %.4 i n n q q q q q q q q q q q n C C C C n q q q q q q q q q q q q q q q q q q q q q q q q q q q q q n C C C C C C C C C 8 7 7 7 7 7 7 7 7 7 7 ",
"7 7 7 7 7 7 7 7 7 7 7 7 7 7 7 7 7 7 C Y Y Y Y 0.g.U.U.U.U.U.U.U.U.U.U.g.%.%.%.%.` ` ` %.` %.` ` ` ` ` n n n q n n = 4 n n n q q q q q q q q q n C C C C C n q q q q q q q q q q q q q q q q q q q q q q q q q q q q q n C C C C C C C C C m 7 7 7 7 7 7 7 7 7 7 ",
"7 7 7 7 7 7 7 7 7 7 7 7 7 7 7 7 7 q Y Y Y Y Y 0.D.U.U.U.U.U.U.U.U.U.U.D.%.%.%.%.` ` %.%.%.%.` ` ` n n n n n q n 8 ; , 8 ( n q q q q q q q q q n C C C C C C n q q q q q q q q q q q q q q q q q q q q q q q q q q q n C C C C C C C C C C n 7 7 7 7 7 7 7 7 7 7 ",
"7 7 7 7 7 7 7 7 7 7 7 7 7 7 7 7 m Y Y Y Y Y Y Y 0.U.U.U.U.U.U.U.U.U.U.U.g.%.%.%.` ` %.%.%.%.%.%.` n n n n n n q 8 3 3 8 C n q q q q q q q n n n C C C C C C n q q q q q q q q q q q q q q q 8 8 q q q q q q q q q q n C C C C C C C C C C C 8 7 7 7 7 7 7 7 7 7 ",
"7 7 7 7 7 7 7 7 7 7 7 7 7 7 7 m P Y Y Y Y Y Y Y 0.D.U.U.U.U.U.U.U.U.U.U.U.g.%.%.` %.%.%.%.%.%.` n q q n n n n q 4 3 4 n C n q q q q q q q q n n C P C C C C n q q q q q q q q q q q q q m 8 8 8 q q q q q q q q q q n C C C C C C C C C C C 8 7 7 8 8 7 7 7 7 7 ",
"7 7 7 7 7 7 7 7 7 7 7 7 7 7 8 C Y Y Y Y Y Y Y Y 0.D.U.U.U.U.U.U.U.U.U.U.U.U.g.%.%.%.%.` %.g.%.n n n n n n n q 8 4 4 4 C C n n q q q q q q q n C C C C C C C C n q q q q q q q q q q q q 8 2 4 8 q q q q q q q q q n C C C C C C C C C C C C m 7 7 m 7 7 7 7 7 7 ",
"7 7 7 7 7 7 7 7 7 7 7 7 7 7 C Y Y Y Y Y Y Y Y Y 0.U.U.U.U.U.U.U.U.U.U.U.U.U.U.g.g.%.%.%.g.g.n q n q n n n n n 8 8 4 4 C C C n n n q q n n q n C C C C C C C C n q q q q q q q q q q q q 4 : : 4 q q q q q q q q n C C C C C C C C C C C C C n 8 m q 7 7 7 7 7 7 ",
"7 7 7 7 7 7 7 7 7 7 7 7 7 q Y Y Y Y Y Y Y Y Y Y 0.D.U.U.U.U.U.U.U.U.U.U.U.U.U.U.U.g.%.g.g.C n n n n n n n n n n n 8 4 C C C C C C n C C C n n C C C C C C C C n q q q q q q q q q q q q 4 : : 4 q n q q q q q n C C C C C C C C C C C C C C C C C C m 7 m n m m ",
"7 7 7 7 7 7 7 7 7 7 7 7 m Y Y Y Y Y Y Y Y Y Y Y Y g.U.U.U.U.U.U.U.U.U.U.U.U.U.U.U.g.g.0.n q q n n n n n n n n n n n 7 C C C C C C C C C C n n C P C C C C C C n q q q q q q q q q q q 8 2 : : 7 m n n n n n n C C C C C C C C C C C C C C C C C C C m 8 n C C C ",
"7 7 7 7 7 7 7 7 7 7 7 m P Y Y Y Y Y Y Y Y Y Y Y Y g.U.U.U.U.U.U.U.U.U.U.U.U.U.U.U.U.g.n n n q q q q q q n n n n n 8 4 C C C C P C C C C C C C C C C C P C C C n n q q q q q q q q q 8 4 : : 4 7 7 m C C C C C C C C C C C C C C C C C C C C C C C C C C C C C C ",
"7 7 7 7 7 7 7 7 7 7 7 C Y Y Y Y Y Y Y Y Y Y Y Y Y 0.U.U.U.U.U.U.U.U.U.U.U.U.U.U.U.U.%.n n n n n q n q q n n n n n 8 4 n C C ( C C C C P P C C C C C P P C C P C n q q q q q q q q q 4 : 2 4 7 7 7 7 q C C C C C C C C C C C C C C C C C C C C C C C C C C C C C ",
"7 7 7 7 7 7 7 7 7 7 m Y Y Y Y Y Y Y Y Y Y Y Y Y Y 0.D.U.U.U.U.U.U.U.U.U.U.U.U.U.U.U.%.n n n n n n n q n n n n n n 8 4 n %.%.C C C C C C C C C C C C C C C C P C n q q q q q q q m 7 2 4 7 7 7 7 7 7 7 n C C C C C C C C C C C C C C C C C C C C C C C C C C C C ",
"7 7 7 7 7 7 7 7 7 7 m Y Y Y Y Y Y Y Y Y Y Y Y Y Y Y g.U.U.U.U.U.U.U.U.U.U.U.U.U.U.U.0.n n n n n n n q n n n n q q m 4 4 C P C P C C C C C C C C C C C C C C C C n q q q q q q q 4 2 4 7 7 7 7 7 7 7 7 m C C C C C C C C C C C C C n n C C C C C C C C C C C C C ",
"7 7 7 7 7 7 7 7 7 7 m Y Y Y Y Y Y Y Y Y Y Y Y Y Y Y 0.D.U.U.U.U.U.U.U.U.U.U.U.U.U.U.g.n n n q n n n n n q n n q n n 7 4 n C C C C C C C C C C C C C C C C P C C n q q q q q q 8 2 : 4 7 7 7 7 7 7 7 7 7 n C C C C C C C C C C C m 4 n C C C C C C C C C C C C C ",
"7 7 7 7 7 7 7 7 7 7 m Y Y Y Y Y Y Y Y Y Y Y Y Y Y Y Y D.U.U.U.U.U.U.U.U.U.U.U.U.D.D.D.%.n n n n n n q n q n n q n n m 8 8 C C C C C C C C C C P C C P C C C C C C n q q q q q 8 2 : 4 7 7 7 7 7 7 7 7 7 n C C C C C C C C C C C n m C C C C C C C C C C C C C C ",
"7 7 7 7 7 7 7 7 7 7 m Y Y Y Y Y Y Y Y Y Y Y Y Y Y Y Y 0.D.D.U.U.U.U.U.U.U.U.U.U.D.D.D.0.n q n n n n n n q q q q n n m 8 n C C C C C %.%.0.%.C P C C P C C C C C C n q q q q 8 2 : 2 7 7 7 7 7 7 7 7 7 7 n C C C C C C C C C C C C C C C C C C C C C C C C C C C ",
"7 7 7 7 7 7 7 7 7 7 8 q C P Y Y Y Y Y Y Y Y Y Y Y Y Y Y 0.0.D.U.U.U.U.U.U.U.U.U.D.D.D.g.n n n n n n q n n n n q n n m 8 q C C C C %.0.g.g.g.%.%.C C C P C C C C n q q q q 8 4 : : 4 7 7 7 7 7 7 7 7 7 7 q C C C C C C C C C C C C C C C C C C C C C C C C C C C ",
"7 7 7 7 7 7 7 7 7 7 7 7 7 7 q P Y Y Y Y Y Y Y Y Y Y Y Y Y Y 0.e.D.U.U.U.U.U.U.U.U.U.D.%.n q q q n n n q n q n n n n m 7 m C C C C 0.g.g.g.g.g.0.%.C C C C n n n n q q q 8 4 : : 4 7 7 7 7 7 7 7 7 7 7 7 7 n C C C C C C C C C C C C C C C C C C C C C C C C C C ",
"7 7 7 7 7 7 7 7 7 7 7 7 4 4 4 7 8 q C Y Y P C P Y Y Y Y Y Y Y Y 0.D.D.D.D.D.U.U.U.U.g.n n q n n q n n q n q n n n n m 8 m %.P P %.g.g.g.g.g.g.g.%.C C C C n q q q q q 8 4 : : 2 7 7 7 7 7 7 7 7 7 7 7 7 7 n C C C C C C C C C C C C C C C C C C C C C C C C C C ",
"7 7 7 7 7 7 7 7 7 7 7 7 7 7 7 4 4 2 4 7 7 4 2 7 q Y Y Y Y Y Y Y Y 0.0.0.0.D.U.U.U.U.g.n n q n n n n n q n q n n n n 8 8 m g.%.%.g.g.g.g.g.g.g.g.0.C C C C C n q q q 8 4 : : 2 7 7 7 7 7 7 7 7 7 7 7 7 7 7 n C C C C C %.0.C C C C C C C C C C C C C C C C C C C ",
"7 7 7 7 7 7 7 7 7 7 7 7 7 7 7 7 7 7 7 8 8 8 2 2 4 P Y Y Y Y Y Y Y Y Y Y 0.D.U.U.U.U.D.n q q q q n n q q q q n n n n m 7 q g.g.g.g.g.g.g.g.g.g.g.%.C C C C C n q q 8 4 : : 2 7 7 7 7 7 7 7 7 7 7 7 7 7 7 7 q C C C C C 0.D.%.C C C C C C C C C C C C C C C C C C ",
"7 7 7 7 7 7 m 8 7 7 7 7 7 7 7 7 7 7 7 8 n %.q 2 2 q Y Y Y Y Y Y Y Y Y Y Y D.U.U.U.U.D.P n n n n n n n n n n n n n n n 8 m g.g.g.g.g.g.g.g.g.g.0.C C C C C C n q 8 4 : : 4 7 7 7 7 7 7 7 7 7 7 7 7 7 7 7 7 m C C C C %.D.P.%.C C C C C C C C C C C C C C C C C C ",
"7 7 7 7 7 8 n 7 7 7 7 7 7 7 7 7 7 7 7 7 m %.P 4 2 7 e.0.Y Y Y Y Y Y Y Y Y g.g.C g.U.0.n n n n n n q n q n n n n q n n m 8 %.g.g.g.g.g.g.g.g.g.%.C C C C C C q m 4 : 2 4 7 7 7 7 7 7 7 7 7 7 7 7 7 7 7 7 7 m C C C C g.P.P.g.C C C C C C C C C C C C C C C C C C ",
"7 7 7 7 7 q C 8 7 7 7 7 7 7 7 7 7 7 7 q %.%.n 2 2 8 T.0.Y Y Y Y Y Y Y Y Y %.n m n %.C n n n n n n q n q q n q n q n n m 8 q 0.g.g.g.g.g.g.g.%.C C C C C C C n 8 2 2 7 7 7 7 7 7 7 7 7 7 7 7 7 7 7 7 7 7 7 m C C C C g.P.P.0.C C C C C C C C C C C C C C C C C C ",
"7 7 7 7 m q m m 7 7 7 7 7 7 7 7 7 7 8 n n %.8 7 2 m P.Y Y Y Y Y Y Y Y Y P q m m m m q m n n n n n n n n q n q n q n q 8 8 8 m C g.g.g.g.0.%.C P C C C C C C n 4 4 7 7 7 7 7 7 7 7 7 7 7 7 7 7 7 7 7 7 7 7 m C C C %.D.P.P.g.C C C C C C C C C C C C C C C C C C ",
"q 8 8 n C 8 7 7 7 7 7 7 7 7 7 7 7 7 7 7 m q 8 P m m D.Y Y Y Y Y Y Y Y Y Y q m m m m m m m m n n n n q n q 8 7 8 8 8 m 8 8 8 8 8 q 0.%.%.%.C C C C C C C C C 8 7 7 7 7 7 7 7 7 8 7 7 7 7 7 7 7 7 7 7 7 7 7 7 n C C 0.P.P.P.D.C C C C C C C C C C C C C C C C C C ",
"P P P P m 7 7 7 7 7 7 7 7 7 7 7 7 7 7 7 n 8 C Y Y m D.0.Y Y Y Y Y Y Y Y Y P m m m m m m m q n n n n %.%.0.0.%.0.0.0.0.P m 8 8 8 8 m m C C C C C C C C C C C 8 7 7 7 7 7 7 7 7 8 7 7 7 7 7 7 7 7 7 7 7 7 7 7 n C C e.P.P.P.D.%.C C C C C C C C C C C C C C C C C ",
"P P P C m 7 7 7 7 7 7 7 7 7 7 7 7 7 7 m 8 q Y Y Y C C 0.Y Y Y Y Y Y Y Y Y Y C m m m m m m n C %.0.g.g.D.D.D.D.D.D.D.D.D.C 8 8 8 8 8 8 m C C C C C C C C C C m m 8 7 7 7 7 7 7 7 7 7 7 7 7 7 7 7 7 7 7 7 7 7 n C C 0.P.P.P.P.0.C C C C C C C C C C C C C C C C C ",
"P P P P m 7 7 7 7 7 7 7 7 7 7 7 7 7 7 8 m Y Y Y Y Y P P Y Y Y Y Y Y Y Y Y Y Y n m m m m C %.g.D.D.D.g.g.D.D.D.D.D.D.D.D.D.C 8 8 8 8 8 8 m m 4 2 2 4 n C C C C C m 7 7 7 7 7 7 7 7 7 7 7 7 7 7 7 7 7 7 7 7 7 n C C %.P.P.P.P.D.%.C C C C C C C C C C C C C C C C ",
"P P P P q 7 7 7 7 7 7 7 7 7 7 7 7 7 8 C Y Y Y Y Y Y Y Y Y Y Y Y Y Y Y Y Y Y Y C m m %.0.D.D.D.D.D.D.D.D.D.D.D.D.D.D.D.D.D.g.C m 8 8 8 8 8 8 7 m n n C C C m m n C 8 7 7 7 7 7 7 7 7 7 7 7 7 7 7 7 7 7 7 7 7 n C C 0.P.P.P.P.P.%.C C C C C C C C C C C C C C C C ",
"P P P P P 8 7 7 7 7 7 7 7 7 7 7 7 8 C Y Y Y Y Y Y Y Y Y Y Y Y Y Y Y Y Y Y Y Y P m m 0.D.D.D.D.D.D.D.D.D.D.D.D.D.D.D.D.D.D.D.D.0.m 8 8 8 8 8 8 n P C C C C m 7 8 m n m 7 7 7 7 7 8 7 7 7 7 7 7 7 7 7 7 7 7 8 n C C %.D.P.P.P.P.0.C C / / C C C C C C C C C C C C ",
"P P P P P n 8 7 7 7 7 7 7 7 7 7 7 C Y Y Y Y Y Y Y Y Y Y Y Y Y Y Y Y Y Y Y Y Y Y n m C u.D.D.D.D.D.D.D.D.D.D.D.D.D.D.D.D.D.D.D.D.%.8 8 8 8 8 8 q C C C C C n 8 8 7 8 8 7 7 7 7 8 m 8 7 7 7 7 7 7 7 7 7 7 7 n C C C C 0.P.P.P.P.%.n > & ~ / C C C C C C C C C C C ",
"P P P P P P q 7 7 7 7 7 7 7 7 7 t Y Y Y Y Y Y Y Y Y Y Y Y Y Y Y Y Y Y Y Y Y Y Y C m m m %.g.D.D.D.D.D.D.D.D.D.D.D.D.D.D.D.D.D.D.C 8 m m m 8 8 m C C C C C C C C m 7 7 7 7 7 7 n n 8 7 7 7 7 7 7 7 7 7 8 n C C C C C %.P.P.P.P 7 ; o 1 1 ^ P C C C C C C C C C C ",
"P P P P P P P q 7 7 7 7 7 7 7 q Y Y Y Y Y Y Y Y Y Y Y Y Y Y Y Y Y Y Y Y Y Y Y Y P q m m q 0.D.D.D.D.D.D.D.D.D.D.D.D.D.D.D.D.D.D.C n C C C q 8 8 n C C C C C C C n 7 7 8 m 8 q C n 7 7 7 7 7 7 7 7 7 m C C C C C C C %.g.P.C 2 : X $ 1 1 / C C C C C C C C C C C ",
"P P P P P P P P m 7 7 7 7 7 m P Y Y Y Y Y Y Y Y Y Y Y Y Y Y Y Y Y Y Y Y Y Y Y Y Y q m m q C C 0.D.D.D.D.D.D.D.D.D.D.D.D.D.D.D.u.%.C C C C C C m q C P C P C C C n n n C C C C n 4 4 7 7 7 7 7 7 7 m C C C C C C C C C %.C 2 2 ; O 1 1 ~ C C C C C C C C C C C C ",
"P P P P P P P P P m 7 7 7 8 P Y Y Y Y Y Y Y Y Y Y Y Y Y Y Y Y Y Y Y Y Y Y Y Y Y C ; 4 m m m m 0.D.D.D.D.D.D.D.D.D.D.D.D.D.D.D.0.C C C C C C C C m C P P C C C C C C C C C C C 4 4 8 7 7 7 7 7 7 7 q C C C C C C C C C m 2 2 2 : 1 1 ~ / C C C C C C C C C C C C ",
"P P P P P P P P P C 7 7 7 q Y Y Y Y Y Y Y Y Y Y Y Y Y Y Y Y Y Y Y Y Y Y Y Y Y m 4 7 4 8 m m m g.D.D.D.D.D.D.D.D.D.D.D.D.D.D.u.C C C C C C C C C m n C C C C C C C C C C n n C C C C 8 7 7 7 7 7 8 C C C C C C C C C C n 8 8 4 4 Q ^ / C C C C C C C C C C C C C ",
"P P P P P P P P P P q m 4 C Y Y Y Y Y Y Y Y Y Y Y Y Y Y Y Y Y Y Y Y Y Y Y Y Y C P 0.q 4 m m m 0.D.D.D.D.D.D.D.D.D.D.D.D.D.D.0.C C C C C C C C C m q C C C C C C C C %.7 ; n C C C n m 7 7 7 7 7 n C C C C C C C C C C C C C q 7 C P C C C C C C C C C C C C C C ",
"P P P P P P P P P P %.q 4 P Y Y Y Y Y Y Y Y Y Y Y Y Y Y Y Y Y Y Y Y Y Y Y Y Y 0.T.T.0.4 7 m n 0.D.D.D.D.D.D.D.D.D.D.D.D.D.D.g.0.C C C C C C C C n m C C C C C C C %.8 ; 4 q C C n 7 8 8 7 7 7 7 q m n C C C C C C C C C C C C n C C C C C C C C C C C C C C C C ",
"P P P P P P P P P P P P P Y Y Y Y Y Y Y Y Y Y Y Y Y Y Y Y Y Y Y Y Y Y Y Y Y Y 0.R.Q.T.n , 8 q u.D.D.D.D.D.D.D.D.D.D.D.D.D.D.D.%.C C C C C C C C n 8 C C C C C C %.8 ; 8 7 7 8 8 7 7 7 7 7 7 7 7 7 7 n C C C C C C C C C C C C C C C C C C C C C C C C C C C C C ",
"P P P P P P P P P P C P Y Y Y Y Y Y Y Y Y Y Y Y Y Y Y Y Y Y Y Y Y Y Y Y Y Y Y 0.T.Q.R.0.4 : q g.D.D.D.D.D.D.D.D.D.D.D.D.D.D.D.%.C C C C C C C C C 8 n C C C C ( n ; 4 C 8 7 7 7 7 7 7 7 4 4 4 7 7 7 n C C C C C C C C C C C C C C C C C C C C C C C C C C C C C ",
"P P P P P P P P P P 7 C Y Y Y Y Y Y Y Y Y Y Y Y Y Y Y Y Y Y Y Y Y Y Y Y Y Y Y Y T.Q.W.e.m - m D.D.D.D.D.D.D.D.D.D.D.D.D.D.D.D.0.C C C C C C C C %.m m C C C C n 4 8 C C 8 7 7 7 7 7 7 4 , , : 4 7 7 n C C C C C C C C C C C n m n C C C C C C C C C C C C C C C ",
"P P P P P P P P Y m 7 Y Y Y Y Y Y Y 0.Y Y Y Y Y Y Y Y Y Y Y Y Y Y Y Y Y Y Y Y Y g.Q.W.0.C = 4 D.D.D.D.D.D.D.D.D.D.D.D.D.D.D.D.g.( C C C C C C C %.q 8 C C C n 4 7 C C C m 7 7 7 7 4 4 4 , , , 4 7 8 C C C C C C C C C C C C n 7 7 m n C C C C C C C C C C C C C ",
"P P P P P P P P P 2 t Y Y Y Y Y Y 0.T.T.A.Y Y Y Y Y Y Y Y Y Y Y Y Y Y Y Y Y Y Y 0.T.R.0.P 4 @ 0.D.D.D.D.D.D.D.D.D.D.D.D.D.D.D.g.( C C C C C C C %.C 7 n C n 2 4 C C C C q 7 7 7 4 , , , , , , 4 7 8 C C C C C C C C C C C C C m 7 7 7 8 m n C C C C C C C C C C ",
"P P P P P P P Y q ; P Y Y Y Y Y Y Y 0.I.R.T.e.Y Y Y Y Y Y Y Y Y Y Y Y Y Y Y Y Y Y D.T.0.P 8 + 4 D.D.D.D.D.D.D.D.D.D.D.D.D.D.D.g.%.C C C C C C C %.0.7 m m : 4 n C C C C n 7 7 4 , , , , , , , , 7 7 n C C C C C C C C C C C C q 7 7 7 7 7 7 8 n C C C C C C C C ",
"P P P P P P P Y m = C Y Y Y Y Y Y Y Y Y 0.D.D.Y Y Y Y Y Y Y Y Y Y Y Y Y Y Y Y Y Y 0.D.Y C n @ @ 0.D.D.D.D.D.D.D.D.D.D.D.D.D.D.D.%.C C C C C C C %.g.8 7 4 : n C C C C C n 7 7 4 , , , , , , , , 4 7 m C C C C C C C C C C C C q 7 7 7 7 7 7 7 8 n C C C C C C C ",
"P P P P P P P P 7 * q Y Y Y Y Y Y Y Y Y Y Y Y Y Y Y Y Y Y Y Y Y Y Y Y Y Y Y Y Y Y Y Y Y C n ; . 4 D.D.D.D.D.D.D.D.D.D.D.D.D.D.D.%.C C C C C C C %.D.m 7 7 m C C C C C C 8 7 7 4 , , , , , , , , 4 7 m C C C C C C C C C C C C C n n n n n n m m q n C C C C C C ",
"P P P P P P C m 8 4 q Y Y Y Y Y Y Y Y Y Y Y Y Y Y Y Y Y Y Y Y Y Y Y Y Y Y Y Y Y Y Y Y Y C n 4 . - 0.D.D.D.D.D.D.D.D.D.D.D.D.D.D.0.C C C C C C %.u.U.m 7 8 C C C C C C n 7 7 4 , , , , , , , , 4 7 7 n C C C C C C C C C C C C C C C C C C C C C C C C C C C C C ",
"P P P P P P m 8 8 8 q Y Y Y Y Y Y Y Y Y Y Y Y Y Y Y Y Y Y Y Y Y Y Y Y Y Y Y Y Y Y Y Y P n n 8 ; 7 ( 0.0.u.g.D.D.D.D.D.D.D.D.D.D.u.%.C C C C C %.T.T.m 7 n C C C C C C q 7 7 4 , , , , , , , , , 7 7 q C C C C C C C C C C C C C C C C C C C C C C C C C C C C C ",
"P P P P Y C 8 8 8 8 m Y Y Y Y Y Y Y Y Y Y Y Y Y Y Y Y Y Y Y Y Y Y Y Y Y Y Y Y Y P P P C n q q 4 m C C C %.%.%.g.D.D.D.D.D.D.D.D.g.%.C C C C C C U.T.m n C C C C C C C 8 7 7 4 , , , , , , , , , 4 7 m C C C C C C C C C C C C C C C C C C C C C C C C C C C C C ",
"P P P P P q 8 8 8 8 m P Y Y Y Y Y Y Y Y Y Y Y Y Y Y Y Y Y Y Y Y Y Y Y Y Y Y Y Y P P C n n q n 4 4 C C C C C C %.D.D.D.D.D.D.D.D.0.C C C C C %.%.g.T.m n C C C C C C C m 7 4 , , , , , , , , , , 4 7 8 C C C C C C C C C C C C C C C C C C C C C C C C C C C C C ",
"P P P P C m 8 8 8 8 8 C Y Y Y Y Y Y Y Y Y Y Y Y Y Y Y Y Y Y Y Y Y Y Y Y Y Y Y Y P P n n q n n 8 4 n C C C C C ( u.D.D.D.D.D.D.D.%.C C C 0.D.T.U.D.D.m n C C C C C C C m 4 , , , , , , , , , , 4 4 7 m C C C C C C C C C C C C C C C C C C C C C C C C C C C C C ",
"P P P P q 8 8 8 8 8 8 q Y Y Y Y Y Y Y Y Y Y Y Y Y Y Y Y Y Y Y Y Y Y Y Y Y Y Y Y P C n n n n n 8 4 8 ( C C C C C %.D.D.D.D.D.D.D.u.C C C g.T.T.T.T.g.m C C C C n m C n 8 4 , , , , , , , , , 4 4 7 8 n C C C C C C C C C C C C C C C C C C C C C C C C C C C C C ",
"P P P P m 8 8 8 8 8 8 m P Y Y Y Y Y Y Y Y Y Y Y Y Y Y Y Y Y Y Y Y Y Y Y Y Y P P P n n n n n n n 4 4 n C C C C C C g.D.D.D.D.D.D.u.C C C ( 0.U.T.T.0.m C C C n 8 7 n m 7 4 , , , , , , , , 4 8 m n C C C C C C C C C C C C C C C C C C C C C C C C C C C C C C C ",
"P P P P q 8 8 8 8 8 8 8 t Y Y Y Y Y Y Y Y Y Y Y Y Y Y Y Y Y Y Y Y Y Y Y Y Y Y P Y C n n n n n n 7 4 i C C C C C C 0.D.D.D.D.D.g.0.C C C C C %.g.T.C m C C C q 7 7 8 8 4 , , , , , , , , 4 m C C C C C C C C C C C C C C C C C C C C C C C C C C C C C C C C C C ",
"P P P P C 8 8 8 8 8 8 8 m Y Y Y Y Y Y Y Y Y Y Y Y Y Y Y Y Y Y Y Y Y Y Y Y Y Y P Y n n n q n q n 8 4 8 C C C C C C C 0.g.g.g.g.u.%.C C C C C C %.T.C q C C n 8 7 7 7 7 4 , , , , , , , 4 m C C C C C C C C C C C C C C C C C C C C C C C C C C C C C C C C C C C ",
"P P P P P m 8 8 8 8 8 8 8 C Y Y Y Y Y Y Y Y Y Y Y Y Y Y Y Y Y Y Y Y Y Y Y Y Y Y P n n n n n n n 8 4 4 n C C C C C C ( %.%.%.C 0.0.%.C C C C C %.U.m n C C m 7 7 7 7 7 7 4 4 , , , , 4 m C C C C C C C C C C C C C C C C C C C C C C C C C C C C C C C C C C C C ",
"P P P P P m 8 8 8 8 8 8 8 q Y Y Y Y Y Y Y Y Y Y Y Y Y Y Y Y Y Y Y Y Y Y Y Y Y P C n n n n q q q n 4 4 n C C C C C C C C C C C C %.0.%.C C C C %.0.8 n C n 8 7 7 7 7 7 7 7 7 4 4 : 4 n C C C C C C C C C C C C C C C C C C C C C C C C C C C C C C C C C C C C C ",
"P P P P P m 8 8 8 8 8 8 8 8 C Y Y Y Y Y Y Y Y Y Y Y Y Y Y Y Y Y Y Y Y Y Y Y P C n n n n n q n n n 7 4 m ( C C C C C C C C C C C C %.%.C C C C C 8 8 C C m 7 7 7 7 7 7 7 7 7 7 7 7 n C C C C C C C C C C C C C C C C C C C C C C C C C C C C C C C C C C C C C C ",
"P P P P P m 8 8 8 8 8 8 8 8 m P Y Y Y Y Y Y Y Y Y Y Y Y Y Y Y Y Y 0.0.Y Y Y Y P n n n n n q n q n 8 4 8 C C C C C C C C C C C C C C C C C C C m 7 8 C n 7 7 7 7 7 7 7 7 7 7 7 8 C C C C C C C C C C C C C C C C C C C C C C C C C C C C C C C C C C C C C C C C ",
"P P P P P q 8 8 8 8 8 8 8 8 8 t Y Y Y Y Y Y Y Y Y Y Y Y Y Y Y Y Y e.g.0.Y Y Y P n n n n n q q q n n 4 4 C C C C C C C C C C C C C C C C C C n 8 7 8 C m 7 7 7 7 7 7 7 7 7 7 8 n C C C C C C C C C C C C C C C C C C C C C C C C C C C C C C C C C C C C C C C C ",
"P P P P P C 8 8 8 8 8 8 8 8 8 7 C Y Y P P P Y Y Y Y Y Y Y Y Y Y 0.g.B.g.0.0.Y Y n q n n n n n n n n 4 : n C C C C C C C C C C C C C C C C C C n 8 7 n 8 7 7 7 7 7 7 7 7 7 8 n C C C C C C C C C C C C C C C C C C C C C C C C C C C C C C C C C C C C C C C C C ",
"P P P P P P C C m 8 8 8 8 8 8 4 4 8 m q q q P Y Y Y Y Y Y Y Y Y 0.B.B.B.B.g.0.Y P n n n n n q n n n 8 : n ( C C C C C C C C C C C C C C C C C C n n n 7 7 7 7 7 7 7 7 7 8 n C C C C C C C C C C C C C C C C C C C C C C C C C C C C C C C C C C C C C C C C C C ",
"P %.P P P P P Y P m 8 8 8 8 8 8 : 7 P Y Y Y Y Y Y Y Y Y Y Y Y Y 0.B.B.B.B.B.g.0.P C q q n n n n n n q 2 8 %.C C C C C C C C C C C C C C C C C C C C n 7 7 7 7 7 7 7 7 8 n C C C C C C C C C C C C C C C C C C C C C C C C C C C C C C C C C C C C C C C C C C C ",
"C n q C P P P P P %.C 8 8 8 8 8 4 4 P Y Y Y Y Y Y Y Y Y Y Y Y 0.g.B.B.B.B.B.B.g.0.P n q n n q q n n n 4 4 C C C C C C C C C C C C C C C C C C C C C n 7 7 7 7 7 7 7 7 n C C C C C C C C C C C C C C C C C C C C C C C C C C C C C C C C C C C C C C C C C C C C ",
"8 m 8 m %.P P P 0.U.T.%.m 8 8 8 8 4 m Y Y Y Y Y Y Y Y Y Y Y 0.g.B.B.B.B.B.B.B.B.g.Y C n q q n q n n n 4 ; m n n C C C C C C C C C C C C C C C C C C C m 7 7 7 7 7 7 q C C C C C C C C C C C C C C C C C C C C C C C C C C C C C C C C C C C C C C C C C C C C C ",
"8 8 8 q %.0.0.e.D.R.~.!.g.m 8 8 8 7 4 C Y Y Y Y Y Y Y Y 0.0.g.B.B.B.B.B.B.B.B.B.g.0.C n n q n n n n n 8 ; 4 C n C C C C C C C C C C C C C C C C C C C C m 7 7 7 m n C C C C C C C C C C C C C C C C C C C C C C C C C C C C C C C C C C C C C C C C C C C C C C ",
"8 8 n %.%.0.g.D.U.R.~.~.!.D.C m 8 8 4 4 C Y Y Y Y Y 0.g.g.B.B.B.B.B.B.B.B.B.B.B.B.g.%.n q q n n n n q 8 : 2 n C C C C C C C C C C C C C C C C C C C C C C n n n C C C C C C C C C C C C C C C C C C C C C C C C C C C C C C C C C C C C C C C C C C C C C C C C ",
"8 8 m m 8 m m g.U.T.~.~.~.!.T.C 8 8 8 4 4 C Y P m 8 e.B.B.B.B.B.B.B.U.B.B.B.B.B.B.B.0.n q q n n n n n n 4 ; q C C C C C C C C C C C C C C C C C C C C C C C C C C C C C C C C C C C C C C C C C C C C C C C C C C C C C C C C C C C C C C C C C C C C C C C C C ",
"8 8 8 8 8 8 m g.U.R.~.~.~.~.!.0.8 8 8 8 2 4 m 4 ; ; r.B.B.B.B.B.B.B.B.B.B.B.B.B.g.g.%.n n n n n n n n n 8 ; 8 C C C C C C C C C C C C C C C C C C C C C C C C C C C C C C C C C C C C C C C C C C C C C C C C C C C C C C C C C C C C C C C C C C C C C C C C C ",
"8 8 8 8 8 8 q D.U.R.~.~.~.~.~.T.8 8 8 8 8 : ; ; @ < E.B.B.B.B.B.B.B.B.B.B.B.B.B.B.B.r.n n n n n q n n n q : 4 C C C C C C C C C C C C C C C C C C C C C %.g.B.%.C m 8 C C C C C C C C C C C C C C C C C C C C C C C C C C C C C C C C C C C C C C C C C C C C C ",
"8 8 8 8 8 8 n U.U.R.~.~.~.~.~.!.0.8 8 8 m 7 ; @ # ) E.c.B.B.B.B.B.B.B.B.B.B.B.B.B.%.P n q n q q q n n n n 2 ; q C C C C C C C C C C C C C C C C C C C %.T.T.T.%.C m ; q %.C C C C C C C C C C C C C C C C C C C C C C C C C C C C C C C C C C C C C C C C C C C ",
"8 8 8 8 8 8 C U.U.T.~.~.~.~.~.~.!.g.m 8 8 m 4 @ ~ E.) B.B.B.B.B.B.B.B.B.B.B.B.B.g.n n n n n q q q n n n n 4 ; 7 %.C C C C C C C C C C C C C C C C C ( U.T.T.T.T.%.( 4 4 C C C C C C C C C C C C C C C C C C C C C C C C C C C C C C C C C C C C C C C C C C C C ",
"8 8 8 8 8 8 C U.U.T.~.~.~.~.~.~.~.!.D.C 8 8 8 4 4 / B.B.B.B.B.B.B.B.B.B.g.g.B.B.%.n n q q n n n n n n q n 7 ; 4 C C C C C C C C C C C C C C C C C C %.T.T.T.T.T.U.%.n 4 8 ( C C C C C C C C C C C C C C C C C C C C C C C C C C C C C C C C C C C C C C C C C C ",
"8 8 8 8 8 8 P U.U.R.~.~.~.~.~.~.~.~.R.D.%.m 8 8 7 8 C g.B.B.B.B.B.B.B.B.g.B.B.g.n n n n n q n q n n n n n 8 ; 4 %.C C C n n C C C C C C C C C C C C u.T.T.T.T.T.T.T.%.n n C C C C C C C C C C C C C C C C C C C C C C C C C C C C C C C C C C C C C C C C C C C ",
"8 8 8 8 8 8 %.U.U.R.~.~.~.~.~.~.~.~.!.T.U.g.C m m 8 8 m %.g.B.B.B.B.B.U.B.B.B.i.n n n n n n n n n n n G n n ; ; 8 n n n 4 m C C C C C C C C C C C C %.T.T.T.T.T.T.T.B.C n m m C C C C C C C n n C C C C C C C C C C C C C C C C C C C C C C C C C C C C C C C C ",
"8 8 8 8 8 m %.U.U.Q.~.~.~.~.~.~.~.~.!.T.U.U.U.u.q 8 8 8 8 n g.B.U.B.B.B.g.%.%.%.n n n n n n n q n q n ` %.n : ; ; ; : 2 7 m m n C C ( C n C C C C C %.T.T.T.T.T.T.T.T.%.n 8 7 8 n n C C C n 8 n C C C C C C C C C C C C C C C C C C C C C C C C C C C C C C C C ",
"8 8 8 8 8 8 %.U.U.R.~.~.~.~.~.~.~.~.~.R.U.U.U.U.u.m 8 8 8 8 m g.B.g.%.%.n n n n n n n n n n n q n q n %.%.%.4 ; ; ; 2 7 7 7 7 7 8 m n m 8 m n C C C r.T.T.T.T.T.T.T.T.%.C 8 7 7 7 7 8 m q 8 7 n C C C C C C C C C C C C C C C C C C C C C C C C C C C C C C C C ",
"8 8 8 8 8 8 n D.U.T.~.~.~.~.~.~.~.~.~.!.R.T.U.U.D.q m q m 8 8 m g.g.n n n n n n q n q q n n n n n q n ` %.%.8 ; 4 8 7 7 7 7 7 7 7 7 7 7 7 7 8 C C C g.T.T.T.T.T.T.T.T.%.C n 7 7 7 7 7 7 7 7 7 q C C C C C C C C C C C C C C C C C C C C C C C C C C C C C C C C ",
"8 8 8 8 8 8 8 u.U.T.!.~.~.~.~.~.~.~.~.~.~.T.U.U.U.C q g.0.C C m m %.n n q n q n n n n q q q n q n n n ` ` %.n 8 ` ` 8 7 7 7 7 7 7 7 7 7 7 7 7 n C C %.T.T.T.T.T.T.T.T.%.C n 7 7 7 7 7 7 7 7 7 m C C C C C C C C C C C C C C C C C C C C C C C C C C C C C C C C ",
"8 8 8 8 8 8 8 %.U.U.R.~.~.~.~.~.~.~.~.~.~.T.U.U.U.%.0.D.D.D.D.0.m m q n m m q n n n q q q q n n n q n ( %.%.%.%.%.%.8 7 7 7 7 7 7 7 7 7 7 7 7 m C C %.T.T.T.T.T.T.T.T.%.C C 8 7 7 7 7 7 7 7 7 n C C C C C C C C C C C C C C C %.%.C C C C C C C C C C C C C n 8 ",
"8 8 8 8 8 8 8 n D.U.R.~.~.~.~.~.~.~.~.~.!.T.U.U.U.D.D.D.D.D.D.D.C 8 8 8 8 m m m n n n n n n q n n q n ( %.%.%.%.%.%.8 7 7 7 7 7 7 7 7 7 7 7 7 8 n C C B.T.T.T.T.T.T.T.u.%.( q 7 7 7 7 7 7 7 8 n C C C C C C C C C C C C C C %.D.%.C C C C C C C C C C C C C n 7 ",
"8 8 8 8 8 8 8 8 %.U.T.!.~.~.~.~.~.~.~.~.R.U.U.U.U.D.D.D.D.D.D.D.u.m 8 8 8 7 7 7 m n n n n n n n n q n ` %.%.%.%.%.%.m 7 7 7 7 7 7 7 7 7 7 7 7 7 n C C u.T.T.T.T.T.T.T.T.%.C n 8 7 7 7 7 7 7 m C C C C C C C C C C C C C C %.D.D.%.C C C C C C C C C C n n n 8 7 ",
"8 8 8 8 8 8 8 8 n D.U.R.~.~.~.~.~.~.~.~.R.U.U.U.D.%.0.D.D.D.D.D.D.0.m 8 8 8 7 7 7 8 q n q n q n n n n ` %.%.%.n %.n 7 7 7 7 7 7 7 7 7 7 7 7 7 7 8 C C C g.T.T.T.T.T.T.%.C C C n 7 7 7 7 7 7 n n n C n C C C C C C C C C C g.T.g.C C C C C C C C C C C 8 7 7 7 7 ",
"8 8 8 8 8 8 8 8 8 C D.T.!.~.~.~.~.~.~.~.R.U.U.U.g.( %.D.D.D.D.D.D.D.0.m 8 8 7 8 7 7 7 m q q q n n n n n ` %.%.n m ` 8 7 7 7 7 7 7 7 7 7 7 7 7 7 7 n C C C g.T.T.T.T.g.C C C C C 8 7 7 7 7 m n 7 8 m 8 8 n n n C C C C C %.D.P.e.C C C C C C C C C C n 7 7 7 7 7 ",
"8 8 8 8 8 8 8 8 8 n D.U.R.~.~.~.~.~.~.~.R.U.U.g.%.( %.u.D.D.D.D.D.D.D.%.m 7 7 8 8 8 7 7 8 q q n n n n n ` %.%.n 8 n n 7 7 7 7 7 7 7 7 7 7 7 7 7 7 8 n C C C g.Z.T.g.%.C C C C C 8 7 7 7 m C m 7 7 7 7 7 7 7 7 m n C C C 0.P.P.%.C C C C C C C C C C 8 7 7 7 7 7 ",
"8 8 8 8 8 8 8 8 8 m g.U.T.!.~.~.~.~.~.R.T.U.U.u.C C C %.D.D.D.D.D.D.D.D.C 7 7 8 q q 8 7 7 7 8 n n n n n ` %.%.` 7 m %.8 7 7 7 7 7 7 7 7 7 7 7 7 7 7 n C C C C ( %.C C C C C C n 7 7 7 8 n n 7 7 7 7 7 7 7 7 7 7 7 m n C %.D.g.C C C C C C C C C C C 8 7 7 7 7 7 ",
"8 8 8 8 8 8 8 8 8 8 0.U.U.R.~.~.~.!.R.T.U.U.U.u.C C C %.u.D.D.D.D.D.D.D.u.8 7 m q q q 8 8 7 7 m m 8 n n %.%.%.%.8 7 n n 7 7 7 7 7 7 7 7 7 7 7 7 7 8 C C C C C C C C C C C C C m 7 7 7 m C m 7 7 7 7 7 7 7 7 7 7 7 7 n C C 0.%.C C C C C C C C C C C m 7 7 7 7 7 ",
"8 8 8 8 8 8 8 8 8 8 %.U.U.T.!.~.~.R.U.U.U.U.U.%.C C C C %.D.D.D.D.D.D.D.D.n 8 q q q q q 8 7 7 7 7 7 8 n n %.%.%.q 7 m %.8 7 7 7 7 7 7 7 7 7 7 7 7 7 n C C C C C C C C C C C m 7 7 7 7 7 m 7 7 7 7 7 7 7 7 7 7 7 7 7 n C C C C C C C C C C C C C C C n 8 7 7 7 7 ",
"8 8 8 8 8 8 8 8 8 8 C U.U.U.T.!.!.R.U.U.U.U.U.0.C C C C %.g.D.D.D.D.D.D.D.C 7 q q q q q q 8 8 7 7 7 7 7 7 m %.%.n 7 7 n n 7 7 7 7 7 7 7 7 7 7 7 7 7 m C C C C C C C C C C n 7 7 7 7 7 7 7 7 7 7 7 7 7 7 7 7 7 7 7 7 n C C C C C C C C C C C C C C C C 8 7 7 7 7 ",
"8 8 8 8 8 8 8 8 8 8 m g.U.U.U.T.T.T.U.U.U.U.U.0.%.%.%.C %.g.D.D.D.D.D.D.D.n 8 q q q q q q %.%.C m 7 7 7 7 7 8 m m 7 7 7 n n 7 7 7 7 7 7 7 7 7 7 7 8 8 n C C C C C C C C n 8 7 7 7 7 7 7 7 7 7 7 7 7 7 7 7 8 8 m 8 8 n C C C C C C C C C C C C C C C C n 7 7 7 7 ",
"8 8 8 8 8 8 8 8 8 8 m 0.U.U.U.U.U.U.U.U.U.U.U.g.%.( C C C g.D.D.D.D.D.D.D.m 8 q q q q q q %.r.r.%.m 7 7 7 7 7 7 7 7 7 7 8 ` n 7 7 7 7 7 7 7 7 7 7 7 m n C C C C C C C m 7 7 7 7 7 7 7 7 8 7 7 7 7 7 7 8 8 8 8 8 7 n C C C C C C C C C C C C C C C C C C n 8 q 7 ",
"8 8 8 8 8 8 8 8 8 8 8 n U.U.U.U.U.U.U.U.U.U.U.g.%.C C C C u.D.D.D.D.D.D.g.m m q q q q q q %.r.r.r.%.8 7 7 7 7 7 7 7 7 7 7 8 C m 7 7 7 7 7 7 7 7 7 7 7 n C C C C C n 8 7 8 m q n n q n n n n 8 7 7 7 q m 8 8 m 8 7 8 n C C C C C C C C C C C C C C C C C C C q 7 ",
"8 8 8 8 8 8 8 8 8 8 8 8 u.U.U.U.U.U.U.U.U.U.U.u.C C C C C 0.D.D.D.D.D.D.u.m q q q q q q n %.r.r.r.r.%.8 7 7 7 7 7 7 7 7 7 7 m n 8 7 7 7 7 7 7 7 7 7 7 8 n C n n 8 8 m q n n n n n n n n n n n 8 7 q %.n m 7 7 7 7 7 7 q C C C C C C C C C C C C C C C C C C m 7 ",
"8 8 8 8 8 8 8 8 8 8 8 8 C U.U.U.U.U.U.U.U.U.U.u.C C C C C %.D.D.D.D.D.D.0.m q q q q q q n r.r.r.r.r.r.%.m 7 7 7 7 7 7 7 7 7 7 m m 7 7 7 7 7 7 7 7 7 7 7 m m 8 7 8 n n n n n n n n n n n n n n q m %.r.n m 7 7 7 7 7 7 7 m C C C C C C C C C C C C C C C C C n 8 ",
"8 8 8 8 8 8 8 8 8 8 8 8 q D.U.U.U.U.U.U.U.U.U.g.C C C C C %.g.D.D.D.D.D.0.m q q q q q q n %.r.r.r.r.r.r.%.( n m 7 7 7 7 7 7 7 7 7 7 7 7 7 7 7 7 7 7 8 8 7 7 7 7 8 n n n n n n n n n n n n n n n n %.g.n m 7 7 7 7 7 7 7 7 n C C C C C C C C C C C C C C C C C n ",
"8 8 8 8 8 8 8 8 8 8 8 8 m D.U.U.U.U.U.U.U.U.U.u.C C C C C ( g.D.D.D.D.D.0.m q q q q q q n %.r.r.r.r.r.r.r.r.r.r.%.C m 7 7 7 7 7 7 7 7 7 7 7 7 7 7 m 8 7 7 7 7 7 8 n n n n n n n n n n n q n n n n n g.n n 7 7 7 7 7 7 7 7 n C C C C C C C C C C C C C C C C C C ",
"8 8 8 8 8 8 8 8 8 8 8 8 n D.U.U.U.U.U.U.U.U.U.g.C C C C C %.g.D.D.D.D.D.%.m q q q q q q q %.r.r.r.r.r.r.r.r.r.r.r.r.r.%.n 7 7 7 7 7 7 7 7 7 7 7 8 7 7 7 7 7 7 7 n n n n n n n q n n q n n n n q n n i.C n 7 7 7 7 7 7 7 7 m C C C C C C C C C C C C C C C C C C ",
"8 8 8 8 8 8 8 8 8 8 8 8 n U.U.U.U.U.U.U.U.U.U.g.%.C C C C %.D.D.D.D.D.D.C m q q q q q q q %.r.r.r.r.r.r.r.r.r.r.r.r.r.%.n 8 7 7 7 7 7 7 7 7 7 7 7 7 7 7 7 7 7 m n n n n n n n n n n n n n n n n n n %.%.n 8 7 7 8 m 8 7 7 m n n C C C C C C C C C C C C C C C C ",
"8 8 8 8 8 8 8 8 8 8 8 8 C U.U.U.U.U.U.U.U.U.U.D.%.C C C C 0.D.D.D.D.D.D.q m 8 m 8 8 q q q n %.r.r.r.r.r.r.r.r.r.r.r.r.%.m m m m m m 8 7 7 7 7 7 7 7 7 7 7 7 7 n n n n n n n n n n n n n n n n n n n n i.n n %.%.n m 7 7 7 7 7 8 C C C C C C C C C C C C C C C C ",
"8 8 8 8 8 8 8 8 8 8 8 8 m g.U.U.U.U.U.U.U.U.U.D.%.C C C C 0.D.D.D.D.D.u.8 7 7 7 7 7 8 8 q q n %.r.r.r.r.r.r.r.r.r.r.r.%.q m m m m m m 7 7 7 7 7 7 7 7 7 7 7 8 n n n n n n n q n n n n n n n q q n n n g.%.i.%.n 7 7 7 7 7 7 7 8 C C C C C C C C C C C C C C C C ",
"8 8 8 8 8 8 8 8 8 8 8 8 m g.U.U.U.U.U.U.U.U.U.g.%.C C C C 0.D.D.D.D.D.0.7 7 7 7 7 7 7 8 q q q %.r.r.r.r.r.r.r.r.r.r.r.r.C m m m m m 8 7 7 7 7 7 7 7 7 7 7 8 n n n n n n n n q n n n n n n n n n n n n %.%.n n n m 7 7 7 7 7 7 7 n C C C C C C C C C C C C C C C ",
"8 8 8 8 8 8 8 8 8 8 8 8 8 %.U.U.U.U.U.U.U.U.U.g.C C C C C u.D.D.D.D.D.C 7 7 7 7 7 7 7 8 q q q n %.r.r.r.r.r.r.r.r.r.r.r.%.q m m m m 7 7 7 7 7 7 7 7 7 7 m n n n n n n n n n n n n n n n n n n n n n n n n n n n q 7 7 7 7 7 7 7 n C C C C C C C C C C C C C C C ",
"8 8 8 8 8 8 8 8 8 8 8 8 8 i g.U.U.U.U.U.U.U.U.%.C C C C %.g.D.D.D.D.D.m 7 7 7 7 7 7 7 7 8 q q q %.r.r.r.r.r.r.r.r.r.r.r.%.n m m m 8 7 7 7 7 7 7 7 7 m q n n q n n n n n q q n n n n n n q n n n n n n n n n n n m 7 7 7 7 7 7 m C C C C C C C C C C C C C C C C ",
"8 8 8 8 8 8 8 8 8 8 8 8 8 8 u.U.U.U.U.U.U.U.U.0.C C C C C g.D.D.D.D.g.m 7 7 7 7 7 7 7 7 7 8 q n %.r.r.r.r.r.r.r.r.r.r.r.r.C m m m 7 7 7 7 7 7 7 7 m n n n n n n n n n n n n n n n n n n n n n n n n n n n n n n n 8 7 7 7 7 7 n C C C C C C C C C C C C C C C C "
};
