/* XPM */
static char *texture05[] = {
/* columns rows colors chars-per-pixel */
"128 128 245 2 ",
"   c #38281E",
".  c #2E2C27",
"X  c #342B23",
"o  c #3B2C25",
"O  c #372E28",
"+  c #3B332A",
"@  c #393429",
"#  c #3D3A31",
"$  c #422E23",
"%  c #453125",
"&  c #43352B",
"*  c #44392E",
"=  c #4C3B2C",
"-  c #4B3527",
";  c #533C2C",
":  c #563B28",
">  c #443D32",
",  c #4C3C31",
"<  c #523E32",
"1  c #402B1F",
"2  c #3C4137",
"3  c #57412E",
"4  c #4D4232",
"5  c #4A4538",
"6  c #544333",
"7  c #5B4435",
"8  c #5D4936",
"9  c #54453A",
"0  c #5D4539",
"q  c #554B3B",
"w  c #5C4B3C",
"e  c #534A37",
"r  c #5A543D",
"t  c #4E402F",
"y  c #634B36",
"u  c #6E4D34",
"i  c #65473A",
"p  c #644C3D",
"a  c #694D3D",
"s  c #644731",
"d  c #704F35",
"f  c #6A5337",
"g  c #65523C",
"h  c #6B543C",
"j  c #6B5A3B",
"k  c #74553A",
"l  c #745A3D",
"z  c #7D5C3D",
"x  c #755438",
"c  c #63452D",
"v  c #72623E",
"b  c #7B6A3F",
"n  c #5B4D41",
"m  c #564C44",
"M  c #4D5148",
"N  c #5E5344",
"B  c #5B5549",
"V  c #5B5A4C",
"C  c #575545",
"Z  c #5A5C53",
"A  c #4A4B41",
"S  c #634E42",
"D  c #694F41",
"F  c #635443",
"G  c #6B5343",
"H  c #655A45",
"J  c #6A5B44",
"K  c #6D5649",
"L  c #635D4A",
"P  c #6C5B4B",
"I  c #63554B",
"U  c #725542",
"Y  c #745B43",
"T  c #7A5D44",
"R  c #735B4B",
"E  c #765B4B",
"W  c #675C52",
"Q  c #775F52",
"!  c #5D645B",
"~  c #5F614B",
"^  c #6C644B",
"/  c #686349",
"(  c #756343",
")  c #7C6344",
"_  c #7A6D44",
"`  c #72644B",
"'  c #7B644C",
"]  c #756C4C",
"[  c #7A6D4C",
"{  c #766A43",
"}  c #7B7145",
"|  c #7C744A",
" . c #76724D",
".. c #646453",
"X. c #676A53",
"o. c #6B6B53",
"O. c #696E5C",
"+. c #66685A",
"@. c #7C6453",
"#. c #726D52",
"$. c #7C6B53",
"%. c #786758",
"&. c #6E735C",
"*. c #757153",
"=. c #7C7553",
"-. c #7A7B5D",
";. c #787659",
":. c #5F6960",
">. c #626A61",
",. c #696E65",
"<. c #7A7566",
"1. c #716D65",
"2. c #805D3E",
"3. c #82623D",
"4. c #81693E",
"5. c #825D41",
"6. c #836444",
"7. c #856C43",
"8. c #886E42",
"9. c #84664B",
"0. c #836B4B",
"q. c #8B6C4C",
"w. c #8A6547",
"e. c #916D4D",
"r. c #827246",
"t. c #8A7345",
"y. c #84744B",
"u. c #8A734C",
"i. c #847A4D",
"p. c #8B7C4D",
"a. c #94754D",
"s. c #927C4C",
"d. c #9B7C4D",
"f. c #98774E",
"g. c #846A54",
"h. c #836B5B",
"j. c #886B56",
"k. c #8B7253",
"l. c #847C53",
"z. c #8D7B52",
"x. c #857C5C",
"c. c #867659",
"v. c #967150",
"b. c #957C54",
"n. c #967958",
"m. c #A07F53",
"M. c #8B7363",
"N. c #877766",
"B. c #937564",
"V. c #957B6B",
"C. c #9B7C6C",
"Z. c #967C63",
"A. c #8E7A6E",
"S. c #798667",
"D. c #89814E",
"F. c #848154",
"G. c #8B8554",
"H. c #8C8A55",
"J. c #8A815B",
"K. c #88825C",
"L. c #958152",
"P. c #9B8352",
"I. c #95885A",
"U. c #939257",
"Y. c #95955A",
"T. c #96804F",
"R. c #A28255",
"E. c #A38458",
"W. c #A98A5B",
"Q. c #B1905D",
"!. c #8B8464",
"~. c #8B8669",
"^. c #978768",
"/. c #9B8473",
"(. c #998B75",
"). c #978777",
"_. c #9B9375",
"`. c #9C967B",
"'. c #93916F",
"]. c #A4986D",
"[. c #A28373",
"{. c #AB8C7B",
"}. c #A48B79",
"|. c #A6967A",
" X c #AF9167",
".X c #ABA579",
"XX c #B4A678",
"oX c #C0AE7E",
"OX c #9C8D83",
"+X c #9E9188",
"@X c #A89786",
"#X c #B39584",
"$X c #BA9C8B",
"%X c #B59A88",
"&X c #AC9E93",
"*X c #A69991",
"=X c #AE9A8D",
"-X c #A9A186",
";X c #BCA18E",
":X c #B6A98A",
">X c #AEA295",
",X c #B4A69B",
"<X c #B7A597",
"1X c #B8B391",
"2X c #BBADA2",
"3X c #B5A9A1",
"4X c #BEB1A6",
"5X c #BDB2A9",
"6X c #C1A593",
"7X c #C4A996",
"8X c #C5AD9A",
"9X c #C8AC99",
"0X c #C9B29E",
"qX c #C8B49B",
"wX c #C4B38A",
"eX c #CBB5A3",
"rX c #CDB9A6",
"tX c #C2B5AB",
"yX c #C5B9AE",
"uX c #CEBCAB",
"iX c #C3B7A4",
"pX c #D1BEAC",
"aX c #D0B8A5",
"sX c #C5BBB1",
"dX c #CABEB3",
"fX c #D2BFB0",
"gX c #D2C0AF",
"hX c #CDC1B6",
"jX c #CDC4BB",
"kX c #CFC9BE",
"lX c #D2C3B5",
"zX c #D2C7BB",
"xX c #D2C8BE",
"cX c #DBCDBD",
"vX c #CBC6AC",
"bX c #D2C399",
"nX c #D2CAC1",
"mX c #D8CFC6",
"MX c #DAD1C5",
"NX c #DCD3CB",
"BX c #D9D2C9",
"VX c #E4DBD4",
"CX c #E6DDD6",
"ZX c #E1D7CC",
"AX c #EBE2DB",
/* pixels */
"@.V.$.R K K S S p p i 0 0 0 0 0 0 0 G < o 9 n N N N F H H L ^ ^ ^ ] [ [ [ [ [ =.c.F o 9 K g p p y y y y y y f f l z 4.4.4.7.8.8.t.t.t.t.t.t.7.( : % y.g.6 f v v _ _ } | i.i.i.l.F.F.F.F.F.F.l.i.i.| =.w ; y y y y y i a a G G G Y Y Y Y Y Y Y G G S w w w w ` h.",
"' @.' R K F S S p p 0 0 i 0 0 i 0 0 K * o 9 n n w N N F H H / ^ ^ ^ ] ] [ [ ] =.c.N + q P p y y y y y y y y y f f l 4.4.4.8.8.8.t.t.t.t.t.t.4.) 3 7 I.I.g 6 j _ _ _ } | i.i.i.i.F.F.F.F.F.l.i.i.i.| =.w 3 y y y p y y p a h G G G G U Y Y U G G F w w w w w @.h.",
"' ' R R K S S S p i , 7 0 0 0 0 0 p K & o I F n n n N N F H H / ^ ^ ^ ] ] ] ] c.$.w + n P y y y y y y y y y f f f l b 4.4.7.8.8.t.t.t.t.t.8.b 0.7 f L.t.v 3 g _ _ _ _ } | i.i.i.i.i.i.i.i.i.l.J.| | l.q t y p ' $.p y y a h G G G G G K G G G G S p w w w w $.h.",
"' ' R P K S S S S 0 & 7 i 0 0 i i G K & o F F n n n w N N F H L ^ ^ ^ ^ ] ] [ c.$.w & P R y y y y y y y y f f f f h b 4.4.4.8.8.8.8.8.8.t.7.7.0.; y z.t.{ g y _ _ _ _ _ } | | | | | | | | y.| | ] ] (.w ; f J @.p y y y p a a a G G G G G G F S S S w w w w @.@.",
"' R P P K F S S S S I 0 i i i p D R G o + w n n n n n N N N H H L ^ ^ ^ ^ ] [ c.` q * h.K y y y y y y y y f f f ) ) b 4.4.4.8.8.8.8.8.8.t.7.7.y % 7 u.r.v j g _ _ _ _ _ _ } } } | [ ] ] ] ] ] ] ^ ^ %., ; h h p y y y y y a a a h G G S S S S S S p w w w w $.@.",
"' R R K K K S S I I P S p p S G R A.S o + N F n n n n w N N H H L ^ ^ ^ ^ ^ ] =.H 9 & ` G y y y y y y y y f f f I.].L.4.4.4.4.4.4.4.7.7.4.z y - $ = 0._ j g y g j j j / ` ` ` / / / / J H H N N r q 4 & ; h h p y y y y y a a a S S S S S S S S S w w 0 9 9 %.@.",
"K K K F G F S S F I S w 0 w p G K P * X o q I N w w w n N N F L ^ ^ ^ ^ ^ ^ ^ ^ N * X & , < 6 6 6 3 ; ; ; ; ; ; y h f y y s 3 ; = = : = - % $ o   X ; 6 = & & * & & & & * * * * * * * * & & * * & & + o = 7 8 8 8 8 8 8 8 y i S S S S S S n w w 0 6 , , , > n P ",
"o o o o o o o o o o o o o o o o o o o & , n I I q 5 > > > 4 5 e r H / ^ / / H w , o o o o + & % % $ $ % $ % % $ $ $ % % % - - - - = ; < = ; = = , < , < < < 6 6 = * * & & & & & & & * * * * * , , , * & & & * , , & & & + & & * , , , , , , * * & & + o X X X X ",
"W W W B m m m m m m m m m 9 9 N W %.<.).+X@X).<.%.W B 9 > > > # + + 9 N w 9 , , , , < < < < < < < < < < < 7 7 7 0 0 i p S D G G G K K K R K K K K G S p p p p p p i i p p S F G G G G F w w w w n w w w 9 9 9 0 9 < , , , , , 9 n n S I K P Q %.%.<.N.N.N.<.1.%.",
"&X*X*X+X+XOX).).A.A.A.A.).).OX*X*X,XyXjXjXdX5X*X).A.N.<.+.I B m m 9 I W S m m 0 0 0 0 S D G G G K K K G G K R R R Q Q @.@.@.@.h.h.h.h.M.M.M.M.h.@.@.R R R R R R K K R R R E E @.@.@.h.h.@.R P P P K P P P Q @.%.%.%.@.@.%.%.%.%.N.N.A.A.A.).@X*X&X,X5XtXtX4X2X,X",
"dXsXsXtX5X3X>X&X&X&X&X,X3X3X5XsXjXnXnXnXnXjXdXtX,X*XOXOX).N.%.I m 1.@XC.h.Q R K R R Q h.h.M.M.B.B.V.V.V.V.V.B.V.V.V.C.C.C././.[.}.}.}.}.(.(.).V.N.M.h.h.h.h.@.@.@.@.Q R R R Q @.@.h.M.M.M.h.h.$.$.$.h.$.h.h.N.A.A./.).OX@X@XOXOX@X=X&X&X>X,X,X2X4XyXjXnXnXnXjXhX",
"jXjXjXjXjXjXjXjXdXdXjXjXjXjXnXnXnXnXnXnXnXnXjXdXyX4X,XOX).N.W I OX3XOX/.B.h.g.@.h.h.M.V.[.}.{.{.{.#X#X#X#X#X#X#X#X%X%X$X$X;X;X$X$X=X@X@X(.(.(.).(.(.}.(.)./.V.A.N.M.h.h.h.h.h.h.h.M.N.N.N.N.N.N.A.V./.).).).).).@X&X>X,X,X,X>X>X>X,X,X,X2XtXsXdXjXxXnXnXnXnXnXzX",
"jXjXjXjXjXjXjXjXjXjXjXjXjXnXnXnXnXnXnXnXnXnXnXnXjXdX5X&XOX%.+.&XdX&XOX).C.B.M.M.B.V./.#X$X$X$X$X$X$X$X;X;X;X;X6X6X7X7X8X8X8X8X7X6X;X$X%X@X@X=X=X<X,X>X>X>X>X&X=X@X(.).).).)././.A.V././././././.).OX@X@X@X@X&X,X2XtXyXtXtXsXyXtXyXsXdXdXhXjXjXxXnXnXnXnXnXnXnXnX",
"nXjXjXjXnXnXnXnXnXnXnXnXnXnXnXnXnXnXnXnXnXnXnXnXnXjXdXsX&X).4XyX2X,X>X@X).V.C.C.[.}.@X$X7X7X8X8X6X;X7X7X8X0X8X8XeXeXrXrXrXrXrXrXrXrXuXuXuXuXuXdXdXyXtX2X,X,X,X,X,X>X=X=X=X=X=X=X=X@X@X@XOX`.`.OXOX@X=X&X>X,X2XtXsXhXjXjXjXzXzXjXjXzXzXzXxXnXnXnXnXnXnXnXnXnXnXnX",
"nXnXnXnXnXnXnXnXnXnXnXnXnXnXnXnXnXnXnXnXnXnXnXnXnXnXnXjXsXjXdXsXsXtX2X>X@XOX#X@X#X#X%X;X7X8X0XeXeX8X8X0XeXeXrXrXpXpXpXpXpXpXpXpXlXlXlXlXlXlXlXlXlXlXdXyXtX4X4X4X4X2X2X,X,X,X,X,X,X,X,X,X>X&X&X=X&X>X,X,X,X4XyXdXjXzXzXxXzXzXxXnXnXxXxXnXnXnXnXnXnXnXnXnXnXnXnXnX",
"nXnXnXnXnXnXnXnXnXnXnXnXnXnXnXnXnXnXnXnXnXnXnXnXnXnXnXnXjXjXzXjXjXyX2X>X>X&X=X&X;X6X6X6X7X0XeXrXrXrXrXrXrXrXpXpXpXpXpXpXpXpXgXlXlXlXlXlXlXlXlXlXlXlXlXlXlXdXyXyXsXyXtX4X4X4X4X4X2X2X2X2X,X2X2X,X2X2X2X4XtXdXjXzXzXzXzXxXxXzXmXNXBXnXnXnXnXnXnXnXnXnXnXnXnXnXnXnX",
"nXnXnXnXnXnXnXnXnXnXnXnXnXnXnXnXNXNXmXnXnXnXnXnXnXnXnXnXxXzXzXzXhXsXtX4X2X,X2XeXeX0X8X8X0XeXrXpXlXpXpXpXpXrXpXpXpXlXgXgXlXlXlXlXlXlXlXlXlXlXlXlXlXzXlXlXlXlXlXlXlXhXhXdXyXyXyXyXtXtX4X4XtXtXtXtXtXyXyXdXhXjXzXzXzXxXxXnXnXnXNXVXmXnXnXnXnXnXnXnXnXnXnXnXnXnXnXnX",
"nXnXnXnXnXnXnXnXnXnXnXnXnXnXnXNXCXVXmXnXnXnXnXnXnXnXnXnXnXxXxXzXhXhXsXsXsXdXdXdXuXeXeXeXeXrXgXlXlXlXlXlXlXlXlXlXlXlXlXlXlXlXlXlXlXlXzXzXzXzXxXxXxXxXzXzXzXzXzXzXzXlXlXlXhXhXdXdXsXyXyXyXsXdXdXdXdXdXhXjXzXzXzXzXxXnXnXnXnXnXnXnXnXnXnXnXnXnXnXnXnXnXnXnXnXnXnXnX",
"nXnXnXnXnXnXnXnXnXnXnXnXnXnXnXNXNXmXnXnXnXnXnXnXnXnXnXnXnXnXnXzXzXhXhXhXhXhXhXhXdXrXeXeXrXlXlXlXlXlXlXlXlXlXlXlXlXlXlXlXlXlXlXlXzXzXzXxXxXnXnXnXnXnXnXnXxXzXzXzXzXzXzXzXzXzXjXjXhXhXhXhXjXjXjXjXjXjXzXzXxXxXnXnXnXnXnXmXNXnXnXnXnXnXnXnXnXnXnXnXnXnXnXnXnXnXnXnX",
"nXnXnXnXnXnXnXnXnXnXnXnXnXnXnXnXnXnXnXnXnXnXnXnXnXnXnXnXnXnXnXxXzXzXzXzXzXlXhXhXdXuXuXrXrXlXlXlXlXlXzXzXzXzXlXlXlXlXlXlXlXzXxXxXxXnXnXnXnXnXnXnXnXnXnXnXnXnXnXxXzXzXzXzXzXzXxXzXzXzXzXzXzXzXzXzXxXzXxXxXnXnXnXnXnXnXnXNXNXnXnXnXnXnXnXnXnXnXnXnXnXnXnXnXnXnXnXnX",
"nXnXnXnXnXnXnXnXnXnXnXnXnXnXnXnXnXnXnXnXnXnXnXnXnXnXnXnXnXnXnXxXxXxXxXzXzXzXhXhXhXdXdXdXlXlXlXzXzXzXzXxXnXnXxXxXzXlXzXzXzXnXnXnXnXnXnXnXnXnXnXnXnXnXnXnXnXnXnXnXxXzXzXzXzXxXnXnXnXxXxXnXxXxXxXxXnXnXnXnXnXnXnXnXnXnXnXnXnXnXnXnXnXnXnXnXnXnXnXnXnXnXnXnXnXnXnXnX",
"nXnXnXnXnXnXnXnXnXnXnXnXnXnXnXnXnXnXnXnXnXnXnXnXnXnXnXnXnXnXnXnXnXnXnXxXzXzXjXhXhXhXhXzXzXzXzXzXzXxXnXnXnXnXnXnXnXnXxXnXnXnXnXnXnXnXnXnXnXnXnXnXnXnXnXnXnXnXnXnXnXxXxXxXnXnXnXnXnXnXnXnXnXnXnXnXnXnXnXnXnXnXnXnXnXnXnXnXnXnXnXnXnXnXnXnXnXnXnXnXnXnXnXnXnXnXnXnX",
"nXnXnXnXnXnXnXnXnXnXnXnXnXnXnXnXnXnXnXnXnXnXnXnXnXnXnXnXnXnXnXnXnXnXnXnXxXzXzXzXzXjXzXzXzXzXzXzXxXnXnXnXnXnXnXnXnXnXnXnXnXnXnXnXnXnXnXnXnXnXnXnXnXnXnXnXnXnXnXnXnXnXnXnXnXnXnXnXnXnXnXnXnXnXnXnXnXnXnXnXnXnXnXnXnXnXnXnXnXnXnXnXnXnXnXnXnXnXnXnXnXnXnXnXnXnXnXnX",
"nXnXmXnXnXnXnXnXnXnXnXnXnXnXnXnXnXnXnXnXnXnXnXnXnXnXnXnXnXnXnXnXnXnXnXnXnXzXxXzXzXzXzXzXxXzXzXxXnXnXnXnXnXnXnXnXnXnXnXnXnXnXnXnXnXnXnXnXnXnXnXnXnXnXnXnXnXnXnXnXnXnXnXnXnXnXnXnXnXnXnXnXnXnXnXnXnXnXnXnXnXnXnXnXnXnXnXnXnXnXnXnXnXnXnXnXnXnXnXnXnXnXnXnXnXnXnXnX",
"nXmXNXnXnXnXnXnXnXnXnXnXnXnXnXnXnXnXnXnXnXnXnXnXnXnXnXnXnXnXnXnXnXnXnXnXnXxXnXxXxXxXxXxXnXnXnXnXnXnXnXnXnXnXnXnXnXnXnXnXnXnXnXnXnXnXnXnXnXnXnXnXnXnXnXnXnXnXnXnXnXnXnXnXnXnXnXnXnXnXnXnXnXnXnXnXnXnXnXnXnXnXnXnXnXnXnXnXnXnXnXnXnXnXnXnXnXnXnXnXnXnXnXnXnXnXnXnX",
"nXnXnXnXnXnXnXnXnXnXnXnXnXnXnXnXnXnXnXnXnXnXnXnXnXnXnXnXnXnXnXnXnXnXnXnXnXnXnXnXnXnXnXnXnXnXnXnXnXnXnXnXnXnXnXnXnXnXnXnXnXnXnXnXnXnXnXnXnXnXnXnXnXnXnXnXnXnXnXnXnXnXnXnXnXnXnXnXnXnXnXnXnXnXnXnXnXnXnXnXnXnXnXnXnXnXnXnXnXnXnXnXnXnXnXnXnXnXnXnXnXnXnXnXnXnXnXnX",
"nXnXnXnXnXnXnXnXnXnXnXnXnXnXnXnXnXnXnXnXnXnXnXnXnXnXnXnXnXnXnXnXnXnXnXnXnXnXnXnXnXnXnXnXnXnXnXnXnXnXnXnXnXnXnXnXnXnXnXnXnXnXnXnXnXnXnXnXnXnXnXnXnXnXnXnXnXnXnXnXnXnXnXnXnXnXnXnXnXnXnXnXnXnXnXnXnXnXnXnXnXnXnXnXnXnXnXnXnXnXnXnXnXnXnXnXnXnXnXnXnXnXnXnXnXnXnXnX",
"nXnXnXnXnXnXnXnXnXnXnXnXnXnXnXnXnXnXnXnXnXnXnXnXnXnXnXnXnXnXnXnXnXnXnXnXnXnXnXnXnXnXnXnXnXnXnXnXnXnXnXnXnXnXnXnXnXnXnXnXnXnXnXnXnXnXnXnXnXnXnXnXnXnXnXnXnXnXnXnXnXnXnXnXnXnXnXnXnXnXnXnXnXnXnXnXnXnXnXnXnXnXnXnXnXnXnXnXnXnXnXnXnXnXnXnXnXnXnXnXnXnXnXnXnXnXnXnX",
"xXnXnXnXnXnXnXnXnXnXnXnXnXnXnXnXnXnXnXnXnXnXnXnXnXnXnXnXnXnXnXnXnXnXnXnXnXnXnXnXnXnXnXnXnXnXnXnXnXnXnXnXnXnXnXnXnXnXnXnXnXnXnXnXnXnXnXnXnXnXnXnXnXnXnXnXnXnXnXnXnXnXnXnXnXnXnXnXnXnXnXnXnXnXnXnXnXnXnXnXnXnXnXnXnXnXnXnXnXnXnXnXnXnXnXnXnXnXnXnXnXnXnXnXnXnXnXnX",
"xXxXnXnXnXnXnXmXNXnXnXnXnXnXnXnXnXnXnXnXnXnXnXnXnXnXnXnXnXnXnXnXnXnXnXnXnXnXnXnXnXnXnXnXnXnXnXnXnXnXnXnXnXnXnXnXnXnXnXnXnXnXnXnXnXnXnXnXnXnXnXnXnXnXnXnXnXnXnXnXnXnXnXnXnXnXnXnXnXnXnXnXnXnXnXnXnXnXnXnXnXnXnXnXnXnXnXnXnXnXnXnXnXnXnXnXnXnXnXnXnXnXnXnXnXnXnXnX",
"xXxXxXxXnXnXnXmXmXnXnXnXnXnXnXnXnXnXnXnXnXnXnXnXnXnXnXnXnXnXnXnXnXnXnXnXnXnXnXnXnXnXnXnXnXnXnXnXnXnXnXnXnXnXnXnXnXnXnXnXnXnXnXnXnXnXnXnXnXnXnXnXnXnXnXnXnXnXnXnXnXnXnXnXnXnXnXnXnXnXnXnXnXnXnXnXnXnXnXnXnXnXnXnXnXnXnXnXnXnXnXnXnXnXnXnXnXnXnXnXnXnXnXnXnXnXnXnX",
"xXxXxXxXxXxXxXxXxXnXnXnXnXnXnXnXnXnXnXnXnXnXnXnXnXnXnXnXnXnXnXnXnXnXnXnXnXnXnXnXnXnXnXnXnXnXnXnXnXnXnXnXnXnXnXnXnXnXnXnXnXnXnXnXnXnXmXVXmXnXnXnXnXnXnXnXnXnXnXnXnXnXnXnXnXnXnXnXnXnXnXnXnXnXnXnXnXnXnXnXnXnXnXnXnXnXnXnXnXnXnXnXnXnXnXnXnXnXnXnXnXnXnXnXnXnXnXnX",
"xXxXxXxXxXxXxXxXxXnXnXnXnXnXnXnXnXnXnXnXnXnXnXnXnXnXnXnXnXnXnXnXnXnXnXnXnXnXnXnXnXnXnXnXnXnXnXnXnXnXnXnXnXnXnXnXnXnXnXnXnXnXnXnXnXnXnXNXmXnXnXnXnXnXnXnXnXnXnXnXnXnXnXnXnXnXnXnXnXnXnXnXnXnXnXnXnXnXnXnXnXnXnXnXnXnXnXnXnXnXnXnXnXnXnXnXnXnXnXnXnXnXnXnXnXnXnXnX",
"xXxXxXxXxXxXnXnXnXnXnXnXnXnXnXnXnXnXnXnXnXnXnXnXnXnXnXnXnXnXnXnXnXnXnXnXnXnXnXnXnXnXnXnXnXnXnXnXnXnXnXnXnXnXnXnXnXnXnXnXnXnXnXnXnXnXnXnXnXnXnXnXnXnXnXnXnXnXnXnXnXnXnXnXnXnXnXnXnXnXnXnXnXnXnXnXnXnXnXnXnXnXnXnXnXnXnXnXnXnXnXnXnXnXnXnXnXnXnXnXnXnXnXnXnXnXnXnX",
"xXxXxXnXxXxXnXnXnXnXnXnXnXnXnXnXnXnXnXnXnXnXnXnXnXnXnXnXnXnXnXnXnXnXnXnXnXnXnXnXnXnXnXnXnXnXnXnXnXnXnXnXnXnXnXnXnXnXnXnXnXnXnXnXnXnXnXnXnXnXnXnXnXnXnXnXnXnXnXnXnXnXnXnXnXnXnXnXnXnXnXnXnXnXnXnXnXnXnXnXnXnXnXnXnXnXnXnXnXnXnXnXnXnXnXnXnXnXnXnXnXnXnXnXnXnXnXnX",
"xXxXxXxXxXxXxXxXxXxXxXnXnXnXnXnXnXnXnXnXnXnXnXnXnXnXnXnXnXnXnXnXnXnXnXnXnXnXnXnXnXnXnXnXnXnXnXnXnXnXnXnXnXnXnXnXnXnXnXnXnXnXnXnXnXnXnXnXnXnXnXnXnXnXnXnXnXnXnXnXnXnXnXnXnXnXnXnXnXnXnXnXnXnXnXnXnXnXnXnXnXnXnXnXnXnXnXnXnXnXnXnXnXnXnXnXnXnXnXnXnXnXnXnXnXnXnXnX",
"xXxXxXxXxXnXxXxXxXxXxXnXnXnXxXxXnXnXnXnXnXnXnXnXnXnXnXnXnXnXnXnXnXnXnXnXnXnXnXnXnXnXnXnXnXnXnXnXnXnXnXnXnXnXnXnXnXnXnXnXnXnXnXnXnXnXnXnXnXnXnXnXnXnXnXnXnXnXnXnXnXnXnXnXnXnXnXnXnXnXnXnXnXnXnXnXnXnXnXnXnXnXnXnXnXnXnXnXnXnXnXnXnXnXnXnXnXnXnXnXnXnXnXnXnXnXnXnX",
"xXxXxXkXxXxXxXxXxXnXnXnXnXnXxXxXnXnXnXnXnXnXnXnXnXnXnXnXnXnXnXnXnXnXnXnXnXnXnXnXnXnXnXnXnXnXnXnXnXnXnXnXnXnXnXnXnXnXnXnXnXnXnXnXnXnXnXnXnXnXnXnXnXnXnXnXnXnXnXnXmXNXmXnXnXnXnXnXnXnXnXnXNXnXnXnXnXnXnXnXnXnXnXnXnXnXnXnXnXnXnXnXnXnXnXnXnXnXnXnXnXnXnXnXnXnXnXnX",
"xXxXxXxXxXxXxXxXxXxXxXxXxXnXxXxXxXxXnXnXnXnXnXnXnXnXnXnXnXnXnXnXnXnXnXnXnXnXnXnXnXnXnXnXnXnXnXnXnXnXnXnXnXnXnXnXnXnXnXnXnXnXnXnXnXnXnXnXnXnXnXnXnXnXnXnXnXnXnXnXnXmXnXnXnXnXnXnXnXnXnXNXVXmXnXnXnXnXnXnXnXnXnXnXnXnXnXnXnXnXnXnXnXnXnXnXnXnXnXnXnXnXnXnXnXnXnXnX",
"xXxXxXxXxXxXxXxXxXxXxXnXnXxXnXnXnXxXxXnXnXnXnXnXnXnXnXnXnXnXnXnXnXnXnXnXnXnXnXnXnXnXnXnXnXnXnXnXnXnXnXnXnXnXnXnXnXnXnXnXnXnXnXnXnXnXnXnXnXnXnXnXnXnXnXnXnXnXnXnXnXnXnXnXnXnXnXnXnXnXnXNXmXnXnXnXnXnXnXnXnXnXnXnXnXnXnXnXnXnXnXnXnXnXnXnXnXnXnXnXnXnXnXnXnXnXnXnX",
"xXxXxXxXxXxXxXxXxXnXnXnXnXnXnXnXnXnXnXnXnXnXnXnXnXnXnXnXnXnXnXnXnXnXnXnXnXnXnXnXnXnXnXnXnXnXnXnXnXnXnXnXnXnXnXnXnXnXnXnXnXnXnXnXnXnXnXnXnXnXnXnXnXnXnXnXnXnXnXmXNXNXmXnXnXnXnXnXnXnXnXnXnXnXnXnXnXnXnXnXnXnXnXnXnXnXnXnXnXnXnXnXnXnXnXnXnXnXnXnXnXnXnXnXnXnXnXnX",
"xXxXxXxXxXxXxXxXxXnXnXnXnXnXnXnXnXnXnXnXnXnXnXnXnXnXnXnXnXnXnXnXnXnXnXnXnXnXnXnXnXnXnXnXnXnXnXnXnXnXnXnXnXnXnXnXnXnXnXnXnXnXnXnXnXnXnXnXnXnXnXnXnXnXnXnXnXnXnXBXNXNXnXnXnXnXnXnXnXnXnXnXnXnXnXnXnXnXnXnXnXnXnXnXnXnXnXnXnXnXnXnXnXnXnXnXnXnXnXnXnXnXnXnXnXnXnXnX",
"xXxXnXxXxXnXnXkXxXxXxXxXnXxXnXnXnXnXnXnXnXnXnXnXnXnXnXnXnXnXnXnXnXnXnXnXnXnXnXnXnXnXnXnXnXnXnXnXnXnXnXnXnXnXnXnXnXnXnXnXnXnXnXnXnXnXnXnXnXnXnXnXnXnXnXnXnXnXnXnXnXnXnXnXnXnXnXnXnXnXnXnXnXnXnXnXnXnXnXnXnXnXnXnXnXnXnXnXnXnXnXnXnXnXnXnXnXnXnXnXnXnXnXnXnXnXnXnX",
"xXxXkXxXnXxXxXxXxXxXnXxXxXxXxXnXnXnXnXnXnXnXnXnXnXnXnXnXnXnXnXnXnXnXnXnXnXnXnXnXnXnXnXnXnXnXnXnXnXnXnXnXnXnXnXnXnXnXnXnXnXnXnXnXnXnXnXnXnXnXnXnXnXnXnXnXnXnXnXnXnXnXnXnXnXnXnXnXnXnXnXnXnXnXnXnXnXnXnXnXnXnXnXnXnXnXnXnXnXnXnXnXnXnXnXnXnXnXnXnXnXnXnXnXnXnXnXnX",
"xXnXxXxXkXxXxXxXxXxXxXxXxXxXxXnXnXnXnXnXnXnXnXnXnXnXnXnXnXnXnXnXnXnXnXnXnXnXnXnXnXnXnXnXnXnXnXnXnXnXnXnXnXnXnXnXnXnXnXnXnXnXnXnXnXnXnXnXnXnXnXnXnXnXnXnXnXnXnXnXnXnXnXnXnXnXnXnXnXnXnXnXnXnXnXnXnXnXnXnXnXnXnXnXnXnXnXnXnXnXnXnXnXnXnXnXnXnXnXnXnXnXnXnXnXnXnXnX",
"xXxXxXxXxXnXxXxXxXxXxXxXxXxXxXnXnXnXmXnXnXnXnXnXnXnXnXnXnXnXnXnXnXnXnXnXnXnXnXnXnXnXnXnXnXnXnXnXnXnXnXnXnXnXnXnXnXnXnXnXnXnXnXnXnXnXnXnXnXnXnXnXnXnXnXnXnXnXnXnXnXnXnXnXnXnXnXnXnXnXnXnXnXnXnXnXnXnXnXnXnXnXnXnXnXnXnXnXnXnXnXnXnXnXnXnXnXnXnXnXnXnXnXnXnXnXnXnX",
"xXxXxXxXxXnXnXxXxXnXnXnXnXxXnXnXnXNXNXnXnXnXnXnXnXnXnXnXnXnXnXnXnXnXnXnXnXnXnXnXnXnXnXnXnXnXnXnXnXnXnXnXnXnXnXnXnXnXnXnXnXnXnXnXnXnXnXnXnXnXnXnXnXnXnXnXnXnXnXnXnXnXnXnXnXnXnXnXnXnXnXnXnXnXnXnXnXnXnXnXnXnXnXnXnXnXnXnXnXnXnXnXnXnXnXnXnXnXnXnXnXnXnXnXnXnXnXnX",
"xXxXxXxXnXnXnXnXnXnXnXnXnXnXnXnXnXmXnXnXnXnXnXnXnXnXnXnXnXnXnXnXnXnXnXnXnXnXnXnXnXnXnXnXnXnXnXnXnXnXnXnXnXnXnXnXnXnXnXnXnXnXnXnXnXnXnXnXnXBXnXnXnXnXnXnXnXnXnXnXnXnXnXnXnXnXnXnXnXnXnXnXnXnXnXnXnXnXnXnXnXnXnXnXnXnXnXnXnXnXnXnXnXnXnXnXnXnXnXnXnXnXnXnXnXnXnXnX",
"xXxXxXnXnXnXmXnXxXnXnXnXnXnXnXnXnXnXnXnXnXnXnXnXnXnXnXnXnXnXnXnXnXnXnXnXnXnXnXnXnXnXnXnXnXnXnXnXnXnXnXnXnXnXnXnXnXnXnXnXnXnXnXnXnXnXnXnXNXCXmXnXnXnXnXnXnXnXnXnXnXnXnXnXnXnXnXnXnXnXnXnXnXnXnXnXnXnXnXnXnXnXnXnXnXnXnXnXnXnXnXnXnXnXnXnXnXnXnXnXnXnXnXnXnXnXnXnX",
"xXxXnXxXxXmXVXmXxXxXmXNXNXnXnXnXnXnXnXnXnXnXnXnXnXnXnXnXnXnXnXnXnXnXnXnXnXnXnXnXnXnXnXnXnXnXnXnXnXnXnXnXnXnXnXnXnXnXnXnXnXnXnXnXnXnXnXnXmXmXnXnXnXnXnXnXnXnXnXnXnXnXnXnXnXnXnXnXnXnXnXnXnXnXnXnXnXnXnXnXnXnXnXnXnXnXnXnXnXnXnXnXnXnXnXnXnXnXnXnXnXnXnXnXnXnXnXnX",
"xXxXxXxXxXnXmXnXxXnXNXCXVXnXnXnXnXnXnXnXnXnXnXnXnXnXnXnXnXnXnXnXnXnXnXnXnXnXnXnXnXnXnXnXnXnXnXnXnXnXnXnXnXnXnXnXnXnXnXnXnXnXnXnXnXnXnXnXnXnXnXnXnXnXnXnXnXnXnXnXnXnXnXnXnXnXnXnXnXnXnXnXnXnXnXnXnXnXnXnXnXnXnXnXnXnXnXnXnXnXnXnXnXnXnXnXnXnXnXnXnXnXnXnXnXnXnXnX",
"xXkXxXxXxXxXxXxXxXxXnXNXNXnXnXnXnXnXnXnXnXnXnXnXnXnXnXnXnXnXnXnXnXnXnXnXnXnXnXnXnXnXnXnXnXnXnXnXnXnXnXnXnXnXnXnXnXnXnXnXnXnXnXnXnXnXnXnXnXnXnXnXnXnXnXnXnXnXnXnXnXnXnXnXnXnXnXnXnXnXnXnXnXnXnXnXnXnXnXnXnXnXnXnXnXnXnXnXnXnXnXnXnXnXnXnXnXnXnXnXnXnXnXnXnXnXnXnX",
"xXxXxXxXnXxXxXxXxXxXxXnXnXnXnXnXnXnXnXnXnXnXnXnXnXnXnXnXnXnXnXnXnXnXnXnXnXnXnXnXnXnXnXnXnXnXnXnXnXnXnXnXnXnXnXnXnXnXnXnXnXnXnXnXnXnXnXnXnXnXnXnXnXnXnXnXnXnXnXnXnXnXnXnXnXnXnXnXnXnXnXnXnXnXnXnXnXnXnXnXnXnXnXnXnXnXnXnXnXnXnXnXnXnXnXnXnXnXnXnXnXnXnXnXnXnXnXnX",
"xXnXnXnXnXxXxXnXnXnXnXnXnXnXnXnXnXnXnXnXnXnXnXnXnXnXnXnXnXnXnXnXnXnXnXnXnXnXnXnXnXnXnXnXnXnXnXnXnXnXnXnXnXnXnXnXnXnXnXnXnXnXnXnXnXnXnXnXnXnXnXnXnXnXnXnXnXnXnXnXnXnXnXnXnXnXnXnXnXnXnXnXnXnXnXnXnXnXnXnXnXnXnXnXnXnXnXnXnXnXnXnXnXnXnXnXnXnXnXnXnXnXnXnXnXnXnXnX",
"nXnXnXnXnXnXnXnXnXnXnXnXnXnXnXnXnXnXnXnXnXnXnXnXnXnXnXmXNXnXnXnXnXnXnXnXnXnXnXnXnXnXnXnXnXnXnXnXnXnXnXnXnXnXnXnXnXnXnXnXnXnXnXnXnXnXnXnXnXnXnXnXnXnXnXnXnXnXnXnXnXnXnXnXnXnXnXnXnXnXnXnXnXnXnXnXnXnXnXnXnXnXnXnXnXnXnXnXnXnXnXnXnXnXnXnXnXnXnXnXnXnXnXnXnXnXnXnX",
"nXnXnXnXnXnXnXnXnXnXnXnXnXnXnXnXnXnXnXnXnXnXnXnXnXnXnXVXVXmXnXnXnXnXnXnXnXnXnXnXnXnXnXnXnXnXnXnXnXnXnXnXnXnXnXnXnXnXnXnXnXnXnXnXnXnXnXnXnXnXnXnXnXnXnXnXnXnXnXnXnXnXnXnXnXnXnXnXnXnXnXnXnXnXnXnXnXnXnXnXnXnXnXnXnXnXnXnXnXnXnXnXnXnXnXnXnXnXnXnXnXnXnXnXnXnXnXnX",
"nXnXnXnXnXnXnXnXnXnXnXnXnXnXnXnXnXnXnXnXnXnXmXmXnXnXnXmXmXnXnXnXnXnXnXnXnXnXnXnXnXnXnXnXnXnXnXnXnXnXnXnXnXnXnXnXnXnXnXnXnXnXnXnXnXnXnXnXnXnXnXnXnXnXnXnXnXnXnXnXnXnXnXnXnXnXnXnXnXnXnXnXnXnXnXnXnXnXnXnXnXnXnXnXnXnXnXnXnXnXnXnXnXnXnXnXnXnXnXnXnXnXnXnXnXnXnXnX",
"nXnXnXnXnXnXnXnXnXnXnXnXnXnXnXnXnXnXnXnXnXmXVXmXnXnXnXnXnXnXnXnXnXnXnXnXnXnXnXnXnXnXnXnXnXnXnXnXnXnXnXnXnXnXnXnXnXnXnXnXnXnXnXnXnXnXnXnXnXnXnXnXnXnXnXnXnXnXnXnXnXnXnXnXnXnXnXnXnXnXnXnXnXnXnXnXnXnXnXnXnXnXnXnXnXnXnXnXnXnXnXnXnXnXnXnXnXnXnXnXnXnXnXnXnXnXnXnX",
"nXnXnXnXnXnXnXnXnXnXnXnXnXnXnXnXnXnXnXnXnXnXmXnXnXnXnXnXnXnXnXnXnXnXnXnXnXnXnXnXnXnXmXNXmXnXnXnXnXnXnXnXnXnXnXnXnXnXnXnXnXnXnXnXnXnXnXnXnXnXnXnXnXnXnXnXnXnXnXnXnXnXnXnXnXnXnXnXnXnXnXnXnXnXnXnXnXnXnXnXnXnXnXnXnXnXnXnXnXnXnXnXnXnXnXnXnXnXnXnXnXnXnXnXnXnXnXnX",
"nXnXnXnXnXnXnXnXnXnXnXnXnXnXnXnXnXnXnXnXnXnXnXnXnXnXnXnXnXnXnXnXnXnXnXnXnXnXnXnXnXnXZXCXCXNXnXnXnXnXnXnXnXnXnXnXnXnXnXnXnXnXnXnXnXnXnXnXnXnXnXnXnXnXnXnXnXnXnXnXnXnXnXnXnXnXnXnXnXnXnXnXnXnXnXnXnXnXnXnXnXnXnXnXnXnXnXnXnXnXnXnXnXnXnXnXnXnXnXnXnXnXnXnXnXnXnXnX",
"nXnXnXnXnXnXnXnXnXnXnXnXnXnXnXnXnXnXnXnXnXnXmXNXnXnXnXnXnXnXnXnXnXnXnXnXnXnXnXnXnXnXVXAXCXNXnXnXnXnXnXnXnXnXnXnXnXnXnXnXnXnXnXnXnXnXnXnXnXnXnXnXnXnXnXnXnXnXnXnXnXnXnXnXnXnXnXnXnXnXnXnXnXnXnXnXnXnXnXnXnXnXnXnXnXnXnXnXnXnXnXnXnXnXnXnXnXnXnXnXnXnXnXnXnXnXnXnX",
"nXnXnXnXnXnXnXnXnXnXnXnXnXnXnXnXnXnXnXnXnXnXnXmXnXnXnXnXnXnXnXnXnXnXnXnXnXnXnXnXnXnXNXCXNXnXnXnXnXnXnXnXnXnXnXnXnXnXnXnXnXnXnXnXnXnXnXnXnXnXnXnXnXnXnXnXnXnXnXnXnXnXnXnXnXnXnXnXnXnXnXnXnXnXnXnXnXnXnXnXnXnXnXnXnXnXnXnXnXnXnXnXnXnXnXnXnXnXnXnXnXnXnXnXnXnXnXnX",
"nXnXnXnXnXnXnXnXnXnXnXnXnXnXnXnXnXnXnXnXnXnXnXnXnXnXnXnXnXnXnXnXnXnXnXnXnXnXnXnXnXnXnXmXBXnXnXnXnXnXnXnXnXnXnXnXnXnXnXnXnXnXnXnXnXnXnXnXnXnXnXnXnXnXnXnXnXnXnXnXnXnXnXnXnXnXnXnXnXnXnXnXnXnXnXnXnXnXnXnXnXnXnXnXnXnXnXnXnXnXnXnXnXnXnXnXnXnXnXnXnXnXnXnXnXnXnXnX",
"nXnXnXnXnXnXnXnXnXnXnXnXnXnXnXnXnXnXnXnXnXnXnXnXnXnXnXnXnXnXnXnXnXnXnXnXnXnXnXnXnXnXnXnXnXnXnXnXnXnXnXnXnXnXnXnXnXnXnXnXnXnXnXnXnXnXnXnXnXnXnXnXnXnXnXnXnXnXnXnXnXnXnXnXnXnXnXnXnXnXnXnXnXnXnXnXnXnXnXnXnXnXnXnXnXnXnXnXnXnXnXnXnXnXnXnXnXnXnXnXnXnXnXnXnXnXnXnX",
"nXnXnXnXnXnXnXnXnXnXnXnXnXnXnXnXnXnXnXnXnXnXnXnXnXnXnXnXnXnXnXnXnXnXnXnXnXnXnXnXnXnXnXnXnXnXnXnXnXnXnXnXnXnXnXnXnXnXnXnXnXnXnXnXnXnXnXnXnXnXnXnXnXnXnXnXnXnXnXnXnXnXnXnXnXnXnXnXnXnXnXnXnXnXnXnXnXnXnXnXnXnXnXnXnXnXnXnXnXnXnXnXmXmXnXnXnXnXnXnXnXnXnXnXnXnXnXnX",
"nXnXnXnXnXnXnXnXnXnXnXnXnXnXnXnXnXnXnXnXnXnXnXnXnXnXnXnXnXnXnXnXnXnXnXnXnXnXnXnXnXnXnXnXnXnXnXnXnXnXnXnXnXnXnXnXnXnXnXnXnXnXnXnXnXnXnXnXnXnXnXnXnXnXnXnXnXnXnXnXnXnXnXnXnXnXnXnXnXnXnXnXnXnXnXnXnXnXnXnXnXnXBXNXVXZXnXnXnXnXnXnXVXNXnXnXnXnXnXnXnXnXnXnXnXnXnXnX",
"nXnXnXnXnXnXnXnXnXnXnXnXnXnXnXnXnXnXnXnXnXnXnXnXnXnXnXnXnXnXnXnXnXnXnXnXnXnXnXnXnXnXnXnXnXnXnXnXnXnXnXnXnXnXnXnXnXnXnXnXnXnXnXnXnXnXnXnXnXnXnXnXnXnXnXnXnXnXnXnXnXnXnXnXnXnXnXnXnXnXnXnXnXnXnXnXnXnXnXnXnXmXNXCXAXCXnXnXnXnXnXnXBXmXnXnXnXnXnXnXnXnXnXnXnXnXnXnX",
"nXnXnXnXnXnXnXnXnXnXnXnXnXnXnXnXnXnXnXnXnXnXnXnXnXnXnXnXnXnXnXnXnXnXnXnXnXnXnXnXnXnXnXnXnXnXnXnXnXnXnXnXnXnXnXnXnXnXnXnXnXnXnXnXnXnXnXnXnXnXnXnXnXnXnXnXnXnXnXnXnXnXnXnXnXnXnXnXnXnXnXnXnXnXnXnXnXnXnXnXnXNXAXAXAXCXmXnXnXnXnXnXnXnXnXnXnXnXnXnXnXnXnXnXnXnXnXnX",
"nXnXnXnXnXnXnXnXnXnXnXnXnXnXnXnXnXnXnXnXnXnXnXnXnXnXnXnXnXnXnXnXnXnXnXnXnXnXnXnXnXnXnXnXnXnXnXnXnXnXnXnXnXnXnXnXnXnXnXnXnXnXnXnXnXnXnXnXnXnXnXnXnXnXnXnXnXnXnXnXnXnXnXnXnXnXnXnXnXnXnXnXnXnXnXnXnXnXnXnXnXVXAXAXAXCXmXnXnXnXnXnXnXnXnXnXnXnXnXnXnXnXnXnXnXnXnXnX",
"nXnXnXnXnXnXnXnXnXnXnXnXnXnXnXnXnXnXnXnXnXnXnXnXnXnXnXnXnXnXnXnXnXnXnXnXnXnXnXnXnXnXnXnXnXnXnXnXnXnXnXnXnXnXnXnXnXnXnXnXnXnXnXnXnXnXnXnXnXnXnXnXnXnXnXnXnXnXnXnXnXnXnXnXnXnXnXnXnXnXnXnXnXnXnXnXnXnXnXnXnXNXVXVXVXNXnXnXnXnXnXnXnXnXnXnXnXnXnXnXnXnXnXnXnXnXnXnX",
"nXnXnXnXnXnXnXnXnXnXnXnXnXnXnXnXnXnXnXnXnXnXnXnXnXnXnXnXnXnXnXnXnXnXnXnXnXnXnXnXnXnXnXnXnXnXnXnXnXnXnXnXnXnXnXnXnXnXnXnXnXnXnXnXnXnXnXnXnXnXnXnXnXnXnXnXnXnXnXnXnXnXnXnXnXnXnXnXnXnXnXnXnXnXnXnXnXnXnXnXnXnXnXnXnXnXnXnXnXnXnXnXnXnXnXnXnXnXnXnXnXnXnXnXnXnXnXnX",
"nXnXnXnXnXnXnXnXnXnXnXnXnXnXnXnXnXnXnXnXnXnXnXnXnXnXnXnXnXnXnXnXnXnXnXnXnXnXnXnXnXnXnXnXnXnXnXnXnXnXnXnXnXnXnXnXnXnXnXnXnXnXnXnXnXnXnXnXnXnXnXnXnXnXnXnXnXnXnXnXnXnXnXnXnXnXnXnXnXnXnXnXnXnXnXnXnXnXnXnXnXnXnXnXnXnXnXnXnXnXnXnXnXnXnXnXnXnXnXnXnXnXnXnXnXnXnXnX",
"nXnXnXnXnXnXnXnXnXnXnXnXnXnXnXnXnXnXnXnXnXnXnXnXnXnXnXnXnXnXnXnXnXnXnXnXnXnXnXnXnXnXnXnXnXnXnXnXnXnXNXmXnXnXnXnXnXnXnXnXnXnXnXnXnXnXnXnXnXnXnXnXnXnXnXnXnXnXnXnXnXnXnXnXnXnXnXnXnXnXnXnXnXnXnXnXnXnXnXnXnXnXnXnXnXnXnXnXnXnXnXnXnXnXnXnXnXnXnXnXnXnXnXnXnXnXnXnX",
"nXnXnXnXnXnXnXnXnXnXnXnXnXnXnXnXnXnXnXnXnXnXnXnXnXnXnXnXnXnXnXnXnXnXnXnXnXnXnXnXnXnXnXnXnXnXnXnXnXnXnXnXnXnXnXnXnXnXnXnXnXnXnXnXnXnXnXnXnXnXnXnXnXnXnXnXnXnXnXnXnXnXnXnXnXnXnXnXnXnXnXnXnXnXnXnXnXnXnXnXnXnXnXnXnXnXnXnXnXnXnXnXnXnXnXnXnXnXnXnXnXnXnXnXnXnXnXnX",
"nXnXnXnXnXnXnXnXnXnXnXnXnXnXnXnXnXnXnXnXnXnXnXnXnXnXnXnXnXnXnXnXnXnXnXnXnXnXnXnXnXnXnXnXnXnXnXnXnXnXnXnXnXnXnXnXnXnXnXnXnXnXnXnXnXnXnXnXnXnXnXnXnXnXnXnXnXnXnXnXnXnXnXnXnXnXnXnXnXnXnXnXnXnXnXnXnXnXnXnXnXnXnXnXnXnXnXnXnXnXnXnXnXnXnXnXnXnXnXnXnXnXnXnXxXxXxXxX",
"nXnXnXnXnXnXnXnXnXnXnXnXnXnXnXnXnXnXnXnXnXmXNXNXnXnXnXnXnXnXnXnXnXnXnXnXnXnXnXnXnXnXnXnXnXnXnXnXnXnXnXnXnXnXnXnXnXnXnXnXnXnXnXnXnXnXnXnXnXnXnXnXnXnXnXnXnXnXnXnXnXnXnXnXnXnXnXnXnXnXnXnXnXnXnXnXnXnXnXnXnXnXnXnXnXnXnXnXnXnXnXnXnXnXnXnXnXnXnXnXnXnXxXxXxXxXxXxX",
"nXnXnXnXnXnXnXxXnXnXnXnXnXnXnXnXnXnXnXnXnXNXNXmXnXnXnXnXnXnXnXnXnXnXnXnXnXnXnXnXnXnXnXnXnXnXnXnXnXnXnXnXnXnXnXnXnXnXnXnXnXnXnXnXnXnXnXnXnXnXnXnXnXnXnXnXnXnXnXnXnXnXnXnXnXnXnXnXnXnXnXnXnXnXnXnXnXnXnXnXnXnXnXnXnXnXnXnXnXnXnXnXnXnXnXnXnXnXnXnXxXxXxXxXxXxXxXxX",
"zXzXzXnXnXxXzXnXnXnXnXnXnXnXnXnXnXnXnXnXnXnXnXnXnXnXnXnXnXnXnXnXnXnXnXnXnXnXnXnXnXnXnXnXxXxXxXnXnXnXnXnXnXxXnXxXnXnXnXnXnXnXnXnXnXnXnXnXnXnXnXnXnXnXnXnXmXCXVXmXnXnXnXnXnXnXnXnXnXnXnXnXnXnXnXnXnXnXnXnXnXnXnXnXnXnXnXnXnXnXnXnXnXnXnXnXnXnXnXnXxXxXxXxXxXxXxXxX",
"zXzXzXzXzXzXzXxXzXnXnXnXnXnXnXnXnXnXnXnXnXnXnXnXnXnXnXnXnXnXnXnXnXnXnXnXnXnXnXnXnXxXxXzXzXzXzXxXnXxXxXzXlXlXzXlXzXxXzXnXnXnXnXnXnXnXnXnXnXnXnXnXnXnXnXnXNXAXAXVXmXnXnXnXnXnXnXnXnXnXnXnXnXnXnXnXnXnXnXnXnXnXnXnXnXnXnXnXnXnXnXnXnXnXnXnXnXnXxXxXxXxXxXzXxXmXnXxX",
"zXzXzXzXzXzXzXzXzXxXnXnXnXnXnXnXnXnXnXnXnXnXnXnXnXnXnXnXnXxXxXnXxXnXnXnXnXnXnXnXxXzXzXzXzXzXzXzXzXzXlXlXlXlXlXlXlXlXzXnXnXnXnXnXnXnXnXnXnXnXnXnXnXnXnXnXZXAXAXCXNXnXnXnXnXnXnXnXnXnXnXnXnXnXnXnXnXnXnXnXnXnXnXnXnXnXxXnXnXxXxXnXnXnXnXnXnXxXxXxXxXzXzXzXnXNXxXzX",
"zXzXzXzXzXzXzXzXzXzXzXnXnXnXnXnXnXnXnXnXnXnXnXnXnXnXnXxXxXzXzXzXzXxXxXnXnXxXzXzXzXzXzXzXzXzXzXlXlXlXlXlXpXpXlXlXlXlXlXxXnXnXnXnXnXnXnXnXnXnXnXnXnXnXnXnXmXNXNXmXnXnXnXnXnXnXnXnXnXnXnXnXnXnXnXnXnXnXnXnXxXxXxXxXxXxXxXxXxXxXxXxXnXnXnXnXxXxXxXzXzXzXzXzXlXlXlXlX",
"zXzXzXzXzXzXzXzXzXzXzXxXnXnXnXnXnXnXnXnXnXnXnXnXnXzXzXzXzXzXzXzXzXxXzXzXzXzXzXzXzXzXzXzXzXlXlXpXpXuXrXuXuXpXpXlXlXlXlXxXzXzXxXnXnXnXnXnXnXnXnXnXnXnXnXnXnXnXnXnXnXnXnXnXnXnXnXnXnXnXnXnXnXnXnXnXnXnXnXxXxXxXzXzXzXzXzXxXxXxXxXxXnXxXxXxXxXxXxXzXzXzXzXlXlXlXlXlX",
"lXzXzXzXzXzXzXzXzXzXzXzXxXxXnXnXnXnXnXnXnXnXnXnXxXzXzXzXzXzXlXlXlXzXzXzXzXzXzXzXzXlXzXzXlXlXpXpXpXrXrXeXrXuXpXpXlXpXlXxXlXlXlXzXzXzXzXzXzXxXnXnXnXnXnXnXnXnXnXnXnXnXnXnXnXnXnXnXnXnXnXnXnXnXnXnXnXxXxXzXzXzXzXzXzXzXzXzXzXzXzXxXxXxXxXxXxXxXzXzXzXlXlXlXlXlXlXlX",
"pXgXlXlXlXzXzXzXzXzXzXzXzXxXnXnXnXnXnXnXnXnXnXzXzXzXzXzXzXlXgXpXlXlXlXzXzXzXzXlXlXlXpXpXpXuXrXrXrXeXeX0XeXeXeXrXrXuXxXBXlXlXlXlXzXlXlXlXlXlXzXzXzXzXzXxXxXnXnXnXnXnXnXnXnXnXnXnXnXnXnXnXnXnXnXnXzXzXzXlXlXzXzXzXxXcXcXxXxXzXzXzXzXxXzXzXzXzXzXzXlXlXgXgXpXpXpXpX",
"aXpXpXpXpXgXlXzXzXzXlXlXlXzXnXnXnXnXnXnXnXzXlXeXeXrXpXlXlXpXpXpXpXpXlXlXpXpXpXpXrXrXrXeXeX0X0X8X7X6X6X6X6X7X8X8X0XeXlXlXrXuXlXMXZXlXuXuXuXdXuXdXlXlXzXzXlXzXxXxXxXzXxXzXxXxXnXnXnXnXnXnXnXnXxXzXlXlXlXlXlXlXlXlXcXMXMXMXcXlXpXlXlXlXlXlXlXlXlXlXgXpXpXpXpXpXpXpX",
"eX0X0XeXeXaXaXaXpXpXaXpXlXlXzXxXnXnXnXzXlXrX8X$X$X;X;X6X7X8XeXrXrXrXrXeXrXrXrXeXeX0X7X;X$X$X%X#X#X#X#X#X#X$X$X$X;X6X6X6X7X0XpXMXcXrXrXrXrXrXuXuXuXlXhXhXhXlXlXlXlXlXlXlXlXzXxXxXxXnXnXxXxXxXlXlXlXlXuXrXrXeXrXrXrXaXaXaXrXeXaXaXaXaXaXaXaXaXaXaXaXaXaXaXeXaXaXaX",
"6X7X7X7X8X9X0X0X0X0XeXaXpXaXpXlXlXlXpXeX8X;X#X{.{.{.{.{.#X#X$X7X8X7X7X6X7X;X;X$X#X#X{.}.[.[.[.[./.[.[.[.[.}.{.{.{.{.@X#X#X;X6X8X7X7X8X8X8X8X0XeXeXeXeXeXeXrXuXlXlXpXpXuXuXdXlXlXlXlXlXuXuXuXrXpXpXuXrX0X7X7X7X8X7X$X%X$X$X6X6X6X6X6X6X6X7X7X7X7X9X9X7X7X7X7X7X7X",
"|.#X%X%X%X#X%X$X6X7X7X8X8X8X8X8X8X7X;X;X@X}.[.[.[.[.[.[.[.[.{.@X#X#X#X#X{.{.[.C.V.V.V.V.B.B.B.B.n.n.n.B.B.B.Z.V.C.C.C.C.C.C.[.[.[.[.}.{.{.{.#X%X;X;X;X;X;X8X8XeX0XeXeX8X8X8X8XeXeXeX0X8X8X8X6X6X0X0X6X6X$X$X$X#XC.g.M.B.B.B.V.C.[./.[.[.}.{.{.{.{.#X#X#X#X#X$X$X",
"[.[./.V.$.R ' @.h.V.[.{.#X#X#X%X#X{.{./.C.V.V.V.V.V.B.M.h.h.@.h.M.C.[.C.V.B.j.g.g.g.g.g.g.g.g.@.@.' ' ' ' @.@.@.E E R R ' g.@.' Q @.g.h.h.h.M.B.V.C./.C./.}.{.}.}.{.{.{.{.{.{.#X%X#X#X%X$X$X%X$X$X$X{.{.}.C.B.@.Y M.}.V.M.h.g.@.@.h.h.' T T T ' g.g.j.n.B.Z.C.[.",
"c.g.' ' ( ( ( Y J J J ' h.B.C.[.[.[.C.V.B.B.M.@.K @.$.h.x.h.$.$.h.h.$.$.$.@.' P ` ^ J J G F F F g g g F F F J J J J J J J J J / ^ ^ ` #.` ' ` ` ` @.$.@.' ` $.N.M.M.M.c.M.c.M.M.B.Z.Z.V.V.V.[.}.{.{.V.g.' ) 9.j.n.Z.Z.V.V.h.g.g.g.j.j.g.g.g.g.g.9.0.g.j.c.k.c.c.",
"u.z.z.G.z.z.z.l.i.i.y.[ ` R ' @.h.M.M.h.h.@.R w ` /.:X4X-X`.`._.(.'.~.~.!.!.J.x.x.x.=.*.] ] ] ] ] $.c.x.x.x.x.J.J.J.J.K.K.x.x.x.J.J.x.K.K.J.x.x.N.-.K F $.(.|.^.].^.^.^.I.n.n.I.E.W.W. X X|.;X%X#X[.g.Y g.[.^.Z.n.k.j.q.9.9.9.9.9.9.9.9.9.6.6.6.6.q.q.q.q.j.j.j.",
"6.7.7.7.7.7.7.7.7.0.0.0.0.0.[ [ ' ' R P K F 9 R /.:X1X@X|.`._.(.'.~.~.!.K.l.l.l.l.l.i.| | } } } } } } } y.y.y.y.y.y.y.p.p.p.p.p.p.i.i.i.p.p.G.G.!.!.H ` ].].n.g.^.P.b.b.b.b.b.R.E.E.E.E.E.E.W. XXX XT a g.|.Z.n.k.j.9.9.9.9.9.9.9.9.9.6.5.5.5.5.5.5.6.6.6.6.6.6.",
"6.6.6.7.7.7.7.7.7.) ) ) ) ) ) ) ) 0.k.g.p , w M.-XqX:X@X|.`._.(.).~.~.~.!.l.l.l.l.i.i.i.| } } } } } } _ _ _ r.r.r.r.y.i.y.i.p.p.p.p.p.y.p.G.G.H.|.>XP w c.^.I.b.b.b.b.b.b.b.b.R.R.E.E.E.E.E.R.E.W. XT 7 U }.Z.n.k.q.9.9.9.9.9.9.9.9.6.x 5.5.5.2.5.5.6.6.6.6.6.6.",
"4.6.4.6.7.7.7.7.6.) ) ) ) ) ) ) ) ) 0.z.g , F |.bXqX-X@X|.`._.(.).~.~.~.!.x.l.l.l.i.i.l.i.i.| } } } } } } b _ r.r.y.i.i.i.y.p.p.p.D.p.p.p.G.I.H.-X>XK 8 u.I.P.b.b.b.b.b.b.b.b.d.R.R.E.E.E.E.E.W.W. XT 7 D ^.n.k.k.9.9.9.9.9.9.9.9.9.Y z 5.5.z z z 5.5.6.2.6.3.6.",
"3.4.6.6.6.6.6.6.6.6.) ) ) ) ) ) ) ) 0.k.J , F :XbX:X-X@X+X`.(.(.(.~.~.~.!.!.x.l.l.l.i.i.i.i.| } } } } } } _ b b } y.i.i.i.i.p.p.p.p.p.D.G.I.].].:X1X;.8 k.I.P.b.b.b.b.b.b.b.b.d.m.R.E.E.E.E.E.W.W. X6.7 a Z.C.Z.k.q.9.9.9.9.9.6.9.6.6.5.2.2.2.z z 2.2.z q.v.z z ",
"3.3.6.6.6.6.6.6.6.6.3.z z z z ) ) ) ' k.J , w (.1X-X-X@X`._._._.(.~.~.~.~.!.x.l.l.l.i.i.i.| | } } } } } } _ b b _ r.t.y.i.i.p.p.p.p.G.H.H.Y.]..X1XvX(.8 n.I.b.b.f.a.f.b.b.d.d.m.m.R.E.E.E.R.R.E.W.Q.q.7 a Z.[.Z.k.j.q.9.9.9.6.6.6.6.q.2.z z z z z z z z 2.2.z z ",
"3.3.3.6.6.4.6.6.4.4.3.z z z z z ) ) 0.k.J , w N.-X-X-X@X`._._._.(.~.~.~.!.!.x.l.l.l.l.i.| | | } } } } } } _ b b _ r.r.y.i.i.p.p.p.G.H.I.H.U.]..X:XiX@Xw I.P.b.b.a.a.a.a.a.d.d.m.m.R.E.E.R.E.W.R.E.Q.v.7 a n.n.k.v.k.k.9.9.9.6.6.6.6.2.z 2.z z z z 2.2.z z 2.z z ",
"3.3.3.6.6.4.6.4.4.3.3.2.z z z z z ) ) k.J 6 w ~.-X-X-X@X`.`._.(.(.'.~.~.!.!.K.l.l.l.i.| | | | } } } } } } b b b _ } } r.y.i.i.p.p.G.I.I.U.Y.Y.]..X:X-Xg n.P.b.b.a.a.a.a.a.d.d.d.m.m.R.R.m.W.W.R.E.Q.E.0 h n.Z.n.n.n.k.j.9.9.6.6.6.2.z z 2.z z z z 2.2.z z 2.z z ",
"3.3.3.3.4.6.6.4.6.3.3.3.z z z z z z ) z.J , w N.-X-X-X@X`._._.(.(.'.~.~.!.!.K.K.l.i.=. . .} } } } } } } } b b b b b _ _ r.r.y.i.p.G.I.U.Y.Y.Y.]..XXX-XF 0.b.b.a.a.a.a.a.a.d.d.d.d.d.R.R.m.m.R.E.E.Q.W.i a n.^.^.^.}.|.k.k.j.9.6.6.2.z z k k k z z z z z z 2.z z ",
"3.3.3.3.3.6.6.6.6.6.3.3.z z z z z z 0.' e * 9 K _.@X-X@X`._._.(.(.~.~.~.!.K.!.K.l.=.=. . . . .} } } } } } _ b b b b b b b _ r.y.p.G.H.I.Y.Y.]..X.X.X_.w ) f.a.a.a.a.a.a.a.d.d.d.d.d.R.R.R.E.W.W.Q.Q.Q.y ; p g.^.^.:X%Xn.n.j.9.6.6.z k k x x x x k z z z z 2.z z ",
"3.3.3.3.3.3.3.3.3.3.3.z l l k k l ) ( y 8 * > > C ;.~.`.`.`._.(.(.~.~.~.~.!.!.K.=.=. . . . . . . . .l.^.} { { _ } } } | | | | i.G.G.H.H.G.l.=.*.#.*.] = y h l ) t.b.f.a.a.a.f.f.a.a.a.a.d.d.m.a.q.6.z = o - - 8 [ M.k.g.g.9.6.6.z k x x x x x x x x z z k z z z ",
": 3 s c c c 3 : : : = = = = ; 6 6 7 7 y 8 * @ @ # 5 m ..<.~.~.(.(.).~.~.!.N.-.#./ / / / / H H r e e r L q e q r r r r N r r r g H / ^ / H r r r r r e - - - - = s y y y 7 3 ; : : : : : ; : : = - % o X X o % % - - - $ % - - - : : - : : - : - : : - - - - - - ",
": u k z b 3.3.z l f 8 t & & o o o & = 4 4 @ . X O @ @ # > 5 M W ....V B m 5 5 5 5 5 4 4 > > # O O O @ @ @ @ @ @ @ @ + # # # # # # # * * 4 4 5 e r r = = 9 w ` ` ` J J g w w 9 < , , ; ; ; = w K q * o = & % % % % ; 6 w $   $ Y Y T l f y c ; : : : : : : : - 1 ",
"d w.Q.E.R.P.P.P.P.P.y.( J J J g 6 o X o o X # # # @ O O . . . . . . . . . . . . # 5 O X X X O O O O O X X X @ # # * > * @ X q ..V q 5 5 # O O @ * 4 w J ] J.wX.X^.!.x.c.c.g.=.=.$.$.' $.' $.^.(.;.H = 9 ` ' R Y ( ' ' $.8 % F ^.k.k.q.q.w.2.k d u u u s u u s : ",
"k a.Q.P.P.d.d.d.P.P.p.0.7.' [ g.c.@., X X 6 ~.<.,.,.! Z Z Z Z M M M M M M M A M ! V C O.o.....~ ~ V V V V V ~ / / / ~ ~ C e ;.#.] #.=.c.=./ r 5 @ q ^ ] l.'.]._.^.^.!.x.J.x.*.*.*.*.*.*.*.` ^ ^ H F 6 4 G g g h h h h h g = $.k.0.0.q.q.q.5.z k x d u u u d s 3 ",
"3.m.W.P.d.d.d.d.d.P.s.y.0.) Y Y Y ( R * o #.).+.+.,.,.,.,.,.,.>.:.:.:.! ! Z M +.&.V ..<.&.o.o.o.o.X.o.o.X.X.X.o.` ^ / / / #.!.^ ] [  .| =. .` / e F ` l.^.l.] ] ]  . .] [ *.*.*.*.*.*.=.*.` / / H H 9 6 g g g h h h h h j w M.0.0.q.q.a.q.6.5.z k x x ) z d y 3 ",
"3.E.E.P.d.d.d.d.d.P.T.p.y.0.) Y Y Y ' n 4 '.N.Z Z Z Z ! ! +.+.! ! ! ! ! M 2 +.S.&.C M <.O.X.X.X.X.X.X.X.o.o.o.o.#.] ] ] ^ ~.~.] [  .| =.| ` / ] 4 > H ^.K.] ^ ` ] ] ] ] ] ] *.*.*.=.=.=.=.*.` / / L q 4 g g f h h h h h h $.^.0.q.q.e.a.a.w.5.5.z z 2.q.x d y : ",
"6.W.P.P.d.6.z d.P.P.L.p.p.r.) ) ( Y ( w q _.O.Z Z V V Z ! ! Z ! ! ! :.Z 2 C `.S.S.C > O.&.X.X.X.X.X.o.o.o.#.*.-.] ] [ [ ] x.-.[ [ [ | =. .q / i.4 + , ` ] ` ^ ` ] ] ] ] ] ] *.*.=.=.l.l.=.=.=.#.^ ^ r 4 g g f h h h h h l 9.Z.q.q.e.e.e.e.e.6.5.5.5.5.d u d c - ",
"6.R.P.d.a.c ) P.P.P.P.p.p.y.0.) ) Y G 9 q (.W Z V V V Z ! Z ! ! ! >.! A M ).~.S.S.V + +.&.X.X.X.X.o.o.#.#.#.|._.] ] [ ] [ ] ] [ 0.0.| i./ 6 y.z.> + > g ] ` ^ ` ] ] ] ] ] ] *.=.=.F.F.F.F.F.l.=.=.=.H 4 g g g h h h h l l 6.q.q.q.e.a.v.v.e.w.5.5.5.z d d d 3 $ ",
"b P.d.a.a.P.wXW.P.P.P.p.p.u.0.) T U G 9 5 $.V V V V V Z Z Z ! ! >.>.Z M ).~.S.S.S.V + o.&.o.&.o.o.#.#.#.] ] l. .] ] ] ] [ [ [ 0.0.0.y.u.w / XX].* + > g ` ` ` ` ] ] ] ] ] ] =.l.F.G.G.G.G.G.F.F.F.l./ , g g g f h h h l T 6.q.q.e.v.v.v.v.a.q.w.5.z x u d d 3 $ ",
"h P.f.a.a.XXoXP.P.P.L.p.p.q.0.) Y U G 9 , ` V C A V V Z Z Z ! ! >.:.>.).~.-.-.-.-.V + L O.<.~.#.#.#.#.] [ [ [ [ [ [ ] [ [ [ 0.[ [ 0.y.0.j .XwX^., + > H ` ` ^ ` ] ] ] ] ] =.=.F.G.H.H.H.G.G.G.G.G.G./ , g g g g f h l z ) q.q.q.a.v.v.v.v.e.q.w.5.z d d d d :   ",
"z d.a.a.a.P.P.d.d.d.f.p.u.9.9.T U U G 9 * P N q B V V Z Z ! ! ! >.:.,.1.&.-.-.-.-.C X C O...^ o.#.#.#.[ [ [ [ [ [ [ [ [ 0.0.[ [ 0.y.u.u.^.].I.y., + , H ` ` ^ ] ] ] ] } | =.l.G.G.U.Y.U.H.G.G.G.G.H.H , g g g g h h l z 6.q.q.q.a.v.v.v.v.e.q.w.5.2.d u d d :   ",
"' f.a.a.a.a.a.a.a.a.u.u.q.9.) T U U G 0 + K F <.%.B V Z Z ..+.>.>.>.+.O.&.-.-.-.-.C X 5 o.....^ ^ #.#.[ [ [ [ [ [ [ [ [ 0.0.0.y.u.u.p.z.I.z.p.y., + 4 H ` ` ` ` ] _ } | | l.F.G.H.Y.Y.Y.U.H.H.H.G.H./ 4 g g g ; y h z T 6.q.q.q.a.v.v.v.v.e.q.w.5.z d u d u -   ",
"g.v.a.a.u.u.u.u.u.q.q.q.9.9.T T U G G 0 o K F W B B V Z ! ....+.O.O.O.O.&.-.-.-.-.q X 5 ......^ ^ ^ #.] [ [ [ [ [ { [ ' 0.y.u.u.p.z.z.z.z.z.b.z.= o , H ` ` ` ` _ _ } | | =.F.G.H.Y.Y.Y.Y.Y.Y.U.U.U.] 6 g g g % 3 l z ) 6.q.q.q.a.v.a.e.e.e.q.w.5.z x u d c -   ",
"n.u.u.u.q.q.q.q.q.q.q.9.) T T Y U U G 0 o F F N N B B Z ......+.O.O.O.O.&.-.-.-.-.5 X # C ....^ ^ ^ ` ] [ [ [ [ ' ' [ [ r.u.u.p.z.z.b.b.b.L.L.I.= X 4 J { ` ` ` { _ } | | | F.G.H.Y.Y.Y.Y.Y.Y.Y.Y.Y.] 6 g g f J h z z ) 6.9.q.q.e.e.e.e.e.q.6.6.5.2.k d y F K o ",
"n.9.9.9.9.9.9.q.q.9.9.9.T T T U U G G 0 + I F N B B B V ......+.O.O.O.O.&.-.-.-.N.5 X @ m ../ / ^ ^ ^ ] [ [ [ [ { ' ' 0.u.u.p.p.p.b.L.L.P.P.P.I.t X = / ( ( ( ( { _ _ } l..X.XH.H.Y.Y.Y.Y.Y.Y.Y.Y.Y.| 6 F h f c.(.' z ) 6.6.q.q.e.e.e.e.e.w.6.6.5.T Y k p @.p o ",
"k.9.9.9.9.9.9.9.9.9.9.9.T T Y U U G D 0 + I F N N B B V ......+.O.O.O.O.&.-.-.-.N.5 X + 5 ..I H ^ ^ ^ ` [ ' ' ' ' ' ' 0.u.u.p.s.s.L.L.L.P.P.P.L.t X * ( ( ( v ( { _ } | '.1X1X'.H.Y.Y.Y.Y.Y.Y.Y.Y.Y.D.4 F l h l l l z T 6.6.6.w.e.e.e.e.e.w.6.6.5.T T Y R Y 6 $ ",
"k.9.9.9.9.9.9.9.9.9.9.9.T Y U U G a a 0 + F F N N B B V ....o.o.O.O.o.o.&.-.-.-.<.5 X @ 5 L H H L ^ ^ ^ ' ) ( ( { ' [ 0.u.u.u.s.s.T.L.L.L.P.P.L.t   * ( v v v v { } | | | i.G.G.H.Y.Y.Y.Y.Y.Y.Y.Y.Y.F., F Y h l l l l T 6.6.6.w.e.e.e.e.q.w.6.6.6.T T Y Y h 7 - ",
"k.9.9.9.9.9.9.9.9.9.9.9.T Y U U G a a 0 & N F N N N B V / ^ o.o.o.o.o.o.#.;.-.-.<.9 X + 5 L H H J / ^ ` ( ( ( ( ' ' [ 0.t.t.p.s.s.s.L.L.L.L.P.I.t   t ( v v v v { _ } | i.i.l.G.H.Y.Y.Y.Y.Y.Y.Y.U.U.F.= g Y f h l l l z ) 6.6.w.q.e.e.q.w.6.9.6.6.T T Y Y h 8 = ",
"k.9.9.' ) ) 9.9.9.9.9.) T U U G G a a 0 * F F N N B B V ^ ^ o.o.o.o.o.o.#.*.=.=.x.q X + > N H J H J J ( Y Y ( ( ) [ [ 7.t. XP.s.s.s.s.L.L.L.P.I.6 X 6 ( v v v v { _ } | i.i.D.G.H.U.Y.Y.Y.Y.Y.Y.U.U.i.= w Y f f l l l l z ) 6.9.w.w.w.w.6.6.9.6.6.T T Y Y G 8 = ",
"k.9.' ' R ' ) ) ' ' ) T T U G G a a a 0 > F F N N B L L ^ ^ o.o.#.o.o.o.*.*.=.=.x.N X @ > C J J H H H J Y Y ( ( ) [ ' 7.b.XXP.s.s.s.s.s.L.P.P.W.y X 8 v v v v v ( _ } y.i.i.D.G.G.U.U.U.Y.Y.Y.Y.U.Y.l.* q Y f f h l l z z ) 6.6.6.6.6.9.9.6.6.6.) T Y Y J h y 9 ",
"k.' ' R R R T ) ) ) T T U U a a a a a 0 * N F N B L L L / ^ o.#.*.*.#.#.*.=.=.=.x.^ X + > m H H H F G h l Y ( ( ( ) ) 7.t.t.t.s.s.s.s.L.P.P.P.W.g X g l j v v v { _ | i.i.i.F.G.G.U.U.U.Y.Y.Y.U.U.U.K.5 w Y f f f l l l z T 6.6.6.6.6.6.6.6.6.6.) Y Y Y G h w 0 ",
"j.' ' R R R R T T T T U U a a a a i a 0 * n F N V L L L ^ ^ #.*.*.*.*.*.*.=.=.=.x.^ X @ 5 N F H H F p h h l Y Y ( ) ) 7.8.t.t.s.s.s.s.s.P.P.P.I.g X j j j j v v { } | i.i.D.G.G.G.U.U.U.U.U.U.U.U.U.^.q 6 h f f f h l l z z T 6.6.6.9.6.9.9.6.6.T T Y G h G w F ",
"9.' ' R R R R E T T U U G a i i i i a w * w F N L L L L ^ ^ o.#.*.*.*.*.=.=.=.=.x.^ o + 5 I S F F p p h h l l Y Y ) ) 7.8.t.t.s.s.s.s.s.s.P.P.I.g + ( j j j v ( { } | i.i.D.G.G.G.H.U.U.U.U.H.U.U.U.!.w t f f f f f l l l z T ) 6.6.6.6.6.6.6.) T Y Y h h p 0 P ",
"@.' ' R P R R R E U U h a i i i i i D i & w N N N L L / ^ ^ o.o.#.*.*.*.=.=.=.=.x.P + # 5 F p p S p p h h h l l Y ) ) 7.7.t.t.s.s.s.s.s.s.T.L.I.8 & ) f j j v ( _ } | i.i.i.G.G.G.G.U.U.U.H.G.G.H.G.H.w 4 y y f f f f h l z T T 6.6.6.) ) ) T T Y U G h h p w #.",
"@.@.' R K K P K K G a a a i i i i i G S & w N N N N L L ^ ^ ^ o.#.*.*.*.*.=.=.=.x.I + # q F i p p p p p g h h l l ) ) 7.7.8.t.t.t.s.s.s.s.T.s.b.3 = ( 8 f j v ( { } y.i.i.i.G.G.G.G.H.U.H.G.G.G.G.G.J.q 4 y y u f f f f l l Y T T T T T T T T T Y h h p p p w %.",
"' G R R K K K K G a a i i i i i i i G S + 9 N N N N H L ^ ^ ^ o.o.*.*.*.*.=.=.=.x.H + > n S i p p p p p p h h l l Y ) ) 7.7.t.t.t.t.s.s.s.s.s.u.; - 6 = f j v v { } | i.i.i.D.G.G.G.G.G.G.G.G.G.G.G.F.e 4 y y y y y f f h l l z T T T T T T T Y U h p p p i S h.",
"R w R R K K G a a a i i i i i i i i U S o 9 N N N N F L L ^ ^ o.o.#.*.*.*.*.=.=.x.F + 5 N S i p p p p p p h h h l Y ) ) 7.7.7.t.t.t.s.s.s.s.s.7.3 o X + y j v ( { _ | i.i.i.i.G.G.G.G.G.G.G.D.D.D.D.l.e 6 y y y y y y f f h l l T T T T T T Y Y G g p p p i K h."
};
