/* XPM */
static char *texture09[] = {
/* columns rows colors chars-per-pixel */
"128 128 235 2 ",
"   c #2B241F",
".  c #2E2620",
"X  c #352B23",
"o  c #3A2E25",
"O  c #382F28",
"+  c #302721",
"@  c #3D3126",
"#  c #3D3329",
"$  c #423426",
"%  c #423629",
"&  c #45392C",
"*  c #4B3C2C",
"=  c #4A3926",
"-  c #513E29",
";  c #463D30",
":  c #493F30",
">  c #4E402E",
",  c #52422E",
"<  c #5A462D",
"1  c #5D492E",
"2  c #4D4332",
"3  c #534533",
"4  c #594731",
"5  c #554936",
"6  c #5C4B34",
"7  c #514738",
"8  c #554B38",
"9  c #5A4E39",
"0  c #5E5037",
"q  c #5D513B",
"w  c #624E35",
"e  c #624F39",
"r  c #645136",
"t  c #6B5435",
"y  c #64543A",
"u  c #6A563B",
"i  c #66583E",
"p  c #6C5A3D",
"a  c #725936",
"s  c #725D3D",
"d  c #765C37",
"f  c #614C2F",
"g  c #75613E",
"h  c #7B623D",
"j  c #7D6239",
"k  c #5E5540",
"l  c #625641",
"z  c #665A42",
"x  c #6B5D42",
"c  c #6A5F48",
"v  c #725F41",
"b  c #785F46",
"n  c #6D6145",
"m  c #6D6349",
"M  c #746243",
"N  c #7B6543",
"B  c #7D6946",
"V  c #736649",
"C  c #746A4C",
"Z  c #7B6C4A",
"A  c #7C6548",
"S  c #7E704E",
"D  c #746D51",
"F  c #7A6F51",
"G  c #777153",
"H  c #7C7353",
"J  c #7D7855",
"K  c #7A7759",
"L  c #6A6D54",
"P  c #81663D",
"I  c #856A3E",
"U  c #8A6D3D",
"Y  c #93723E",
"T  c #99773F",
"R  c #8F703E",
"E  c #816743",
"W  c #836C45",
"Q  c #896E42",
"!  c #816649",
"~  c #836D4A",
"^  c #8A6E49",
"/  c #867146",
"(  c #8C7244",
")  c #84734D",
"_  c #8C734B",
"`  c #87784D",
"'  c #8B794E",
"]  c #8F7847",
"[  c #937544",
"{  c #937A46",
"}  c #9B7A43",
"|  c #93754B",
" . c #947B4C",
".. c #9A7C4C",
"X. c #987741",
"o. c #837553",
"O. c #897750",
"+. c #857955",
"@. c #8C7B53",
"#. c #857B59",
"$. c #897E5A",
"%. c #837758",
"&. c #927D53",
"*. c #9C7D51",
"=. c #947750",
"-. c #A17E43",
";. c #A07F50",
":. c #9C834C",
">. c #99824C",
",. c #8D8057",
"<. c #8C825C",
"1. c #85815C",
"2. c #928156",
"3. c #9B8354",
"4. c #9E8955",
"5. c #94855A",
"6. c #96895D",
"7. c #9B8B5D",
"8. c #998758",
"9. c #9F915F",
"0. c #A58245",
"q. c #AA8646",
"w. c #AC8847",
"e. c #A2844C",
"r. c #A38A4E",
"t. c #AD8C4A",
"y. c #B38C47",
"u. c #B48D48",
"i. c #B88F48",
"p. c #AE914C",
"a. c #B1944D",
"s. c #BC934A",
"d. c #BC984D",
"f. c #A38353",
"g. c #A88753",
"h. c #A48B52",
"j. c #AB8B54",
"k. c #A18E5B",
"l. c #AD8B5A",
"z. c #A98758",
"x. c #B18E5A",
"c. c #B08F55",
"v. c #AB9354",
"b. c #A4925E",
"n. c #AB965A",
"m. c #AC995D",
"M. c #A89255",
"N. c #B39356",
"B. c #B59B53",
"V. c #B99D54",
"C. c #B4925A",
"Z. c #B29D5B",
"A. c #BD9A5C",
"S. c #B9955C",
"D. c #BBA355",
"F. c #B6A05D",
"G. c #BBA45A",
"H. c #BDA95C",
"J. c #B7A056",
"K. c #8E8661",
"L. c #8D8A63",
"P. c #858460",
"I. c #938C64",
"U. c #9B8E61",
"Y. c #908760",
"T. c #969066",
"R. c #9C9365",
"E. c #9B9569",
"W. c #9A976B",
"Q. c #9B9D71",
"!. c #8F9168",
"~. c #B18F60",
"^. c #A29463",
"/. c #AB9B62",
"(. c #A39B6B",
"). c #AA9E6B",
"_. c #A49866",
"`. c #B79862",
"'. c #A49E70",
"]. c #A28F62",
"[. c #ACA26C",
"{. c #A5A06F",
"}. c #B7A668",
"|. c #ABA475",
" X c #AEAC7C",
".X c #A6A274",
"XX c #B5AA73",
"oX c #B7AB76",
"OX c #BDB178",
"+X c #BEB06E",
"@X c #C39B4E",
"#X c #C49B4E",
"$X c #C29D5B",
"%X c #CCA250",
"&X c #C1A856",
"*X c #C3A45C",
"=X c #C3AD5B",
"-X c #C8A959",
";X c #D0A652",
":X c #CBB35D",
">X c #C5B05D",
",X c #D5B55C",
"<X c #C8A04F",
"1X c #C19C63",
"2X c #C39F69",
"3X c #C5A461",
"4X c #C4A06A",
"5X c #C8AB64",
"6X c #C6B462",
"7X c #CAB662",
"8X c #CDBA64",
"9X c #CDBC69",
"0X c #C8B36C",
"qX c #D6B968",
"wX c #C4B97A",
"eX c #C6B778",
"rX c #D4B56D",
"tX c #E1BE6F",
"yX c #DAC46A",
"uX c #DBC777",
"iX c #E3C673",
"pX c #E7D578",
"aX c #E9D06F",
"sX c #F3E378",
"dX c #BBB581",
"fX c #C6BA81",
"gX c #CEC285",
"hX c #D6C988",
"jX c #D9CE90",
"kX c #E5D586",
"lX c #ECDB90",
"zX c #ECE19B",
"xX c #F7EA94",
"cX c #F3E387",
"vX c #F7E4A3",
/* pixels */
"$ * 3 w u p p s s s M M p , 3 u v M s p u u u u u u u u r w 3 * * * * , 3 6 6 r r r y u u u u y y y 6 y p s g h W W I h h h h g s w % % , , , , , , * = = % % % % @ @ @ @ @ % & % o o @ = * 2 2 3 3 7 8 9 6 q r y y y r r r q 6 6 6 6 6 6 6 6 5 3 3 3 3 3 * X X ",
"% * , r v E W / _ _ _ _ W r * u ~ / ~ N M s s p s M M M M s u 3 * * 6 s N N B B W / _  . .&. .>.4.&.r M  .>.e.h.j.h.r.r.e.e.e.e.>.E * * h h s s s s t r w 4 3 , * * * * * > , , * @ o % 2 8 6 9 6 6 r y p p x V M M M V M n x x x x x p p i r w 6 6 6 6 6 * X X ",
"* * , u M B W / / '  .3.h.W , r &.&.O.) ~ B N M M M N N N N N p 3 6 M W / _  .>.:.3.h.m.0X}.n.b.b./ r B 4.F.3XH.G.Z.Z.Z.Z.Z.N.j...W * * t P :.r.r.:.[ / E s r 6 3 4 4 6 r r r r r * # * 8 p M p p p p p p x M M M M M M M M M M M M M M M x x y w 6 6 4 4 = X X ",
"% * 4 u s M N B ~ ~ ) &.n.3.r p &.3.@.) ~ Z N v v v v v v v v M r u v M N B W ~ / ` / `  .3.4.4.4. .B / k.Z.b.4.3.&.@.) / W N s s w $ * 4 r ( g.:._ W B s u w 4 4 4 4 4 6 6 r s s r & 3 p W N r q 9 9 9 9 9 q r y y i i x x x x x x x x i i i r w w 4 3 * o X X ",
"o * w u s s M B ~ ~ ) O.&.8.g p &.3.@.O.) Z N N M v v v v v M M M M v M N B Z B B B B B ~ _ 3.4.4.4. .3./.b.8.2.@.) S Z M x p r r , @ * 4 r h _ E N N p y w 6 4 4 4 4 4 4 4 4 6 r y 3 8 M p r 9 8 8 8 8 8 8 8 8 q q r y i x x x x x x x x i y r w w 6 * $ X X X ",
"o * w r p s M N E ~ ) O.@.8./ g 3.3.@.O.) Z B N N M M M M N N N B N N N N B B B B B B B ~ ~ ) &.k./.b.b.k.3.,.@.@.) Z B M x p y r , @ , 6 r E W B B M p y w 6 4 4 4 4 4 4 4 6 6 r i r 9 p r 9 8 8 8 8 8 8 8 8 8 q r y i z x x n M M n x x x i y r 6 6 * @ X X X ",
"o * w w u s s M B ~ ~ ) O.&.&.E 3.3.&.O.) Z N N N N N N N B B B B N N N N B B B B Z B Z ) ) ) O.7.[./.5.&.@.@.@.O.) Z B M x p p r * @ , w s E B B B v p y w 4 4 4 4 4 4 4 6 6 r y p p y i r 9 9 8 8 8 8 8 8 8 8 q y y y i x x n V V V M x x i r w 6 6 3 % X X X ",
"o * w w r p s M N B ~ ) ) O.&./ 3.3.&.O.) Z N N N N N N B B ~ Z B B N N N B B B B Z ~ ) ) O.@.@.2.8.7.&.@.@.@.O.) Z Z V M x p p u * $ 4 r N B B B N v p r w 6 4 4 4 4 4 6 w r y p x p p y y q 9 8 8 8 8 8 8 8 8 q r y y y z x x V V V V M x x r 6 4 4 3 % o X X ",
"o * 6 w r u s s M N B ~ ) ) @.&.3.3.&.@.) Z B N N N N B Z ~ ) ~ B Z B B B Z B Z B Z ~ ) @.@.&.2.&.2.@.@.@.O.O.) S Z B M M M x p y = % 6 p B B B B N v p r w 6 4 4 4 4 6 w r p p M M v p y r 9 9 8 8 8 8 8 8 8 8 9 r y i z x x x M V M V M x x r 6 4 , = @ X X X ",
"o * 6 w r u p s s v N B ~ ) @.&.3.3.&.@.) Z B B B B Z ~ ) ) ) ) Z B B B B Z Z ~ ~ ~ ) @.2.5.5.5.5.2.@.@.@.O.O.) S Z Z V V x x x r % * r M B E E B N v p r r w 6 6 6 6 w r y p v M M v p y 9 9 6 8 8 8 8 8 8 8 8 9 r i z x z x n V V M M V x x r 6 3 = o X X X X ",
"o * 6 w w u p s s s N B ~ ) O.&.&.8.3.&.) ~ Z ~ ~ ~ ~ ) ) O.O.) ~ B Z Z Z ~ ~ ) ) ) ) @.5.6.6.6.5.5.2.@.@.O.O.O.) Z B V M x x x 9 # , p N E ~ ~ B N M p u r r r r r r r y p p M M M p p r 9 9 8 8 8 8 8 8 8 8 8 9 q y z x z x x x V V V M x i w 6 3 = $ @ o X X ",
"o , 6 w w u p s s s M N B ) ` @.&.3.3.&.O.) ) ) ) ) ) ) @.@.@.) ~ ~ ~ ~ ~ ~ ) ) ) O.@.2.6.6.6.6.5.5.5.@.@.@.O.) S Z B M M M M x 3 % 8 v B ~ ~ E B B N M x p p y y y y y i p M M M M p i r 9 9 9 8 8 8 8 8 8 8 8 9 r i z x x x x x n V V n x i r 6 4 , * * % X X ",
"o , 6 w w r u s s s s M B ~ ) O.&.&.&.@.O.) ) ) O.O.O.@.@.@.@.O.) ~ ~ ~ ) ) ) ) @.@.@.5.6.7.7.6.6.5.5.5.@.@.@.) S Z Z B B B M x 2 % 9 M ~ ) ~ E B B N N M M v p p p p p p v M v M v p i r 9 9 9 9 8 8 8 8 8 8 8 9 r i i i z i i z x V V x x i r w 4 3 * * = X X ",
"@ , 6 w w w u p s s s M N E ~ ) @.@.@.O.O.O.O.O.@.@.@.@.@.@.@.) ) ) ~ ~ ) o.O.@.@.@.5.6.7.7.7.7.6.6.6.5.2.@.@.) S Z Z Z Z Z N x * % 3 M ) ) ~ ~ ~ B B B N N M M M v v p s M M M v p p y y q 9 9 6 8 8 8 8 8 8 8 q q r r q q r y i x x n x x i r r 6 4 3 3 = X X ",
"@ , 6 w w w u u p s s s M B ~ ) ) ` O.O.O.O.O.@.@.@.@.2.2.@.@.O.) ) ) ~ ) ) @.@.@.5.6.7.b.b.b.7.7.6.6.6.5.&.@.) ) ) ) ) S Z B x & % 7 9 ~ ` ~ ~ ~ E B B B N N N M M M M M M M M p p y r r 9 9 9 8 8 8 8 8 8 8 8 q q q q q q q q y z x x x x x i r 6 4 4 * $ o X ",
"$ , 6 w w w r u u u p s s M B ~ ) ) ) ` O.O.@.@.@.@.2.5.2.2.@.) ) ) ) ) ) O.@.2.5.6.7.7.b.b.^.b.7.k.6.6.5.2.@.O.@.@.O.O.O.) B i % % 2 8 E &.) ~ ~ ~ E B B B N N M M M M M M v p p i y 9 9 9 9 9 8 8 8 8 8 8 8 8 9 q q q q q q q r i x x x x x x i w 6 , $ $ o X ",
"$ , 6 w w w u u u u u p s v N B E ~ ~ ) ) O.@.@.@.2.2.2.5.2.O.) ) ) o.) ) @.2.5.6.7.b.b.b.^.b.b.b.k.6.6.5.5.&.@.@.@.@.@.@.O.Z 9 % & 7 6 B =.O.) ~ ~ E B B B N N M M M M M M v p p y y 9 9 9 9 9 8 8 8 8 8 8 8 8 9 9 9 9 q q q q y i i i z x z x y r i * $ $ o X ",
"$ , 6 w w r u u u u u u s s M B B ~ ~ ~ ) ` @.@.@.2.5.2.5.2.@.O.) ) O.O.@.@.5.6.b.b.^.b.b.b.b.b.k.7.6.6.6.5.2.2.@.@.@.@.@.@.C 2 # & 7 6 B 3.=.' ) ~ ~ B B B N N M v M M M M p p p y r 9 9 8 8 8 8 8 8 8 8 8 8 8 8 8 8 8 9 q q q r y y i z x z x x i z * $ $ o X ",
"$ , 6 w w u u u u u u u s s M N B B ~ ~ ~ ) ) O.@.@.2.2.5.2.@.O.) ) O.@.2.5.6.b.b.^.b.b.b.b.b.b.^.7.7.7.6.6.5.5.2.2.2.@.@.@.n 2 % & 7 6 ~ 4.*.=.) ~ ~ B B B N N N M M M M M x p i r 9 9 8 8 8 8 8 8 8 8 8 8 8 8 8 8 8 9 q q q q r y y y i z z z z z z * $ $ o X ",
"$ , 6 w w u u u u u u u p s M M M B B B B ~ ~ ) O.@.&.2.5.@.@.O.O.O.@.@.5.6.7.b.b.b.b.b.b.b.b.b.b.b.b.7.7.7.6.6.5.2.@.@.@.@.x 2 % & 8 r @.4.3.=.O./ ~ B B B N N M M M M M M p p y r 9 6 8 8 8 8 8 8 8 8 8 8 8 8 9 q q q q q q q q y y y y y y y y i z : $ $ X X ",
"$ , w w r u u u u u u u p s s M M B B B B B ~ ~ ) ` @.&.2.@.@.@.@.@.@.@.2.8.4.k.b.b.b.b.k.k.k.b.b.^.b.b.b.7.6.6.5.2.@.@.2.o.x 7 % & 6 y ].k.3.&.O./ ~ E B B N M v v M M M p p i y q 9 8 8 8 8 8 8 8 8 8 8 8 8 9 q q q q 9 9 q q q r r r q q q 9 9 9 q * $ @ X X ",
"@ * 4 w w u u u r r u u u s s M N N B B B B B E ~ ~ ) O.@.@.@.@.@.@.@.@.&.5.4.k.k.k.k.k.4.4.4.k.b.b.b.b.b.b.7.6.2.@.@.@.@.V x 8 % & 6 r &.k.&.&.` ~ ~ B B B N M M M M v p p i y r 9 8 8 8 8 8 8 7 7 7 8 8 8 8 8 9 9 9 9 8 8 9 q q q 9 9 9 8 8 8 3 3 7 & $ @ X X ",
"@ $ - 6 w r u r 3 r p u u s s M N B B B B B N N B B ~ ~ ) ) ) O.@.@.@.@.@.&.&.8.4.3.3.4.8.&.3.k.b.b.b.b.^.^.^.6.2.@.@.O.n y y 8 % * 3 q B 3.&.&.` ~ E B B N N M v p p p p y r q 9 8 8 8 8 8 7 7 2 7 7 8 8 7 8 8 8 8 8 8 8 8 8 9 q 9 8 8 8 7 7 3 * = % % $ o X X ",
"o $ = , w w u 4 * N ' p u p s s M N N B N N M M M N N B B ~ / ) O.@.&.&.&.&.&.&.&.&.@.&.&.&.&.8.k.k.k.b.^. X|.6.,.O.Z x 9 9 8 2 % * 7 r p N ~ ~ Z N s p p p p y y r r r q 9 9 8 8 8 8 7 7 2 2 2 % & : : : : : : 2 2 2 2 2 2 2 2 7 2 2 2 * * * = % @ o o o o X X ",
"o @ @ $ * * * % $ * 3 , 3 3 6 w w r r y r r r r r r r r r r y p p M B B E W W E B M p p p u p p p M M M N Z B M x y 3 & & & & & # & 2 2 * * * , , > * & = = = & % % & & & & & & & & & & & % % # o o o o o o o o o o o o o o o o o @ @ @ o o o o X X X X X X X X ",
"o o o o o o o o o o o o o o o o o o o o o o o o o o @ @ @ @ $ $ $ $ % = * * * = = $ $ $ $ $ $ $ = * * * * , , * * = % % # % % % & = = & & & = * * * & # # # # # # @ @ @ # @ # # # % % % # # # # % % # # # % % # o @ @ @ @ @ @ @ # # # # # @ @ @ @ @ @ @ @ o o o ",
"* * * * * * * * , 3 , , * * * * = % $ o o o $ * * , 3 3 3 4 4 6 6 6 w u u p u 4 3 = * 4 r r r r u p s M N N N M M M x p i i i y y y i i x x x i i x n x z i y r q 8 2 2 9 c c z z c z z y q q 9 9 9 9 9 q q q 8 # * 2 2 2 2 2 3 3 3 2 2 3 3 3 2 2 2 3 3 3 2 * * ",
"w 6 6 6 6 6 , 3 p r r r r r u r 4 3 * @ o $ * 4 r p N B B E ~ _ | &.3.h.n.m...N p > = 6 B  . . . .>.8.3.4.k.4.8.&.@.@.@.@.@.O.) ) ) ) ) O.O.) ) Z o.6.@.@.,.,.@.Z y 2 2 m 6.+.o.o.Z Z C V x z z l z x x n n n l * 6 q 9 q r y y i y y y y i i i 6 6 p p p y r q ",
"u u u u r w < u u r u p p s B s 6 4 * @ o = , 4 w s ^ W W ^ _ |  .3.h.M.}.}.h.W s 4 $ 3 r  .}.>. .>.k.8.&.3.&.' ` ) ) O.@.@.@.@.@.@.2.2.5.6.6.5.5.O.6.U.R.T.E.R.B r 2 2 n U.6.5.@.+.H B B C m n n n n n m m m x 8 q x V Z B V m n n n x M M M M x x W ( W N s p ",
"p p u u u r w r r r r u p s W s w 4 , @ o * 3 6 u B s s s s s s B W _  .h.m.M.| N w $ , 6 B k. .' '  .@.` ' ' ) ) ) ) ) O.@.@.@.@.@.&.2.5.5.6.6.R.6.) R.E.R.E._.B y * 2 q n H 6.6.@.%.S Z S V n x n z l x m m n l z S 7.,.B m m n n n M M M M N B N / / W N s s ",
"M s s p u r r r r r r r u s ^ M r 6 3 @ o * 3 r B s u u p p p s s N E _ ..3.f. .E r * , 6 M / ) ) ) ) ) ` ` ) ) ) ) ) ) ) @.@.@.@.@.2.5.5.5.5.6.R.).o.@.E.R.E.T.Z q & 2 8 8 9 C 6.5.,.@.<.O.V x z z l l x m m V z n 6.+.Z V m m n n n n M M M N B W / / E N s M ",
"N M s s p u r r r r r r u u g s r w 3 @ o * 3 u s u u u u u u u p s s E _ | .. .E r * , w M ~ B Z Z Z ) ) ) ) ) ) ) ) ) ) O.@.@.@.2.2.5.5.5.5.5.6.(.U.6.R.R.R.T.o.q # ; 7 7 8 q H 6.U.R.I.C n x z l l l x n n C C n Z C V m m m n n n M M M N B W / W W W N N N ",
"N N M s s u u r r u u u u p s s u w 3 @ o * , u s u u r r r r u u u p N W / _ / s 6 * > r N B B B B B Z B ~ ) ) ) ) ) ) ` @.@.@.@.2.2.5.5.5.5.5.6.6.R.E.R.T.U.U.+.9 # ; 7 7 7 9 C (.'.I.S V n x z l l l x n n C +.C V m m m n n n n n M M B B E W W W W W B N N ",
"B N M s s p u u u u u u p s s s p w , @ o * * r s u u r r r r u u u s s E W W B r 6 * * u N N M B Z B B B Z ) ) ) ) ) O.O.@.@.@.2.2.5.5.6.6.6.6.6.6.6.U.U.6.6.6.o.8 # ; 7 7 7 7 F W.<.H V m n x x z l z x n m m C C m m m n n x n M n M M B W / / ~ ~ ~ W W W W ",
"B N N M v s p p u u u u u p s s p 4 * o o * * 6 p u r r r r r u u p s s N B E N 6 3 = * p M M M N B B B B ~ ) ) ) O.@.@.@.@.@.2.5.5.6.6.6.6.6.6.6.5.5.6.6.6.6.5.S 8 & ; 7 7 7 7 C <.H C m n n x x x x x n m m m m m m m n n x x x x n M N B W / / / / ~ W W W / ",
"E B N N M s s s p p u u u p s s u 4 * o o * * , u u r r r r r r u p s s h B B N 6 3 % = y v v M M B B B Z ) ) ) @.@.@.@.@.2.2.5.6.6.6.6.6.6.6.6.5.5.5.5.5.5.5.@.Z q ; ; 2 7 7 7 x o.Z C m n n x x x x x n n m m m m m n n x x x x x M M B Z ) / / / / / ~ W W / ",
"W E B N N v s s s s s p p p s s p u 4 @ o * 3 3 4 6 w w r r r r u p s s h B B h r 2 $ $ , u v M M B Z Z Z ) @.@.@.2.2.2.2.5.5.6.6.6.6.6.6.6.6.5.,.$.,.2.$.$.@.+.B q ; ; 2 7 7 7 q G B V m n x x x x x x n n m m n n n x x x x x x x M M B ~ / / / / ~ W W / ~ W ",
"W W B N N N M M M v s s s s s p u u 3 @ o * 3 6 6 4 6 w r r r r u u s s N B B N y * $ $ * 3 p M N B B Z ) ) @.@.2.5.5.5.6.6.6.6.6.6.6.6.6.5.5.,.+.+.@.$.@.+.+.o.V q * ; 7 7 7 7 8 V V m m n n n x x n n n n m n n n x x x x x x x x M M B ) / / / / ~ W W / W W ",
"W W B N N N N N N M v v s v s s p u 3 @ o = 3 u v r w w r r u u u p s s h h h h r * $ * 4 r p v M N B Z ) ) @.@.5.5.6.6.6.6.6.6.6.6.6.5.5.5.5.,.+.+.+.+.+.o.o.Z M q & : 7 7 7 7 7 q m m m n n n n n n n n n n n n x x x x x x x x x M M B W / / / / / W W ~ W W ",
"~ W E B N N N N N N M N N N M s s p 4 $ o % 3 6 w w w r r r u p s s s h B E P h r 3 $ > r p v v M M N Z ) ) @.2.5.6.6.6.6.7.6.U.6.6.6.6.6.5.5.2.+.+.+.+.o.S Z B n q & 2 7 7 7 7 7 q m m m n n n n n n n n n n n n x x x x x x x x n M N B B ~ / ) ) / ~ W ~ / / ",
"W W W E N N N N N N N N N N N N M p 4 % o % , 6 w w w r r u u s s s s B W Q W B u 6 % * y p p p v v N B ) ) @.2.5.6.6.6.U.^.^.^.U.6.6.6.6.5.5.,.+.+.+.o.o.Z Z C n y * 2 7 7 7 7 7 q m m m m m m n n n n n n n n n x x x x x x x n M M N B B W / / / / / / W W ~ ",
"W W W B N N N B B B B N N N N N N s 4 % o % * 4 w w w r r u p s s s N E W ( ( E u 6 = * y p p p p x M B Z ) @.2.5.6.6.6.R.^.^.^.^.U.6.6.6.5.5.@.+.+.o.o.Z Z B M n i ; 2 7 7 7 7 7 q n m m m m m n n n n n n n n n x x x x x x x n M M N B B W / / / ) / / W W W ",
"W W E B N N N B W W E B N N N N N M 6 * o % * 4 w w w r u u p s s B E W ( [ [ Q p 6 * > y p x p x M M N B ) @.@.5.5.6.7.^.^.^.^.^.^.7.6.5.5.,.+.+.o.o.S Z B C V x i : 2 7 7 7 7 7 8 l x m m m m n n x x x x x n n x x x z x x x x M M N B B W W ~ / / ~ W W / / ",
"W W B N N N N B W W W E N N N N N M 6 * @ % * , w w w r r u s s h W W Q [ | [ ( s w * , y p v M x M M N B ) O.@.2.5.6.U.^.^.^.^.R.^.7.6.5.2.@.+.O.o.Z Z Z C V V x z 2 ; 7 7 7 8 8 8 8 q x m m m n n x x x x x x x x x x i z x x x n M N B B Z W W W W ~ W ~ W ~ ",
"W B N N N N N B E W W E B N N N N v w > @ % * , w w w r u p s s B W W [ [ [ [ _ g r * 3 u p v p p v M M N Z ) @.@.5.6.7.^.^.^.R.6.7.6.6.5.@.+.o.o.Z Z B C V V V x i 2 & 7 7 7 q m C m m m m m m n x x x x x x x x x z z z z z x x x M M N B B W W W W W W ~ ~ ~ ",
"B N M s s s s N E E W W E N N N N v w , $ % * * 6 w r u u s s s B W ( [ | | [ | B u - 3 u s v s v v v v M B Z ) @.2.5.6.U.^.^.7.6.7.6.6.2.+.o.o.Z Z Z C V M V V x y ; % 2 7 7 7 q Z C C V m m m n z z z z x x x x z z l z z z z x x x M M N B B B B B B B B B B ",
"s s s s s s s N E E E W W E E B N s r , $ $ * * 3 w u p s s s h E W ( [  ...{ [ E u - , y p v v v v M v M N B ~ ) O.@.@.O.6.U.6.6.6.6.6.$.+.o.S Z Z B V V V V V x q ; # ; 2 7 7 8 C C C V m m n x l q q y z z z z z y i i y y i p p p n M M M M N N N N B N M M ",
"u u u u p s s M B E E E E E E B N s r , $ $ % * * 3 w s s s s h E W ( | ....f.h./ u * > r y p v p p M v v M N Z ) ) ) M r V 5.6.6.6.6.2.@.o.o.Z Z Z C V V V V V x z 7 # & 2 7 7 8 V C C m n n x y q 9 9 9 q y y q q r r r r y y y p p p x M M M M M M M M M x p ",
"4 4 4 4 6 w r r p M N N M N N M N s r , @ @ % * * , 4 r s s N B E W ( | ....:.h.W r * > r r y v v v v p s x v N Z B M y q y x Z S o.@.@.+.o.H Z B C V V M V V M x y 8 # & ; 2 7 7 z z l q q q 8 7 2 2 2 2 2 2 2 7 7 8 8 8 8 8 9 9 q r y y y y y y i y y r r w 6 ",
"$ % $ % % % % = * * , , , , , , , , , = o o @ % = * * 3 r u p s s s s s B Q |  .s 6 * , 6 4 4 6 6 6 4 6 4 3 3 3 6 6 5 6 9 9 9 9 9 r z x n M V M V V V M n x x x x y 3 # & ; ; ; ; & # # # # # # # # % # # # # # # # # % % % % # % % % & & & & & % % % % % % % % ",
"% = % % $ $ $ % $ $ % % $ $ $ $ @ @ @ o o o o o o o @ $ % = * * * * * * * 3 4 6 3 * = = * * * = = = = = % % % % % % % * * * * * * > > 3 3 8 6 9 y i i i y y r q 9 3 * # # # # # # # @ @ @ @ # @ # @ # @ # # # # @ @ @ @ # # % # @ # # # # % % % % % % % % % % % ",
"p p p p p s s s s g s p u r r r r r r 3 * , w r w w w w w w w w w w r r r r r p t w 4 3 3 3 , , 3 3 3 , , , , , , , 3 4 4 6 4 4 = 3 i p p p M V M i y i i i q q q 8 7 8 2 2 2 7 7 7 2 ; # # % & ; ; ; 2 2 2 2 7 7 8 7 8 k c l q ; % 2 8 9 r r y i y r r r y y i ",
"/ / / W / _  . .>.:.r.:. .( / W W W W N 6 u Q ( [ [ { } } } } } } } ..:.e.B.>.=XJ.B.p.r.>.{ { { ] ( ( ( ] {  . .{  .:.M.4. .4.>.6 n 3.2.8.[.eXeXXX/.b.b.^.^.9.6.6.<.$.+.G m m m m m n q ; ; 8 k k k l z x n m C D G J +.#.#.H C q * 2 r M M B B N N N N B B ~ ~ ",
">.h.M.M.M.M.M.M.F.5XH.H.J.B.v.v.v.v.v.{ u h 0.t.B.&X&XD.&X:X:X7XuXuXyXuXpXpXJ.yXiXyXyXyX9X,X:X:X:X=X=X=X=X=X=X=X7XqXuXpXpXkXpXF.y n 2.7./.gXhXgXwXoXXXXXXXXXXXXX[.{.(.(.R.G D G G G C m 7 7 n m m m C C G J #.1.<.6.U.R.^._.6.+.l 2 8 p B N Z 2.~ B W / ` ` @.@.",
"h.h.m.Z.F.}.Z.Z.}.5XG.G.H.H.=X:X:X>Xp.P ( ..V.-X-XD.V.V.D.=X=X=X>X:X7XyXpXyXyXpXyXyXyXyXyX8X8X8X8X:X:X:X,X8X8XyXyXyXpXxXxXpX6X:.r M ' /.eXgXgXgXwXoXoX[.(.(.[.[.[.(.(.[.T.H J J J J G C x c m C G G J J +.%.<.E.XX).[.[.[.[._.,.y 2 9 M ) Z ) 2.@.) ) ' @.@.5.8.",
"h.M.Z.}.5X}.m.h.r.r.r.r.r.r.v.D.=XJ.Q h } -X:X-XV.a.B.B.B.D.D.D.D.D.&X&X>X:XyXyX:X:X:X:X=X&X&X&X=X>X>X>X>X>X>XH.V.J.6XpXpX8XB.( r M ,.XXwXwXwXOX[.[.[.).(.(.(.(.(.W.W.{..XP.P.1.#.J J G C C D G D D D D J J %.<._.(.E.E.(.)._.@.9 7 y Z ) ) ) @.' ` ` @.&.5.4.k.",
"n.m.Z.5X3XZ.m.h.h.r.r.e.e.:.:.r.v.r.W h >.-X&XB.a.a.a.a.B.D.D.D.D.D.D.&X&X&X:X:X:X:X:X:X>X&X&X&X&X=X>X>X=X=XH.V.B.V.H.8XaXyXr.B 0 V 5.oXwXwXOXXX[.).(.(.(.(.(.(.(.W.E.W.|.Q.!.L.L.P.1.J J J G D D D G J J %.#.<.K.I.E.E.(.(.6.C 8 8 x ) ' ) ) @.@.@.@.@.8.7.b.b.",
"Z.Z.F.F.F.Z.m.M.h.r.:.:.:.......:.:.W I t.a.p.t.t.t.p.a.B.B.V.D.D.B.V.D.&X&X=X:X:X:X:X:X:X=X&X&X=X=X=X=XH.H.V.B.B.B.V.=XiXqX:.g 0 B ^.wXwXwXOXXX[.(.(.E.E.E.E.E.E.E.E.E.Q..XW.!.!.!.L.L.L.<.G D D G H J #.<.<.K.I.T.E.W.(.{.I.x 2 8 n @.@.@.2.@.@.@.@.5.4.b.b.b.",
"F.F.Z.Z.Z.m.n.h.r.:.:.:.} } } } } ..Q } q.w.q.w.t.t.t.a.a.B.B.V.B.B.B.B.D.D.=X:X:X:X:X:X:X:X=X=X=X=X=X=XH.H.B.B.B.B.B.J.9X=X>.g 9 Z XXwXwXwXwXXX[.(.E.E.T.E.E.T.T.T.T.T.E.Q.Q.W.W.!.W.Q.L.J D D G G J J #.<.K.I.T.E.(.'.{.|.I.q 2 8 V @.&.7.5.@.@.&.5.8.k.b.b.m.",
"F.F.Z.Z.Z.n.M.h.e.:.:...} } } } } } X.0.q.q.0.0.w.w.t.p.a.B.B.B.B.B.a.a.V.D.&X>X:X:X:X8X8X:X:X:X:X>X=X=X=XH.V.B.B.B.B.V.>XJ. .y 6 ,.wXwXwXwXeXXX[.(.E.T.T.T.T.T.T.T.T.T.T.E.Q.Q.Q.Q.Q.P.G D D G G J J %.#.<.I.T.E.(.{..X|.|.#.8 2 8 M @.6.6.2.@.2.2.5.4.b.b./.m.",
"F.F.F.Z.m.n.h.r.:.:.:.} } } } } } } -.q.0.0.0.0.0.q.t.t.p.a.a.a.a.a.a.a.B.D.&X=X:X:X8X8X8X8X8X:X7X:X=X=X=XH.J.B.B.V.G.J.H.B.( 0 9 (.wXwXwXwXoX[.(.E.E.T.T.T.I.I.I.T.I.I.I.I.I.!.Q..XL.K G D D D G J J %.$.K.I.E.(.{.|.|.|.'.V 8 2 8 M 2.^.5.2.2.2.5.8.7.b.m././.",
"}.F.}.F.Z.n.h.:... .{ } } } } } } ..0.q.0.0.0.0.0.q.w.t.t.p.p.a.a.a.a.a.B.B.D.=X:X8X8X8X8X8X8X7X6X6X>X=X=XH.V.B.B.G.H.J.J.v.( 6 9 ^.OXOXOXXX[._.E.T.T.T.T.I.I.I.I.I.I.K.<.<.<.#.K P.K G D D D D D J +.#.<.L.T.E.'.|. X X XW.n 9 2 9 V 2.^.2.5.5.8.8.4.b.b.m.m./.",
"}.Z.F.Z.Z.M.h...{ { [ [ [ [ X.} } -.q.q.q.0.0.0.0.q.q.w.t.p.a.a.a.a.a.a.B.D.&X:X8X8X8X8X8X9X9X8X7X6X6X>XH.J.B.B.J.H.H.G.B.r./ 6 3 V [.XX[.(.R.7.I.I.I.I.I.I.I.I.I.I.<.1.1.1.1.K L L K G G D D D D D J #.K.I.I.W..X|. X X XW.x q 2 9 B 2.6.8.8.4.k.b.7.b.b.b.m./.",
"Z.F.Z.Z.m.M.h. .( ( ( [ [ [ [ } ..-.0.q.w.0.0.q.0.q.w.t.t.p.a.a.a.a.B.B.V.D.=X:X:X8X8X8X9X9X9X9X8X7X6X>XH.H.J.J.H.H.H.J.B.:./ 6 3 6 o._.U.7.6.6.6.6.I.I.I.I.I.I.I.Y.<.1.1.#.K K K K K K G G D D D D G #.K.I.T.(.|. X X X XW.n q 2 q S ,.5.5.8.k.b.b.b.b.b.b././.",
"Z.Z.Z.Z.M.r.:.{ ( ( ( [ [ [ [ } } -.0.w.t.q.0.q.q.w.t.t.t.a.a.a.a.a.a.B.D.=X=X:X:X8X8X8X9X9X9X9X9X8X6X6XH.H.H.H.H.H.V.v.r.>./ 5 2 3 n 5.5.,.,.,.,.,.,.<.<.<.I.I.I.K.<.1.#.J J J G G G K G G H J G G J +.<.K.T.'.|. X X X X(.V q 2 q H ,.8.5.8.k.b.b.b.b.b.b.m./.",
"Z.Z.Z.m.h.>. .( ( ( ( ( [ [ [ X.} -.0.t.t.q.0.0.0.0.0.q.w.p.a.a.a.a.a.B.D.=X=X:X:X8X8X8X8X9X9X9X9X8X6X=XH.H.H.H.H.H.H.M./ [ / 3 2 i ) ,.@.@.@.,.,.,.,.,.,.<.K.I.I.<.<.1.J J J G G G G G G G J J J J J J #.<.T.'.|. X X X X(.C 9 2 8 n @.5.5.8.k.b.b.b.b.b.b.m.m.",
"Z.Z.Z.n.h.:.{ ( ( ( ( ( [ [ [ [ } -.q.t.t.q.0.0.0.0.0.0.q.t.t.p.a.a.a.B.D.D.=X:X:X7X8X8X8X9X9X9X8X6X6XH.H.H.H.G.J.V.J.Z.:. .B > 3 Z ' ' ' ` ` @.,.,.@.@.,.,.<.<.<.<.<.#.J J G G D C C C D G J J J J J #.#.K.T.'.|. X X X|.(.V 9 2 9 z ) 5.8.4.b.b.b.b.b.b.b.m.m.",
"m.Z.Z.M.f.>.{ ( Q I Q ( [ [ [ [ } } q.t.t.0.0.0.0.0.0.q.0.q.w.t.p.a.a.a.J.D.=X=X:X:X:X8X8X9X9X9X8X6X=XH.H.H.H.V.B.B.J.=XM.4.B > 3 B ' ` ` ` ` @.,.@.+.+.@.,.,.,.1.1.1.#.J J G D C C C C C C D G J J J #.<.K.E.{.|. X X X X(.V 8 7 y x ) 8.4.7.b.b.b.b.b.b.b.b.b.",
"n.m.Z.M.:. .{ ( Q I I / ( [ [ X.} } q.t.t.q.} -.0.0.0.0.0.0.0.0.t.p.p.a.D.D.D.H.=X=X>X:X8X9X8X8X6X6XH.H.H.H.G.v.v.v.J.9XZ.:.W > > p ) ` ` ` ` @.,.) o.+.+.@.@.@.1.1.#.J J H G C C C C C C C C C G J J %.<.I.E.'.|. X X X X'.V 8 8 i M @.b.b.b.b.b.b.b.m.m.m.b.b.",
"n.h.n.M.:. .[ ( I I I I ( ( [ X.} ..q.t.t.w.} } ..0.0.0.} } } } q.t.w.p.B.D.D.D.D.H.=X>X8X8X6X6X6X=XH.H.H.H.J.v.r.r.v.6Xh. .N 3 * r B ` ` ` ` @.) N S +.+.+.+.+.+.+.J J J G D C C C m m m m V C C D J J $.K.E.'.|. X XdX X(.V 8 8 x S 7./.b.b.b.b.b.b.m.m.m.m.m.",
">.W h.M.:. .( Q I I I I Q ( [ X.} -.q.w.w.q.} X.} } } } } } } } 0.q.w.p.a.a.B.V.D.D.H.=X>X6X>X=XH.H.H.H.H.H.V.r.:.:.r.r. ./ g 3 * 5 p ) ` ` ' ) ) 8.) +.+.+.+.+.+.J J J G D C C C m m m m m m m C C G J #.<.I.W.{.|. XdX XE.V 8 9 M 5././.^.k.b.b.b.b.m./.}.}.}.",
"h u _ h.:. .( U P h P I I ( [ [ } -.0.0.0.0.} Y X.X.} } } } } } 0.t.p.a.a.a.a.B.B.D.D.D.H.H.H.H.F.F.F.G.H.H.G.M.>. . .] ( B p , % 3 6 V ) ' 2.2.).R.o.+.+.+.+.+.J J J G C C C C C m n x n n m m V C C H +.$.K.T.E.(.{.{.E.<.m 8 8 ) b././.b.8.7.b.b.b./.}.}.9Xm.",
"g w N _ :. .( I h t a P I Q ( [ } } -.-.-.Y d U U Y Y X.} } } } -.t.a.B.B.a.a.a.a.B.J.J.F.F.V.B.B.B.B.Z.F.V.B.r. .( / / W g r , @ 2 3 9 N ' 3.2.@.S S o.o.o.+.+.J G D C C V n n m x x x x x x n m C C G %.$.<.I.E.E.E.I.<.+.x 7 8 ` b.b.b.k.4.4.4.4.k.b./.}.9Xh.",
"/ < t B ( { Q P d < w h I I ( [ [ } } } X.j d Y U U U Y Y Y Y X.} q.B.&XD.p.p.t.p.a.v.v.v.h.r.r.r.r.v.B.v.r.>.] / / W B N s r , @ > 3 3 y g M N N M Z Z Z Z S o.J G C C C n x x x z z i z x x x x m V G %.<.<.K.I.I.<.#.+.o.z 2 7 M @.&.&.' ` / / / ' 8.b.}.0XF.",
"W , , t r p a s t - , t d P P I Q ( [ [ Q j I X.I I I U U U Y Y Y } D.:XJ.>.r.r.r.r.r.:.} { { { { >.:. .( / E N g g s s s s r * o & 3 3 6 r r p s g N B B B B Z Z Z C C m y 9 9 9 9 9 8 9 9 9 q q y y x m F C n z y y q 9 q 9 : 2 7 q i p i r r 6 6 4 w u s N / ",
"* $ $ $ $ $ $ * - $ $ = * , , , , < w a d a a a a t t t t a d d j j ( >.I t I { ( ( h g s p p t r r w 6 4 4 3 , , , * * * * * $ o @ = & * * 2 3 3 3 5 9 8 8 9 q q q 9 8 2 & & % % % % % & & & * * : 2 2 2 2 * * & & & & & & & % = & * * * * * * * & & & & * * * ",
", * * * $ $ $ $ $ $ $ = = $ $ $ $ $ $ * * * * * * * * * * * * * * = * * * * * , , , * * * * * * * * * = = % $ $ $ $ $ @ @ o o o o o o o o o @ @ @ @ o @ @ @ @ @ @ @ @ o o o o o o o o o o @ % * * * * * * * * * * * , 3 4 6 w u u u u u u u u r 6 6 w w 6 3 - * ",
"0X0X=Xj.w $ f a j I R Y Y Y U U j j d d a t t t t w , * , r t t p t r r w w w w w 6 4 < 4 1 6 6 6 6 w w w 6 4 , , , , , , , , * * * * * = % % % = * * * * * * * * * * , , , , , , * @ o # * r B Q / _ | | | | _ / B W  .f.x.C.A.A.A.A.5X5X3X3X3X3X-X-X5X-X5X4X4X",
"xXxXsX*Xu $ , t I -.y.w.w.w.q.} U U I P j d d h h d 6 * , E :.h.j.r.:...( Q Q Q Q Q / ( [ ( | [ [ [ [ [ ( ( / Q / Q E h h I U U I h p t w w w w r r t t t p p p s g N N B N N g p 3 % % & 3 w | x.x.S.A.$X$X$XA.S.c.e.N.5XrXuXrXrXqXqXiXiXpXpXpXpXcXcXcXcXxXvXvX",
"xXxXpXH.u @ * * , a I d d j h h h h a a a t a d h a < * , p h.M.v.N.M.e.:. . .{ ..e.j.v.v.N.N.*X5X5X=X*X*X5X=X*X-X-X-Xa.0.0.w.d.a.0.( E h h B B B B B E E W W / / / / ( ( _ _ / s 3 % = 2 3 6  .3X3X5XrXtXiXtXtXrX5X$X..:.uXiXA.c.N.A.A.*X3X3X*X*X5XrXrXrXlXvXvX",
"xXxXpXV.u % * * - w t t a d P P E h a t t t t d a r , $ , s  ./ / ' ..........r.B.G.*X*XH.D.&X7XyXkXkXuXyXiXyXyXyX,X;X%X#X@X-XaX,Xu.-.X.X.[ [ ( Q ( { .......... ._ _ _ _ _ :.g.B 3 = % 3 3 6 ~ C.A.A.$X5XrXrX5X$Xx.l...P 3XA.j.e.e.l.j.g.f.f.f.j.V.*X5X3X5XrXtX",
"kXcXaXV.s % * * , 6 w w t d P W j d a t t t a a w 4 * @ * h / N g s s h I Q / ( [ { [ [ [ { ..0.w.5X-X#X@X@X@X#X-X,X-X%X,XqXaXyXa.} Y Y U I I I I I I I I I W W W W W E B B / N.N.p * % 2 3 6 _ z.x.x.C.A.*X3XA.x.z.;.| Q g.g.g.g.g.f...........;.S.rX3X3X5X5X5X",
"aXsXqXC.E * * , < w w w w t d h d d t t t t t t 6 , * o * h B s p u u s h I I I I W U U Q ( X.} q.s.@X#X#Xd.d.d.@X%X,X;X,XaXqXt.} Y U U I I I I U U U U U W E W W W W E B N N j.rXh., % * 3 6  .z.x.C.C.S.$XA.C.l.f...| | ..g.g.g.;.....| | ......N.3XS.A.3X5X5X",
"qXaX-Xx.W * * , 6 w w w w w r t t t t t t w w w < - % o % p h p p r r u s h h h P I I I W ( [ } q.i.s.@X#X@Xs.s.d.@X%X-X,XqXi.0.} X.Y U U I I I U U U U U U W W W W W E B N N | N.| 3 % = 3 6  .l.C.C.C.C.C.C.x.z.f.;.| | ..g.g.f.....| | | ......l.N.c.C.A.3X5X",
"5XqX$Xc.E * * , p u w w w w w w w r t t w 6 4 < , * @ X $ 6 s p u r y y p h h h h h I I I ( [ -.q.u.s.s.s.s.s.s.s.@X<X<X,X@Xw.0.} } X.U U I I U U Y Y Y Y Q U W W W W B N B N B [ W 3 % % 2 6 =.x.C.C.S.C.C.C.x.z.f.f.*.....f.f.......| | | |  ...f.g.g.c.N.A.*X",
"*X5X*Xh.s % % * V Z 6 4 4 3 < 6 6 w w w 6 4 4 , , * @ X @ , p u r r r r u s h h h h P I U ( [ 0.q.u.u.s.s.s.s.s.s.s.s.@X@Xs.w.0.-.} X.U Y Y Y Y Y Y X.Y [ [ / Q W W W B B B N B ( E 3 % % 2 6 =.x.C.A.1XS.C.C.C.l.g.f.f.;.;.;.......| | _ _ | | ....f.g.l.N.S.A.",
"*X-XS. .w @ $ = , r , , * * * , , 4 , , * * * * * = @ X o * r y r r r r r p s h h h P I Q ( [ 0.q.u.u.i.s.i.s.s.s.s.s.@Xs.i.y.w.0.} } Y Y Y Y X.} } } e.X.[ [ / / W W W B N N B Q E 3 % % 2 r | =.C.`.1X1XS.C.C.x.z.f.f.f.f.*.....| | _ _ | | | | ....f.g.N.N.N.",
"A.*Xg.E , @ @ @ @ @ @ @ o o @ @ @ @ o o o o X X X X X X o * w r r r r r r u s h h h P I Q [ { 0.q.u.u.i.s.i.s.s.s.s.s.@Xs.s.i.i.w.0.-.} X.Y } } } } } 0.} [ [ ( / / Q W E N N B / W 3 % % 2 r ^ B f.`.1X1X1XC.C.x.l.g.f.f.f...| | _ _ _ _ _ _ _ | | ..;.g.g.l.N.",
"C.j.( u * @ $ % % % % % % % % % % % @ @ @ o o o o o o X o * 6 r r r r r r u s s h h P I Q [ X.-.0.t.u.i.s.s.s.s.s.s.s.@X@Xd.s.s.i.0.0.0.-.} X.} } } } } } } [ [ ( / / W E B N B  ._ 6 % % 2 3 u N 3.1X1X1X1XS.C.x.l.z.f.f.*.| | _ _ _ _ ^ ^ ^ _ _ | ....f.g.g.j.",
"x.W w w % @ - u s g N h h N B B B B N N N s s p u r u 3 o * 6 r r r r r r y p s h h P I Q ( [ } 0.w.u.i.s.s.s.d.@X@X@X@X#X#X@Xs.s.w.q.q.0.} } } } } } } } } } [ [ [ ( Q W E B E .. .6 & * 9 p ' x.1X1X2X1X1XS.C.x.l.z.f.*.=.| _ ^ ^ ^ ^ ^ ^ ^ ^ _ |  ...;.;.g.g.",
"l...W s 3 @ * B ....f.g.g.g.j.j.l.l.l.l.g.g.f... .[ ( B % % 4 w 6 6 w r r r u p s h h I W ( [ } 0.w.u.s.s.s.d.@X#X#X#X#X#X%X#X@X@Xi.q.q.0.-.} -.} } -.-.} } } [ [ [ [ / Q W W W *.*.6 & 2 y 3.1X1X2X4X4X1X1X`.C.x.l.g.;.=.| | ^ ~ ~ ~ ^ ^ ^ ^ ^ _ | ....;.;.f.f.",
"l.l.f.W 4 @ = s *.*.3.f.j.S.A.S.g...f.f.g.g.g.g.N.G.N.Q = @ 3 6 6 6 6 r r r y p s s h I W ( [ X...q.i.s.d.d.d.@X#X#X#X%X%X%X%X#Xd.s.y.q.q.0.q.0.-.0.0.} } } } } [ [ [ ( / / / _ | / 6 & 3 6 ) `.1X4X4X4X1X1X`.~.x.z.f.*.| | ^ ~ ~ ~ ~ ~ ~ ^ ^ _ _ | ....;.;.....",
"j.f.| E 4 @ & r ~ ~ ^ _ *.5XrXrXN.| _ _ | | | | ..V.*XE * @ 3 4 4 4 4 6 r r r y p s h P I Q ( [ ..w.i.s.@X@X@X@X#X%X%X;X;X;X%X#Xs.s.s.w.w.w.w.0.q.w.q.} } } } } [ [ [ _ _ _ _  .| W 5 & 3 6 N C.1X4X4X4X`.`.`.~.l.z.f.=.| | ^ ~ ~ ~ ~ ~ ~ ^ ^ _ _ | ............",
"j.f.| W 6 % * e B E ~ ~ _ *.g.N.3._ _ _ _ | | | | j.A.s = @ , 4 4 < 4 6 6 r r r u p p s h I Q ( ..t.s.d.@X#X#X#X#X%X;X;X;X%X%X#X@Xs.s.i.i.i.y.w.w.q.-.} } } } } } } [ _ _ _ _  . .~ 3 & 3 6 s z.1X4X4X2X`.`.~.~.l.g.*.=.| ^ ~ ~ ~ ~ ~ ~ ~ ~ ^ _ _ | | ..........",
"j.f.| W 6 % * w N ~ ~ ~ ~ / _ | _ _ _ _ / ^ ^ _ ^ ..h.s % @ , 3 4 4 4 4 4 6 r r y p p p s h W ( } q.i.s.@X#X#X#X%X%X;X;X%X#X#X#X#Xd.s.s.s.i.y.w.q.-.T } } } ..0.:..... ._ _ _  . .Q 3 & 3 9 u 3.`.2X2X`.`.~.~.x.z.f.=.| ^ ! ! ! ! ! ~ ~ ~ ~ ~ ^ _ | | | | | | | ",
"f.f.| E 6 & * r B ~ ~ ~ ~ ~ ~ ^ / _ _ / ~ E B B B W B p % @ , , , , , , 4 4 6 w r r r u s h I ( [ 0.w.s.@X#X#X#X%X%X;X%X%X#Xs.@X#X@Xs.@Xs.i.y.0.-.T T T } } :.e.e.e.e.>. ._ _ _ _ E 3 & 3 6 y _ `.4X4X`.`.~.x.z.f.=.| ~ ! N b A ! ! ! ~ ~ ~ ~ ^ ^ _ _ | | _ _ _ ",
"....| E 6 = * r B ~ ~ ~ ~ ~ ~ ~ ~ / _ ~ N M M M M M p 6 # % , , , , , , 3 4 6 6 6 w r y p h I ( [ 0.w.s.@X#X@X@X#X%X#X#X%X#Xs.@X#X@Xs.s.i.y.q.} Y Y Y Y T } 0.e.e.e.e.>. ._ _ _ / N 8 = 3 8 r N C.2X2X`.`.~.z.;.=.^ ! A N b v b A ! ! ! ! ~ ~ ^ ^ ^ _ _ _ ^ ^ ^ ",
"| | ( E e & * y B ~ ~ ~ ~ ~ ~ ~ ~ / ~ B M v x x x x y 4 @ $ , , , , , , , 4 4 6 6 w r y p s I [ } q.u.s.@X@Xd.@X@X@X#X#X#X#Xs.s.#X@Xd.s.i.w.0.T Y Y Y Y T } } :.0.e.e.>. . . .| _ N 8 & 2 3 6 u ' l.`.`.`.x.g.=.~ N b v x x v b A ! ! ! ! ~ ~ ~ ~ ^ ^ _ _ ^ ^ ^ ",
"_ E E N r * * y N ~ ~ ~ ~ ~ ~ ~ ~ ~ B M v v x x p u r , o % , , , , , , , 4 4 4 6 w r r p s h [ } 0.t.i.s.s.s.s.d.@X#X%X#X@Xs.s.@X@Xs.s.i.y.0.} T Y Y Y Y } } } 0.e.e.:.&.&.>.>. .N 6 & * 3 9 i p x &.`.~.l.f._ N v x x y y x b A ! ! ! ! ! ! ! ~ ~ ^ ^ _ ^ ^ ^ ",
"E u r u w * & r M B ~ ~ ~ ~ ~ ~ ~ ~ N M v x x p r r 6 % o $ > 3 , , , , , 3 4 4 6 w r y p s s P [ } 0.q.q.q.w.s.@X#X%X#X@Xs.i.i.s.s.i.i.y.w.w.-.T Y Y Y Y Y X.} ..e.e.:. . . . .~ p 6 * & 3 9 p ) ) ' l.l.f.*.^ b z z i y y i v A ! ! ! ! ! ! ! ! ~ ^ ~ E E E E ",
": * * 2 3 2 & 3 w r u p p p M v u p p p u i y r w w 3 @ X o $ 3 3 & * , , , 3 4 6 6 r r u p s s h Q [ X.} } } w.#X%X#X@Xs.i.w.q.w.w.q.0.0.0.0.0.0.} T Y U I U R Y { >.>. . . ./ s y w 3 % & 2 3 p M N B N s u r 6 3 3 3 3 3 3 3 6 e e r r r e e 6 4 3 3 * * * * ",
"% & = % & = % % * * * * * * $ $ $ $ $ $ $ $ $ $ $ $ @ o X X X X @ # % = * * * 3 4 4 6 6 r p s p p p t t w 1 < w U } -.-.} } Y Y Y Y Y } } } q.i.s.w.Y Y I P j j h g h h B B B p w 6 3 * % % % % % % % % % % % % % % % % % % % % % % % % @ @ @ @ o o o o @ @ @ @ ",
": & & 7 i x p x M M M s p r 4 3 > = @ @ o X X X X X X X X X X X X X X X o o o @ $ $ % = * * , > * * $ $ $ $ $ $ = = - - - - - - - - , < < 1 1 f w f 1 1 < < < < < < 4 4 < < < , * % % & 8 q y y y y i z z x x x x z z x n n n n M n n x i 6 8 8 8 8 3 3 5 8 8 8 ",
"9 & 7 x [.gXuXhXkXjXjXhXeX0X}.}./.4.@.` ~ N M v p r 9 3 2 * * * & = # X X o @ @ @ # % = * * * > , 3 4 6 < , < < < , , - - - - - , < 1 f f t g /  .] ' ' ' _ ) ) ) ) S B M M N M q 3 & : q o.6.U._.).[.oXoXoXoXOXOXOXOXOXXXXXOXOXOXOXOXXX).^.U.R.R.U.U.U.6.6.@.O.",
"9 & 8 l o.wXkXzXvXzXzXzXlXkXkXhXuX0X}.`././.m.k.8.&.@.` Z B M M x y 2 # X & ; 2 2 8 9 p g N B W / _  . .{ { [ { [ ( ( / / Q U ( [ { ( / :.v.V.6XpXuXeXeX+X+X}.}.[././._.R.9.7.O.n 9 & 2 8 m 6._.|.XXOXgXjXgXfXfXfXfXfXfXOXoXOXOXwXfXfXwXXX).).[.XXoXwXgXhXwX).5.",
"q & 8 l C |.hXjXzXzXjXhXhXgXhXhXeXeXeX0X0X5X5X5X}././.b.4.3.@.) B z 3 % X & : 3 8 9 y N W / '  .>.h.Z.Z.M.r.>.:.r.r.r.r.r.h.v.G.G.B.r.B B.qXuXkXxXxXlXkXuXeXeX0X+XXX[.[._.^.R.O.x 3 & 2 8 8 c J <.I.(. X X|.|.|.|.|.XXXX|.(.W.'.'.(.E.I.<.$.#.#.<.U._.XXOXXX^.@.",
"q * 8 l C XXfXgXjXzXhXfXOXoXXXXXXXXXoX}./.^.^././.^.7.7.8.@.) B V x 3 % X & : : 7 9 p W _  .>.:.h.Z.}.5X}.M.r.v.Z.Z.G.G.F.=X7XqXqX7X4.p B 9XxXxXxXlXkXuXeXeXeX+X}.}.[./.R.6.,.Z i 2 % 2 7 8 n D J K.E..XE.E.W.(.(.'.'.(.W.E.E.I.I.<.$.$.#.o.H H o.#.6.U.^._.6.O.",
"9 * 8 l C oXfXfXhXhXwXXX[.).)._._.^.^.6.6.6.6.5.2.2.@.@.O.Z B V M x 8 % X & : ; : 2 y N B N B / _ _  . .3. . .>.>.>.>.:.h.h.h.B.G.G./ p p @.kXkXwXXX[./._.b.7.6.6.6.6.,.,.$.o.V q * # 2 7 9 n C H %.<.K.K.I.T.E.E.E.E.E.T.I.K.<.#.%.%.%.o.H F Z Z H o.<.<.$.@.H ",
"8 * 8 z Z oXwXfXfXwXXX_.^.^.R.R.U.5.2.2.2.2.2.@.@.@.@.` ) Z Z N M x 8 # X & 2 2 : : 3 q r r y p M N B E E W W W ^ Q W / / ( _  .h.N.' p p B /./.9.9.7.8.2.@.@.o.+.+.+.o.o.o.Z x 9 & & 2 2 q x m C H %.#.<.K.I.I.E.E.E.I.I.K.$.#.#.o.o.o.o.H Z Z Z Z H o.#.o.o.Z ",
"7 & 8 z o.XXoXOXoX[._.R.U.6.6.5.@.@.@.@.@.@.@.@.@.O.) S S Z Z V M x 8 # X % : : : : 3 9 6 0 r y p M M N N B B B B B B B B B E Q  .r.3.N p Z 2.5.2.2.2.@.o.) S Z Z Z Z Z B C V y 7 # & 2 7 q l x m F J %.#.K.K.I.I.I.I.I.I.K.$.#.+.o.H H H H H H F F F H J H F C ",
"2 & 2 z $.[.[.)._.^.U.6.5.5.2.@.@.@.O.O.O.O.O.@.O.) Z Z S Z B V M M 6 @ X # * : : : 2 8 6 6 0 y u p s M M M N M M M M M M M M N E _ :. .p V o.@.@.o.o.S Z B M M V V M M n x x q 2 # & 2 7 9 q l c D H J #.$.K.I.I.I.I.I.I.<.$.#.#.o.H H H H H H H H H H Z Z C x ",
"* % : l o._._.^.U.6.5.2.2.@.@.@.O.o.S S S Z S ) ) ) Z Z S Z Z V M x 6 # X X # * : : 2 3 6 6 0 r y y p p s s v s s p p p p p p p s N / _ p M Z S S Z Z C V M n n x x x x z z i 9 2 @ & 2 7 8 9 q z m D K %.#.$.K.K.I.I.I.I.<.$.#.+.o.J H H H H o.o.o.o.H Z C V y ",
"& # & y Z 6.6.6.5.2.@.@.@.@.O.S Z Z Z Z Z Z Z Z Z Z S S S Z B V x x 6 @ X X X # ; 2 2 3 8 6 6 q y y y u u p p p y y y y y y i y u p s M p x V V V M V n x x z z i z z i i y r 8 : @ & 2 2 7 8 q l n C H J #.#.<.K.Y.I.I.K.<.#.%.o.o.H H H H o.%.+.+.+.o.H C x 8 ",
"& # % 9 Z @.2.@.@.@.@.O.) Z B B M V V C B B B B B Z Z Z Z B V M x p 6 % X X X X # : 2 2 3 6 6 0 r y y y y y y y y r r 0 0 r r q r y y p p p x x n x x i i i i y r r y r r 6 7 & @ X # 2 2 2 8 q l x m D K %.#.<.K.K.K.K.<.$.#.o.o.H H H H H o.+.+.+.+.+.o.F x 7 ",
"& # # 8 V ) O.@.@.o.S Z B M M M M M n M M M M M M B B B B N M x p y 6 & X X @ o @ * 2 2 3 8 6 6 0 r r y r r r r 0 6 6 6 6 6 6 6 6 6 r r y u u y u y y r r r r q 0 q q 0 0 6 * % @ X o * 2 2 8 q l z n C D J #.$.K.K.K.<.1.#.+.o.o.H H H J o.+.+.+.+.+.#.+.H x 8 ",
": % @ 7 x B Z S S Z B M M x x x x x x x x x x x M M M M M n x p y r 6 = X X @ # & 2 3 3 3 3 6 6 0 0 0 0 0 6 6 6 6 6 6 4 6 6 4 4 4 4 6 6 6 6 6 6 6 6 6 6 6 6 6 6 6 6 6 6 6 6 7 2 % X o % 2 2 8 q l z c m D J %.#.<.<.<.<.$.#.o.o.o.H H H o.o.+.+.+.#.+.+.+.H x 9 ",
"2 % @ 2 l M B B B M M x x p p i y y i i p p p x x x p x p i y r r 6 6 * o X # & * 3 3 3 3 3 3 6 6 0 0 6 6 6 6 6 6 6 4 4 3 3 3 3 3 4 4 4 4 4 4 4 4 4 4 4 4 8 8 6 4 6 6 6 8 8 7 7 & o X # 2 8 9 q q l z n D J o.#.<.<.<.1.#.o.o.o.o.H H H H o.o.+.+.+.+.+.o.F x q ",
"* # # 2 7 y M V M M x x p i y r r r r r r r r r y y r r r r 6 6 8 8 8 * o o % & & 2 3 3 3 3 3 3 6 6 6 6 6 6 6 6 6 4 4 , , , , , , 3 3 , , , , , , , , 3 7 7 7 7 8 6 8 7 7 7 8 8 : o @ & : 8 9 q q l z c C H o.#.<.<.<.$.+.o.o.o.J H H H H H o.o.o.o.o.H H C x 9 ",
"& @ & 2 2 8 i M x x x p i y r r 9 6 6 6 9 9 9 6 6 6 6 6 9 9 8 8 3 3 3 * o o % & & * 3 3 3 3 3 3 3 5 6 6 6 6 6 6 4 4 , , > * * * , , , > * * * * * * * , , 3 7 7 7 7 7 7 7 7 8 q 2 X # & * 8 8 q q l z x m F o.#.<.<.<.#.o.o.H H H H H H H H H J H G F Z C n i 9 ",
"% @ % 2 7 i x M M x x p i y r r 9 6 9 6 8 8 6 8 8 6 6 6 8 8 3 3 3 3 2 * @ o % & & * 2 2 3 3 3 3 3 3 3 3 6 6 6 6 4 3 , , * * * * > , * * * * * * * * * * * , , 3 3 3 3 7 7 7 9 q 2 X # & * 8 8 9 q l z x m D o.#.<.<.$.+.H G F F F H H H H H H H G Z C V n x i 9 ",
"# @ # * 7 N M M x x x p i y r r 6 6 8 6 8 8 8 8 8 8 8 8 8 3 3 3 3 3 * * # X % & & * 2 2 2 3 3 3 3 3 3 3 8 6 6 6 4 3 , , * * * * * * * * * % $ $ % = * * * * * > , , , 7 7 7 9 q 3 o @ = & 2 8 8 9 q z c m D H +.<.$.#.o.G F F C F F H H H H H G F C V M x i r 8 ",
"# @ @ = 2 v N x x x x i i r r r 6 6 8 8 8 8 8 3 3 3 3 3 3 3 3 3 3 3 * * % X # & & : 2 2 2 2 2 3 3 3 3 3 3 6 6 4 4 3 , , > * * * * * * * $ $ $ $ $ $ % = * * * * * * * > 7 7 9 q 2 o o % & 2 2 8 9 q l x m C H +.<.#.+.H F C C C C C C Z F F F C C V M x p y 9 8 ",
"@ o % & 2 q N M x x x i i r r r 6 6 8 6 6 8 8 3 3 3 3 3 3 3 3 2 2 2 2 * % X @ & & 2 2 2 2 2 2 2 3 3 3 3 3 5 , 3 4 3 , , * * * * * & = $ $ $ $ $ $ $ $ @ % & * * * * * * * 2 8 8 * X o # # 2 2 7 8 9 q z n m G o.#.+.o.F C C C V V V C C C D C C V x x x i q 6 8 ",
"@ o % & 2 7 i y y y i i i y r r w 6 8 8 7 3 3 > * > > * > 2 2 & % % * * @ X @ & 2 2 2 2 2 2 2 2 3 3 3 3 3 * % * 3 , , , * * * * * * $ $ $ $ $ $ $ $ @ + X % * * * * * * * * 7 2 = X X O @ : 2 2 7 8 q l x m D o.o.H G C V n n n M V V V C C C V x x p i r 9 8 3 ",
"@ o # = * * 2 2 3 6 r y r 6 6 6 6 8 3 2 * = % % % % % % # # @ # # @ @ % @ X o 7 9 * * 2 2 2 2 2 2 3 3 3 3 = o = , , , , * * * * * = $ $ $ $ @ $ $ $ @ .   o $ $ $ % % % = * * * # + X O @ & * : 2 2 8 9 l c m G G C V n x z y y y l z x x x x z q 6 6 8 8 8 3 * ",
"o X @ @ # # % % & * > * * & & & & % # @ @ @ o o o o o o X X X X o o o o o X X & & & & & & * * : : 2 2 2 2 % X $ * * * * * * * * = % $ @ @ @ @ @ @ o o +   . X X X X X X o o @ % o . + O X o @ @ # # % & ; 2 2 9 l l q q 9 8 7 2 2 2 2 7 7 7 7 2 # @ @ @ # & * * ",
"X X X X o o o o o o o o o o @ o o X X X X X X X X X X X X X X X X X X X X X X X X o o o o o o @ @ @ @ @ @ X X X o @ @ @ @ @ @ @ o o X + + . + + . . .                   . . . + X . . + + + X X X o o o o @ @ # % & & & & & & & & & & & % % % # @ O O O O O @ # ",
"X o @ % = = * = = = * * % # & * = = % % @ @ @ @ @ @ @ @ @ @ @ X X X o o o o o o o o o o X X X X X o o o o o o o o o o o o o X X X X .                                           .       . . X o @ # # @ @ o o @ @ @ @ @ @ @ @ # # # # @ @ @ @ @ O O O O O O O O "
};
