/* XPM */
static char *texture08[] = {
/* columns rows colors chars-per-pixel */
"128 128 148 2 ",
"   c #7E3A3C",
".  c #833E3D",
"X  c #86413E",
"o  c #8A443F",
"O  c #8D4740",
"+  c #8E4840",
"@  c #934D42",
"#  c #975043",
"$  c #9C5444",
"%  c #9F5846",
"&  c #A05744",
"*  c #A45B46",
"=  c #A85F47",
"-  c #A65E48",
";  c #A85F48",
":  c #AB6247",
">  c #A7604B",
",  c #AC644A",
"<  c #B06647",
"1  c #B36847",
"2  c #B0674A",
"3  c #B46A4B",
"4  c #B96E4B",
"5  c #BD724C",
"6  c #B76E50",
"7  c #B86F50",
"8  c #BD7351",
"9  c #C2764C",
"0  c #C6794C",
"q  c #CB7D4C",
"w  c #C17651",
"e  c #C57A52",
"r  c #CA7E52",
"t  c #C97E58",
"y  c #CF804E",
"u  c #D2824E",
"i  c #CE8154",
"p  c #CD8259",
"a  c #D48552",
"s  c #D78853",
"d  c #DD8E56",
"f  c #DE8F56",
"g  c #DF8F56",
"h  c #DF8F57",
"j  c #DE8E55",
"k  c #DB8C54",
"l  c #D08458",
"z  c #D18558",
"x  c #D08459",
"c  c #D3875B",
"v  c #D18659",
"b  c #D48859",
"n  c #D5895B",
"m  c #D68A5B",
"M  c #D78B5B",
"N  c #D68A5C",
"B  c #D68B5D",
"V  c #D78B5D",
"C  c #D78C5E",
"Z  c #D6895A",
"A  c #D88B5B",
"S  c #DA8D59",
"D  c #D88C5B",
"F  c #D88C5C",
"G  c #D98C5C",
"H  c #D98D5C",
"J  c #D88C5D",
"K  c #DB8E5C",
"L  c #DA8E5D",
"P  c #D98D5E",
"I  c #DB8D5A",
"U  c #DF9056",
"Y  c #DF9057",
"T  c #DF9056",
"R  c #DF915A",
"E  c #DF915C",
"W  c #DF905B",
"Q  c #E19157",
"!  c #E29257",
"~  c #E19157",
"^  c #E19258",
"/  c #E39459",
"(  c #E3945A",
")  c #E4945A",
"_  c #E4955A",
"`  c #E5955A",
"'  c #E4955B",
"]  c #E5955B",
"[  c #E5965B",
"{  c #E6965B",
"}  c #E6975B",
"|  c #E3955D",
" . c #E2945F",
".. c #E3955F",
"X. c #E6975C",
"o. c #E7975C",
"O. c #E7975D",
"+. c #E4945A",
"@. c #E7985C",
"#. c #E7985C",
"$. c #E8995C",
"%. c #E8985D",
"&. c #E8995D",
"*. c #E99A5D",
"=. c #EA9A5D",
"-. c #EA9B5D",
";. c #E99A5E",
":. c #E99A5F",
">. c #EA9B5E",
",. c #EA9B5F",
"<. c #EB9B5F",
"1. c #EB9C5E",
"2. c #EB9C5F",
"3. c #EA9A5D",
"4. c #DD9160",
"5. c #DE9260",
"6. c #E49660",
"7. c #E59861",
"8. c #E79861",
"9. c #EB9B60",
"0. c #EB9C60",
"q. c #EB9C61",
"w. c #EC9D60",
"e. c #ED9D60",
"r. c #EC9D61",
"t. c #ED9D61",
"y. c #ED9E60",
"u. c #ED9E61",
"i. c #EE9E61",
"p. c #EE9F61",
"a. c #ED9E62",
"s. c #EE9E62",
"d. c #EC9D61",
"f. c #EFA062",
"g. c #EFA063",
"h. c #F0A062",
"j. c #F0A063",
"k. c #F0A164",
"l. c #F0A166",
"z. c #F2A367",
"x. c #F4A465",
"c. c #F4A466",
"v. c #F7A667",
"b. c #F2A264",
"n. c #F6A668",
"m. c #F8A768",
"M. c #F7A869",
"N. c #F8A869",
/* pixels */
"o , r e e e e e e e r w 2 @ o * 9 0 0 9 9 5 * X @ 8 a a r r r w 2 = * % $ $ * : : $ . @ w m K K K K K C N N N N K N t , + X * : = * * % @ o X @ * * % * : : : : : : * O . @ w c i i c i e * X X @ % * * % & * * = 3 , $ . @ 8 m K K A S K K K K K K m m S m 8 @ ",
"* a f f f f f f f f _ _ S 3 $ 0 s s s k k k q $ 3 | o._ ( f U f s u q 0 0 3 4 0 0 9 $ 3 | u.*.*.q.u.u.q.9.u.u.f.b.v.b.5., $ 5 0 9 9 4 4 2 @ # 5 r r e q y i i i i i q , + e u.u.9.@.@.*.*.K * @ 2 5 5 5 9 9 9 0 0 q q 5 # 7 7.u.1.u.f.u.u.u.u.*.1.u.q.*.*.u.| 4 ",
", s k k k k k k k k U Q _ r = 0 u u u u u u u , e *.( Q f k k k a a y q q q 4 0 0 q , t *.o._ _ _ @.@.@._ o._ _ *.h.v.b.8 * 0 0 0 9 9 9 9 : 2 a y q y q q q q q q q q 9 ; E *.o.R ( _ _ _ 9.w * 5 9 9 9 0 0 0 q q 0 0 9 : c v.*.*.1.1.1.*.*.@.@.@.@.@.@.@.@.*.c ",
": a k k k k k k k k Q Q _ r * 9 q u u u y q q 2 a _ Q f k k k k k s u u y q 0 5 r r 2 i @.o.( ( _ @.@.@._ _ _ ( *.h.v.n.e * 9 0 0 0 9 9 9 , 4 u q q q y a a a a a q q 9 , ^ *.o.( _ _ o._ 9.e = 9 9 9 0 0 q 0 q q q 0 9 * N v.u.1.1.1.1.*.*.@.@.@.@.@._ o.@.*.c ",
": a a s k k k k k f Q Q ( r = 9 q u u u q q q 2 a _ Q U f k k k k k a u u q y 9 5 r 2 p *._ _ _ _ o.o._ ( ( ( ( _ 2.v.N.p = 9 0 0 0 0 0 0 , 4 a a a a a k k s a a a y 0 , E *._ ( _ o.o._ 9.e * 9 9 0 0 q q q q q q 0 5 * F b.1.1.1.1.2.*.@.@.@.@.@.@.R S _ *.p ",
": a s k k f k k k f Q Q ( i : 9 q u u q q q q 2 i _ ( f f k k k k a a a y q y a 9 4 , c *._ _ _ _ _ _ _ ( R R R _ 1.h.N.t * 9 9 0 0 0 q 0 , 5 s a s s s k k k s s k a 0 , S _ o.( ( _ _ @.9.8 * 5 9 0 q q q q q q q 0 9 * F v.1.1.1.2.u.1.*.@.@.@.@.@.( f ( *.i ",
", a k k k f f f U Q Q ( _ i * 9 q q q q q q q , e ( Q Q f k k k s a a a q y y y u 9 ; i o._ _ _ _ ( ( ( ( R R R _ 2.b.n.t * 9 9 0 0 0 q 0 2 5 k k k k k k k s k k k k e , S ( o.@.( ( ( *.9.3 * 9 9 9 q q q q q q q 0 9 * N v.u.*.1.2.u.u.*.@.@.*.*.@.@._ o.*.a ",
": a k k k f f f f U U ( _ r * 9 q q q q q q 0 : e ( U f k k k s k a a a u y y y y q , p u._ _ _ _ _ ( R R R R ( *.1.b.n.e * 9 9 0 q q q 0 , 4 k s s k k k k k k k k k r , R ( ( _ o.o.( *.9.8 : 9 9 0 q q q q y a q 0 9 : N v.f.2.u.u.u.2.*.*.*.*.*.@.@.@.@.*.c ",
", a k k f f k f k k k ( _ i * 9 q q q q u y q : r Q f k k k k s k s a a a q q y u i , c u.o._ _ _ _ _ ( R R ( *.*.2.b.n.w * 9 9 0 q q q 0 , 4 k k s k k k k k k k s a r , S _ _ _ ( _ ( *.q.8 * 9 9 q 0 q q a a a y 9 4 * N v.v.f.1.2.1.1.*.*.*.1.1.*.*.*.*.u.c ",
"3 s k k f f k f f f k ( o.i * 5 9 0 0 q u u y , e Q k k k k k k a a a a 0 q q q q r , p u.*.o._ _ _ ( ( ( _ *.*.*.u.v.n.8 * 9 9 0 q q q 0 , 5 f k k f f f k k k k s a r , S *.@.@._ _ _ o.u.8 * 4 0 0 q y a a i 0 9 0 q : w s.v.b.h.h.u.u.u.u.1.*.*.1.1.u.h.7.8 ",
"5 f f f Q f f f f f ( _ @.i * 5 9 0 q q q u u , 5 ( f f f f f f k s s a q q q q q r : i b.*.o._ _ _ ( ( _ *.*.*.*.u.v.n.e * 9 0 0 q q q 0 < 5 f k k f f f k k k k s a r , b o.@.@._ o._ @.u.8 : 3 0 q y i 0 5 5 q a a s 2 % e K K K F m N m p p r r p c m m 3 O ",
"e f f f Q U k f k f _ _ *.i * 5 9 q q q q u a : & e b a a a b b a a a a q r r r q 5 $ w u.*._ _ _ _ _ _ _ @.*.*.u.h.v.v.t : 0 0 0 q q q q 2 9 U k k f f f f k k s k a q : m _ _ o._ o._ *.q.8 , 4 9 q 9 4 9 a s a a a s 3 O # ; : : : * * * % * * * * * : : @ . ",
"w f k k f Q f k f ( _ _ *.m ; 5 9 q q q q u a : X $ , , : , , 2 2 2 2 , , , , , : # X ; E 9.| | o.o.o.| | o.*.u.u.q.s.K ; : r 0 q q q q 0 < 5 f f f f f f f f k k k a i : s _ _ @.o._ _ *.q.8 2 5 3 4 5 i s a a a a a k 4 % 5 w w 5 4 3 2 4 9 9 0 9 9 9 0 q 5 @ ",
"9 f k k f Q U s ( _ _ _ *.m * 5 0 q q y u u u : @ 3 r e 0 9 0 9 9 0 0 9 9 9 9 9 5 , O o : 5 3 , 3 3 2 , 2 2 3 8 8 4 4 * X : r 0 0 q q q q , 4 ( _ ( f f f U f k k a s a , m _ _ o.@.o.o.*.q.8 2 4 5 0 a a a a a a a s k 4 4 a e 5 9 9 9 q q 0 0 q q q q y y a , ",
"8 k k k f Q Q f Q ( _ _ *.m * 5 0 q q q y q q : 3 S s s a a a a a a a a y q q i a p * @ 3 8 5 4 4 4 5 5 5 4 4 5 8 w w 3 @ ; r 0 q q q q q , 3 S ( _ ( f f f f k k k Q a , A _ _ @.@.@._ @.q.8 : 4 q u a a a a a a a k k 4 3 w 0 a a a a a y q q y a a a a a a 2 ",
"w k k f f Q Q Q Q ( _ _ 1.A ; 5 0 q q q q q q , e k a a a a a a a a a a u y q q q r : 8 ^ f s s s k k f f ( ( _ _ _ *.7.8 = 0 0 q q q q q , 3 S f ( _ ( f f f f k s Q a 2 S @.@.@.@.o.( _ u.8 * 5 q q u u a a a a a a s 4 5 s s a s s a s k a a a a a a a a s 4 ",
"w f k k f Q Q Q ( _ _ _ 1.K : 5 0 0 q q 0 q q : e k a a a a a a a a a q q q q q 0 0 * c *.Q k k k f S ( ( _ _ _ _ _ *.b.t * 9 0 0 0 q q 0 , 3 S U ( _ _ f f Q Q f f Q a , S *.@.@.o._ ( o.u.8 * 9 0 q q y u u a a a a s 3 w f s s s s k k s k k s a a k k s k 4 ",
"w f k k f Q ( ( _ _ _ _ u.K : 5 0 0 0 0 0 0 0 : r k a a a a a a a a y q q q q 0 0 5 * m u.o.( ( ( ( ( _ ( _ _ _ _ o.1.v.t * 9 0 0 0 0 q 0 , 3 R ( _ ( ( U Q Q Q Q f Q b , S *.@.@._ _ _ *.u.8 % 0 0 q q q y u a a a a k 4 e ( f k k k k k s k k k s k k k k k 3 ",
"w f k k k f ( ( ( _ _ @.f.K : 5 9 0 0 0 0 0 9 : r S k a a a a a y q q q q q 0 0 9 3 ; c f.@._ ( ( ( ( ( ( ( _ _ _ _ *.v.t * 9 0 0 q 0 0 0 2 5 ( _ U k f f U ( Q Q f Q S 2 K *.@.*.@._ _ *.u.8 * 0 0 0 q q q u a a a a s 5 e _ f k k k k f k k k k k k k k k s 2 ",
"w f k k k f ( Q Q ( @.*.h.A * 5 9 0 0 9 0 9 9 : r k a a u q q q q q q q q 0 0 9 3 5 * p u._ ( ( ( ( ( ( ( _ _ _ _ o.u.v.p * 3 5 9 0 0 0 q 2 e o._ U f ( Q f Q Q Q Q ( S 2 K *.@.@.o._ o.*.u.8 : 9 0 0 q q q y u a a a a 4 e _ f k k f f f f k k s s k k k k s 2 ",
"w R f Q Q ( _ ( _ ( o.1.b.c * 4 9 9 5 5 5 5 4 % 8 S a a q 0 0 0 q 0 0 0 0 9 9 4 4 9 * r u._ ( ( ( ( ( _ _ *.*.*.*.u.b.v.t * 5 5 4 4 5 9 e , w @._ _ _ _ ( ( ( ( ( _ _ S , S 2.*.*.*.*.*.2.u.3 : 0 0 0 0 0 q q q u a a a , 5 _ f f f f R R f k f k f k k f f s 2 ",
"= b o.@.o.o.*.*.u.u.u.u.K 3 + , 5 4 2 , , : % o % r b a 0 9 5 5 5 5 5 4 4 5 5 2 4 2 + * m @.| | o.o.| o.@.q.s.b.b.x.n.8.3 @ 5 r r 9 5 5 , @ * m o.| ^ o.@.o.o.( ( o.R 8 @ 8 9.u.u.u.u.u.9.c $ @ 5 0 0 0 9 9 0 0 q i a w @ # r s b s S S R S f S S k s f R ( i % ",
"o * 5 8 8 8 8 8 w w w 5 : @ . O % : : > ; ; ; , ; # % * : : * * : : * * * * ; ; * +   o ; 3 3 3 3 3 3 3 3 7 w t e 8 w 3 # @ $ ; * : , , % @ @ : 4 3 , 3 3 3 3 3 3 3 , @   O 3 w 8 8 8 8 3 * # @ @ $ % ; : : : : : * * @ @ # ; 3 3 2 , , , , 3 4 4 2 3 4 5 4 % X ",
"@ , w w 5 3 3 4 4 4 4 5 5 3 @ $ e 5.7.7.7.7.7.7.5.6 o ; c K N c N K K K K N K K p * o , r r e w e e r r w % o O % * : , w e % o ; e i i c c c a i e , + + , e r r e w 3 O . ; w e e e w t m E p ; o : c E K m c i , o % p m c S K c , o @ 3 r r e 5 5 9 9 5 * o ",
"3 S U f f k k s k s a a s A , 8 a.N.m.v.b.b.h.x.n.5.; i b.u.^ ^ 9.u.u.u.h.b.v.v.b.r ; m _ _ ( ( _ _ _ _ q.m # $ 4 9 4 5 a S e * c q.*.u.u.u.u.*.( f a * * b Q Q Q ( _ S : * a _ ( _ _ _ *.u.v.b.c ; c h.u.u.u.u.u.S * e u.u.h.b.h.u.S * 2 f Q Q f f k k a a q * ",
"r U s k s k k a a a a a a a 2 t n.v.f.h.u.u.1.*.b.9.3 K u.@.( ^ *.*.*.1.u.h.b.h.h.S 3 S Q f f f f f f Q _ 7., * 4 5 3 0 q a 0 3 ^ *._ *.q.*.*.( k a a 3 3 s f k f U Q _ 5 3 R f f f Q ( _ o.u.v.7.3 S *._ _ _ _ _ ( 2 i @.*.*.1.*._ 9.3 5 s s s k k s a u q 0 : ",
"r U k s k k k k a a a a a a 2 p n.h.*.1.*.*._ ( 2.^ 2 K *.o.@.@.@.@.*.*.*.1.u.*.u.m 3 S f k k k k f f Q _ 7.2 = 5 4 5 q q q 5 3 | *._ o._ _ o.( a a a 2 3 s k k f f f _ 5 4 ( f f Q Q ( _ _ *.f.9., m _ ( ( ( ( ( S , r ( ( _ o.^ _ *.3 5 a k k k k a u y 0 0 = ",
"e U k k k k k k k a a a a a 2 p n.f.*.@.@._ ( ( *.A : E u.*.*.*.@.@.@.@.*.*.*.@.*.c 2 S ( f f f U Q Q ( o.9., : 5 3 0 0 0 q 4 3 7.*._ _ _ _ _ f a a a 2 4 s k k f k f ( 8 4 ( U f Q Q ( ( ( _ 1.9., a _ Q ( Q Q Q k , r Q Q _ o.^ o.| , 4 a k s s s s u u q 0 = ",
"e Q k k k k u u k k k a a i , r v.u.@.@._ ( f _ *.a , 6.b.q.*.@.@.@._ ( R f ( @.*.c 3 R k k U ( ( ( _ _ *.9., : 4 3 0 0 0 0 3 , 7.o._ _ _ _ U f k a a 3 4 s k k k k k Q 5 4 ( Q Q Q ( _ ( Q ( 1.q.3 i _ ( ( Q U Q s , i ( ( _ o.^ _ ^ , 3 a s k k k k a u q 0 * ",
"r ( f k k k u a k k k a a r , e v.h.@._ ( Q f _ _ a , 7.b.u.*.*.@.@.( f f f s _ *.m 3 S a a a R k k _ _ *.9., : 3 4 0 0 0 0 3 : 7.*._ _ _ ( f Q f k a 3 4 f k k k f f Q 5 5 ( ( Q ( _ _ _ ( ( *.q.3 i ( ( ( U U Q s , i ( _ @.@.| ^ E , 3 a a s k k k a u q 9 = ",
"r ( f f k k k s k s k a a r , e b.u.*.( ( U ( _ ( l 3 7.*.o.o.*.1.*.( ( ( ( s ( u.m 3 R a a a s a k _ _ *.9., : , 9 0 0 0 9 2 , 7.u._ _ _ f f Q f k k 3 4 f f k k f Q ( 8 3 o._ ( ( _ _ _ _ ( *.9., i ( ( Q U U Q s , i Q _ @.@.*.*.| 2 3 a a s k s k a u q 0 = ",
"r ( f f k k k k k k k a a i , e b.2.*.o._ @.@._ ( a : E b.q.o.( *.u._ ( ( Q f *.u.i , ( _ f f ( R ( _ _ 2.q., * 4 9 9 0 0 9 2 3 q.u.o.( f f f Q f k s 2 4 U f k k k f ( 8 2 o.*._ _ _ _ _ _ _ u.q., e s S ( Q U Q s , i ( _ _ _ *.1.*.2 2 a a s k k k k u q 0 * ",
"r ( f f f k k k s s k a a i : e f.*.@.*.@.@.o.( ( a # 6 7.s.q.*.o.o.^ R R S ( | m * * ( *.*._ _ _ _ _ @.2.9.: * 5 9 0 0 9 9 2 3 9.u.o.f k Q Q Q f f b , 3 f f f k k f ( 5 3 @.u.*._ ( ( _ ( *.h.9., 5 a s Q Q U Q s , l Q ( ( _ *.*.*.3 2 a a k k k k k a q 0 * ",
"r ( f f f f k k s k k a a r : e u.*.@.@.@.@.o.( ( a @ X ; 7 3 3 3 , : , , , 3 3 % . * ( *.@._ _ _ _ _ *.1.9.3 : 5 9 0 0 9 9 , , 7.u._ f f Q Q Q Q f s 2 2 k U Q f k f ( 5 4 9.*.@._ _ ( ( _ 1.u.^ : 5 a s s Q Q U s 2 a Q ( ( ( _ *.9.4 2 a a s k s s k a u 0 * ",
"i ( f f f f k k k k a a a i : e u.*._ _ @.@._ ( ( a @ @ 4 w w w 8 8 e i i a m K i $ ; R ( o.o.o.U f ( o.1.9.3 = 5 9 9 9 9 9 : : 6.*.U ( ( Q Q Q f k s 3 2 k f Q Q f f ( 8 8 9.*.@.o.o.*.*.u.q.*.E : 5 a s a f U f b , l ( ( ( ( _ *.*.8 , i a a k k k a a y 0 * ",
"i _ f f f f f f k s a a a i : e f.*.( _ o.o.( ( U a * e _ ( ( S R _ _ _ @.q.u.f.b.i , S S R @.( f f f _ *.9., = 5 5 9 9 9 5 : : 6.*.U _ _ ( ( Q f k k 4 2 f k f f Q Q ( 8 8 g.*.@.o._ *.*.o._ *.^ : 9 a s a s f s i , i R ( ( ( _ *.*.8 * 5 q k k k k a a u 0 = ",
"a _ f U f f Q f k k a a a a , e u._ Q ( _ o.( f f a : A _ ( Q ( _ o.o.@.*.1.*.*.b.^ 3 S ( ( ( ( U Q U ( 2.9., : 4 5 9 9 5 5 : 3 9.u.f ( ( ( Q Q f f f 5 2 f k k k f Q _ w 8 b.*.@._ o.*.@.( _ *.7., 9 a a a s k b r : r E _ ( ( ( @.q.8 , 9 5 9 i s s s a u 0 * ",
"i _ Q Q U f Q f k k k a a a 2 e u._ Q ( ( _ ( f f a : S _ ( ( ( ( _ ( _ @.@.@.*.h.^ 3 S @.( ( ( Q ( _ ( 2.9., : 4 5 5 5 4 3 : 3 u.*.f ( ( ( ( _ _ f f 5 4 f k k f f Q @.w w b.*.o.@.1.*.*.| @.*.7., r b s f f k s e : a o.( ( ( _ o.q.8 2 q a i 5 9 s k a u q * ",
"e o._ _ _ ( ( Q U f f k k s , 3 9.*._ _ _ @._ ( R r % r @.( ( ( ( ( _ _ _ *.1.u.b.p ; S u.2.*.*._ @.*._ h.6.; * 3 3 3 3 2 < * ; 6.*._ _ _ _ _ _ _ ( R , : k f Q _ o.o.@.3 3 9.h.u.f.h.h.b.u.u.f.K ; e f f k k f f e * i @._ ( ( _ *.o., * i a S s r 9 a k a u * ",
"; i K ^ R S S S S A S A b e @ @ t E R S S S S S r * . % r a a l l a a a m S E ^ c * o 7 6.9.7.7.7.7.7.7.6.8 + O & * * * * $ O o , K ^ S S S S S S S 8 O o 2 l S S K | p $ # p 7.q.q.7.7.7.6.7.5.8 + : i S k b b l : o * i s b b A A 4 O + 4 i a a a r 9 e a 5 @ ",
"o % : , , : : : : : , , : @ . @ ; 3 , , , : % # @ # ; * ; , , : : : : , , , 3 3 , % O + ; , : : : , , , * + O * 2 3 3 3 6 8 3 @ . # 2 3 , , 2 2 2 2 ; * * ; 2 , * * : * $ $ * , 3 , : : : ; : : % @ $ * , , , , * O   O : 3 3 3 3 3 , ; @ O $ * , , , 2 , , $ . ",
"@ : 4 4 4 4 4 4 5 5 5 5 3 @ # r m l r r r e * X ; m o.| S S A A b b s S S S S R | ^ 8 + O * : , , , 2 2 % + 6 E 9.9.9.u.s.u.7.t @ % r a a a b b b b S R ( R ( a * o * 9 0 0 5 1 2 3 3 % o $ 3 5 9 9 9 5 5 5 5 5 4 * + 6 K | E E ^ | 9.7.r @ $ 4 0 0 0 0 0 0 4 $ ",
", 5 9 0 0 0 0 0 q q q q q , 3 o._ Q k k a a r * i u.*._ _ _ _ _ _ _ _ _ _ @._ @.1.h.6.: % 3 4 5 5 5 9 9 3 ; N b.u.*.@.@.*.*.u.7.3 w ( Q Q ( Q ( Q ( _ _ _ _ *.u.i * 9 q q q q q 9 4 5 4 % 5 q 0 q q q 0 0 0 0 0 9 3 : K u.2.R | *.*.1.x.9., , 0 q q q q q q q 3 ",
"2 9 4 0 q q 0 q q q q q q < 5 *._ ( k a a a r , S *._ _ _ _ _ _ _ _ _ _ o._ _ _ @.*.9., * 4 5 5 9 9 0 9 4 : ^ u.u.u.*._ ( _ *.u.8 r ( f f U Q Q U ( ( ( ( _ @.1.S : 0 q q q q q q q 9 3 : 0 y q q y q q q q q 0 9 3 , 6.2.*.o.@.@.@.*.u.s.3 , 9 0 q q q q q q 5 ",
"2 q 4 0 q q q q q q q q 0 , 3 *._ ( f u q i r , K u.o.@.o._ ( _ o._ o.o.@._ ( _ _ *.7., * 4 5 0 0 0 0 0 4 , ^ 1.*.1.*.*.( ( _ 9.8 r f k k f f f k f U U Q ( ( @.m , 0 q y u u q q q q 5 * 0 a u u u u y q q q 0 9 2 , | *.@.@.@.@.@.*.2.u.3 , 9 0 q q q q q q 4 ",
"2 q 0 5 q q u q q q u q 0 2 8 *._ _ f s a a r : E h.u.u.*._ _ ( @.*.@.@.@.( R ( _ @.7.3 : 5 9 0 0 0 0 0 4 , E *.@.*.*.@.@.o.o.7.3 e f k k k k k k k f f f f f ( a , q y u u u u u y q 0 : 0 e a a a u u u q q q 9 2 , ^ *.*.@.@.@.@.*.1.s.3 : 9 0 q q q q q q 4 ",
"3 q y 9 0 u a u q y u u q 2 8 *._ _ U k s k a * i b.h.f.u.*.@.*.u.u.*.*.*.o.( _ _ *.E : , 5 9 0 q q 0 0 4 : E *._ @.@.*.*.*.u.7., 3 k k f k k k k k k k f k f R 8 : a u u u u u u u u 0 : a a 0 i a a a u y q q 9 2 : E _ o.*.@.@.@.*.u.a.3 : 9 0 q q q q q y 4 ",
"3 q q u 9 a a a u a a u q 2 8 *.*._ ( f f k b % % p 6.6.6.6.o.o.^ K A S K S m A S c 3 # 4 9 0 0 q q q 0 4 : K @.o.@.@.@.*.*.h.9.: @ 3 w w 9 9 9 w w e e r e w 3 $ * b a u a a u u u u 0 : a f k q e a a u u q q 9 2 : E _ _ *.@.@.*.*.u.q.2 = 9 0 q q y y y u 4 ",
"3 q q u q 9 a a a a a a y , 4 *.@._ ( ( Q Q k % . # , , : , 2 2 , : : : : : , , 2 = o @ 5 0 q q q q q 0 5 ; K o.o.@.@.@.@.*.b.q.: X $ : : : : : : : , : , , : * o * s k a k k a u u u 0 : a f k k i 0 i a u q 0 9 3 , ^ o.*.*.@.@.*.1.u.7.3 : 9 0 q q q y y u 5 ",
"2 q q u a q 9 a a a a a y < 3 o._ ( f ( ( ( k % $ i S S b s S S S S S A m a i i m a 3 $ 4 0 q q q q q 0 5 : K o._ @.o.o.@.*.h.s.3 $ 5 0 0 0 q q q q 0 9 9 9 9 9 : : a s s k k a a u u 0 : a f k k f k 0 0 a u q 9 2 , 6.u.*.*.*.@.*.u.u.7.2 = 9 0 q q q y y u 5 ",
"1 q q u a a 0 0 a a a a u 2 3 o.*._ ( f ( ( s ; e *._ _ _ _ _ _ _ _ _ _ @.*.o.E | *.E : 3 0 q y q q q 0 2 : K @._ @._ _ @.@.u.g.8 2 0 0 0 q q q q q q q 0 0 q q 9 2 a a a k k a a u u 0 , a f k k k k s i 0 r u 0 2 , 6.u.*.*.@.@.*.1.2.6., = 5 0 q q y y y u 5 ",
"3 u u u u a a 9 a a a a u 2 4 @.@._ ( f ( ( k , i _ ( _ _ _ _ ( ( ( _ _ _ _ _ ( ^ | o., 2 0 q y y y y 9 3 , K @._ o._ _ _ @.1.s.8 2 0 0 0 q y a q q q y q q q u 0 3 s a s f k a s a u 0 , a f k k k k k a a 0 9 9 2 , 6.u.*.*.@.*.*.u.1.7.2 : 9 0 q y y u u u 5 ",
"3 u u u u u a i r a a a y 3 8 *.@._ ( f ( _ ( 2 i _ Q _ _ _ _ ( ( Q ( ( _ _ _ _ *.u.7., 3 0 q q y u u 9 4 2 K o._ o._ _ _ @.u.s.8 2 q q q y a y q u u u u u u k 5 2 k k k k k a s a u 9 , a f k k k k a a a k q 5 : , 7.u.*.*.@.@.1.q.*.9.2 : 9 q y y y u u u 4 ",
"4 u u u u a a a r a a a y 2 8 *.o._ ( f ( _ ( 3 r _ Q ( _ _ ( ( Q Q Q ( _ _ ( _ @.*.7., : 5 q y y u r 5 5 , S o._ _ _ _ _ @.u.s.8 2 q q q a a q u u u a s s k s 5 3 b f k a a a a a q 9 , b f f k k k a a a a u 0 2 , 7.u.*.*.*.*.*.*.1.9.2 : 9 q y y y u u a 5 ",
"4 a u u a a a a a r a a a < 8 *._ ( f U _ _ ( 3 e ( Q ( ( ( ( ( Q Q ( ( ( ( ( ( o.*.o., 2 5 5 0 i q 5 e 9 , S _ ( ( _ _ ( @.u.u.8 2 q q a a a q u u u a k k s a 9 3 a f k a a u s a q 5 : a f f k k k a a a a y 0 2 , 7.u.*.1.*.*.*.*.1.9.3 : 9 q y y u u u a 5 ",
"4 a u u a a a a a r a a u : 8 9.*._ ( ( U ( ( 3 0 f f ( Q ( _ ( ( ( ( ( ( ( ( ( ( @.o., 4 0 r 5 5 5 e i 9 , S _ Q ( _ _ ( _ *.u.6 2 y u a k k u u u u k k k f i r 2 b f k a a u a a u 9 , a k k k k k k a u u u 0 3 , 6.h.u.1.*.*.*.*.2.9.3 , 9 0 y u u u u a 5 ",
"4 a u u u a a a a a e s a : 8 *.*._ ( U f Q ( 3 9 f f f Q ( _ _ _ ( Q ( ( ( ( ( _ o.o., 3 0 q i w 4 i i 9 , S o.( Q ( ( _ _ *.u.3 3 a a a k k a a u a k k f a a a 2 b f k s k a a a u 0 2 s U f k k k k a u u y 0 3 : 6.h.u.1.*.*.*.*.u.9., : 9 q y u u u a k 5 ",
"5 a u u u u a a a s e a a , 8 *._ ( f f f f ( 3 w U f f f f Q ( Q Q Q Q ( ( ( ( ( ( | , 4 9 q q i r 5 r 0 , m _ ( ( ( _ _ _ *.u.3 4 a a a k k a k s k s k k r ( a 3 s f k k k k s a a 0 2 S Q f k k k k a a u y q 4 , 6.b.u.f.u.*.*.*.u.q.3 : 0 q u u u u a s 5 ",
"4 a u u a a a a a k a r r * 3 | _ ( f f U U R 2 8 ( ( f f f f f Q Q Q ( ( ( ( Q Q ( S * 3 9 9 0 q a r 5 w ; i ( ( _ _ _ @.*.u.7., 5 s k s k s k k k k s s b r @.i 2 k U f f f k k s k 0 , A _ Q Q Q f f k a a u q 5 ; 5.v.v.v.b.u.u.h.v.9.3 , 0 u a a a k s k 4 ",
"* e a b a a a b b b b r 8 @ @ w S S s b s s w @ ; A ( S R ( ( ( ( | ( ( ( | | ( ( A 3 o % 4 5 9 9 0 r w : + : a R ( | | | @.| 4 + * a f k k k k k k k k k a r S 3 $ r ( ( S b b b a r = @ 5 ( o.o.o._ R k s b a r : @ e q.n.n.n.x.b.b.s.c % $ 0 s b b k f S e $ ",
"o % 3 4 3 3 2 3 3 3 , * # @ % ; , , , , , 3 * O X % 3 3 3 3 3 3 3 3 3 3 3 3 3 , 3 , % @ # ; , , , : * $ + @ % : 2 2 2 3 3 3 2 % o o * 3 3 2 2 2 2 2 2 2 2 2 3 , o . % 4 4 2 2 2 3 2 : % @ % 3 8 4 3 3 3 3 3 3 3 , # O # 6 t p p t w 7 3 * @ @ = 3 2 3 4 4 2 $ X ",
"$ 4 i i i r i i r r , o % r E E m m F m K 6.6.e + o * 3 3 2 , 2 3 5 4 4 3 % X $ e S S S S S S S S A 8 @ $ r E K m m m a i l l r 3 @ o * 5 0 0 0 0 0 e r i a A e % o * 5 9 5 5 9 9 9 0 r q 0 9 9 2 @ o : e r e e r r e 8 4 2 # @ # * : 2 4 9 9 0 9 9 5 9 5 4 * o ",
"5 S f f f s s s k b e * 8 9.h.u.u.u.u.b.b.v.v.7., % 9 0 0 r r r r q q r q 9 # e u.1.*.*.*.*.@.*.*.*.( , 3 9.h.u.*.*.*.@._ _ _ o.E 3 * r s a a k f f f ( ( _ *.*.r * 0 y q u u u u u u a a a u u u 2 * a f f f f Q Q ( Q f s 5 @ 3 9 9 0 q a a a a u u q q q 9 * ",
"e f k s s a a a a r 0 : p u.1.*.*.*.*.1.1.u.u.b.w * 5 9 0 0 0 0 0 0 0 0 0 9 : A 2.*.@.@._ _ _ _ _ _ ( 4 w q.*._ _ _ _ ( Q Q ( ( o.r , a a a a a s k f f f Q _ *.m 2 q q q q q q u u u u u u u u u 9 4 s k k k k f Q Q f k k r : 5 9 0 q q y a a u y q q q q q < ",
"e k a a a a a a a 0 0 : p *._ *.*.*.@.*.*.*.u.b.e * 5 5 9 0 0 0 0 0 0 0 0 5 : K *.@._ _ _ _ _ _ ( ( ( 3 w *._ _ _ _ _ ( Q U Q Q _ i : a a a a a s k f f Q Q ( *.A 2 0 q q q u y u u u u u u u u u 9 4 s k k k k k f f k k k r : 9 0 0 q q q u u y y q q q q q 2 ",
"e k a a a a a a r e 9 = p q._ _ *.o._ _ *.1.h.v.e * 5 5 9 9 9 9 0 0 0 0 9 4 ; K *.@._ _ _ _ _ _ ( Q ( 2 8 *._ _ ( ( ( ( U U U U ( r , a a a s k k k f f Q Q ( *.m 2 q q u u u u u u u u u u u u u 9 3 s k k k k k k k k k k r : 9 0 0 q q q q y y y u y y q q 2 ",
"e k k s k a a a 9 0 9 * p q.@._ o._ _ o.1.h.b.v.w * 4 5 5 9 9 9 9 9 9 9 9 4 ; K 1._ _ _ _ _ _ _ ( Q R 2 w *._ _ ( ( ( ( Q U U U Q r , a a k k k k k f f f Q ( *.m , q q y u u u u u u u u u u u u 5 3 s k k k k k k k k k k 0 : 9 0 q 0 0 q q q q q 0 9 5 5 5 , ",
"e k b a 0 9 9 5 5 0 5 * w 9.*.*.@.@.*.u.h.f.b.v.e % 2 4 4 5 5 5 5 5 5 5 5 2 * K *._ _ _ _ _ ( ( Q Q S 2 w @._ _ _ ( Q Q Q U U U Q r , a k k k k k f f f f Q ( *.m , q u u u u u u u u u u u u u u 5 3 k k k k k k k k k k k 0 : 0 q q q 0 0 9 5 5 4 4 9 0 q r 4 ",
"5 e 9 e i y y a a 5 5 * 8 @.q.u.*.*.u.h.b.2.h.b.e @ * , , 2 3 3 3 3 3 3 3 * % K 1.o._ _ _ ( Q Q Q Q f 2 w _ _ ( ( ( Q Q Q U U U U e , k f k k k k f f f Q ( ( 2.m , q u u u u u u u u u u u u u u 9 3 k s s k k k k k k k k r = 9 0 0 9 4 4 5 5 9 9 0 0 0 0 q 2 ",
"9 a a a a u u u y 9 3 * 8 o.u.u.*.o.u.f.u.2.h.b.w o @ # % % % % % * * % # o # K 1.@._ _ ( Q Q Q f k s 2 w _ ( ( Q Q ( ( Q U U U Q e * a ( U f f f Q ( ( _ _ *.q.r , u u u a s k a a a a a a q 0 9 3 2 s s k k k k k k k k f i % * 2 , : , 2 1 2 , , 2 2 3 4 < @ ",
"9 a u u u q y y q 0 4 % 8 7.u.1.*.*.*.*.*.*.u.s.3 @ 8 c c p p r r p p r 8 % @ m *._ _ ( U f U Q f s s 2 5 _ ( ( ( ( U f Q Q Q Q ( e @ ; i a l i l a b m m S S r * * a a a a i 0 9 9 9 9 9 5 9 9 0 4 3 a k k k k u u a k k k i @ @ : 3 , 2 , , 2 3 3 3 3 3 2 % o ",
"4 y q y u y q y q 9 4 % w q.*.*.o.*.*.*.*.*.2.7., 3 q.b.b.h.h.q.9.9.u.b.u.m ; a *._ _ ( f f f Q s s s 2 5 _ ( ( Q f a s s f Q Q ( t @ @ , 2 2 2 , , ; : 2 3 2 * o * 9 9 9 9 0 r a a a a a a a k a 0 3 a k k k u u u u u a a 9 $ 8 E 7.7.7.o.@.9.9.9.9.7.7.6.p * ",
"2 0 0 q q q q q q 9 4 & e q.*.o._ *.*.*.*.o.*.| 2 c v.u.u.1.*.1.*.*.*.1.u.9.3 r _ ( ( f f f f f k s s 2 3 ( ( Q f a k k k k f f ( e % 5 a a a a a a r 9 5 5 r i : 3 k a a k k k s a a a a a a a a 9 3 s k s a u u u u u u u 4 , E b.u.u.u.*.o.q.b.b.2.1.1.u.9.4 ",
": 9 0 0 q q q q 0 5 4 $ e q.@._ @.*.*.*.*.o.o.^ 2 m f.u.u.1.*.*.*.*._ @.2.q.5 i _ Q Q f Q U f f f s s 3 3 ( ( ( f a k k k k k f ( r , b k a a a a a k f k i 0 r 5 3 k a a a a a a a a a a a a u a 9 4 s k s a u u u u u y q 3 3 9.u.*.*.1.*.( | u.u.@.*.@.*.u.w ",
"* 9 0 0 q q q q 9 5 3 $ w 9.@.@.*.*.*.*.@.o.o.^ , c u.*.1.*.*.*._ ( ( ( *.9.4 i _ Q Q Q f f f f f s s 3 2 S ( ( Q s a k f f k f Q r 2 s k a a s k a k k k s k b 9 3 k a a a a a a a a a a a u u q 5 4 k k s u u u u u y q q 3 7 q.*._ _ _ _ ( o.*.*.@._ _ o.*.i ",
"* 9 9 0 0 0 q 0 9 5 3 % e *.@.*.*.*.o.@.@.o.o.| , i *.@.@.*.*.*.R R ( _ _ o.3 r _ Q Q U f f f f f s s 3 4 f s ( ( Q f f U f f Q ( r 2 s k k a a k k s s k k k R r 3 k a a a a a a a a a a u u q q 5 2 a k s a u u u y q q 0 2 7 q.1.@._ ( ( ( @._ _ _ _ ( ( _ m ",
"% 5 9 0 0 0 0 0 9 5 2 $ e *._ @.*._ ( ( ( o.o.| , r *.@.@.*.*.@.f ( _ _ _ o.3 r _ Q Q f f Q f f f k k 3 4 f f Q f Q Q f f k k k Q r 2 s k k a s k s k k k k k f e 3 k k a a a a u u a u u u q q q 4 , a s s a u y y y q q q 2 6 q.*.@.@._ ( ( o.@._ _ _ ( ( o.c ",
"% 5 9 9 0 0 0 9 9 5 2 % r *._ *.*.( _ _ ( ( @.| , i 2.*.@.@.*._ f ( _ _ _ | 3 r _ ( Q U f Q Q f f f f 4 5 Q f f k k f f k s a s f e 2 s k k k s s s k k k f k k e 2 a a a a u u u u u u u u u q q 5 , a k s a u u u u q 0 9 : 3 9.*.@.@.@.@.o.*.*.*.*.*._ ( o.i ",
"% 5 9 0 0 0 0 9 9 5 1 * p u.*._ @._ *.*.( ( o.o., a u.*.@.@.*.o.f R ( ( ( o.3 i o._ Q f f Q Q f Q Q ( 5 5 ( k k k k k k k k s k Q e 2 f k k k k k k k k k s a s r 2 a a a a u u u u u u y u y q q 5 , r r 0 0 9 9 5 5 5 5 4 = 3 9.1.*.*.@.*.*.*.*.*.*.*.*._ o.i ",
"& 5 9 9 0 9 9 9 5 4 2 % p h.*._ _ o.*.*._ ( ( ^ 3 m 1.( ( _ @.*._ R f S ( 9.5 a *._ ( Q Q ( Q Q Q ( ( 4 5 ( k k k k k k k k k a U e 4 S f f k f k k a a a a a U i 2 a a a a a u u q q y q q u q q 9 , w r r r q q q q q 0 0 2 3 9.2.*.*.*.*.*.*.*.*.*.*.*.*.*.p ",
"$ 5 9 9 9 5 5 5 4 3 , $ e u.u.*.*.*.2.*.*.*.*.K : r *.( R S ( *.1.*.@.*.u.| , w q.o._ _ ( _ _ _ _ _ R , 2 f f k k s f s s s a s f 5 : S ( Q U f f k a a a a k ( w : a s u u u u q q q q q q q q q 3 * a ( s a q 0 0 0 9 9 9 * : 6.f.1.*.u.u.u.u.u.u.u.1.2.u.7.t ",
"X * , : : * * * * * $ X * c 7.7.7.7.7.7.| 6.| w @ : K | ^ S A S S S K E S 8 @ # i ^ S m A b b b a a 4 O O , 5 5 9 9 9 4 5 w w r e $ + 5 b b b a i i i r r r i 0 # + 2 0 0 0 5 5 4 4 4 4 5 5 5 5 2 @ o , i i 9 3 , : , , , * + + 7 K 7.7.q.a.9.9.q.9.7.7.^ N e * ",
". # , 3 3 3 3 3 3 3 , @ . @ 2 3 , , , , , , , % o o % : 2 2 , , , , , , : @   . % 3 2 , , , , , 2 , #     % 3 3 3 3 3 3 3 3 , ; @ . o % , , , , , 2 , , : , 3 , @ . + * 2 2 , , , , , , 2 2 2 2 : : , : % @ $ , 6 6 6 3 2 , , : ; , 3 , ; : , 3 6 3 , , , : $ . ",
"% a 7.9.9.9.9.q.q.q.7.i @ @ w l r 0 0 9 5 5 9 e 8 @ o 3 r r r a a a i i r 3 O # r m b A s k S S R S t @ % N 9.u.s.s.u.q.o.9.7.m : O 2 i a a i a a a a a a s R R e $ % 9 a s s b s s s k k k f S S R | S 2 @ w 8.g.9.9.9.7.7.7.7.| S S r % . $ 5 0 0 q 0 r i 9 # ",
"8 *.*.*.*.*.1.2.*.*.2.9.3 5 _ f f a a u u u u a m , : s f f f Q Q f s k s a : 5 ( Q U ( _ _ @.*.*.*.o.3 e b.h.b.b.b.h.b.*.*.b.v.K : i f k k k f f f f f U ( _ _ ( 3 4 f Q Q Q Q f f f f U Q Q _ o.*.@.*.e : 6.b.u.q.u.2.u.2.2.*.o._ @.@.r # 4 a s k a a a s f 4 ",
"r _ _ o.@.@.*.*.@.@.@.*.8 9 ( k k k a y y a a a a 4 5 S f k k s f k s a a a 2 e ( f f f ( ( ( _ ( _ ( 3 i b.u.*.*.u.f.b.*._ *.h.^ , i a s k k k k k k k k f ( ( ( 4 9 Q f f f f k f U Q Q Q Q ( _ _ ( ( r 3 a.h.*.h.u.1.*.*.*.@._ _ _ _ m * 4 q a s a y u s k 4 ",
"e ( U _ _ _ _ _ _ _ _ o.4 8 S k k s s s a a a a a 3 4 R f f k s s k k a a a , e Q f f f ( ( Q ( ( ( ( , r h._ ( R ( o.u.*.*.*.h.N ; 0 u a s s k k k k k k k f f R 3 e U f U Q Q Q f f f Q Q f Q Q ( Q ( r 3 7.1.o.o.u.*.@.o._ _ _ _ _ _ m * 4 q a s u u u s s 2 ",
"w ( U _ _ _ _ ( Q Q ( o.5 8 S k k k s s k a a a a 3 5 ( Q f k s a k k a a a 2 e Q f f Q ( ( ( ( ( ( S , r u.( Q ( R ^ *.*.u.u.h.c * 9 q u a a a s k k k k k k f f 3 w f f Q Q Q Q f k k f f f f f f f ( i , 7.u.*.( o.*.@._ _ _ _ _ _ o.m * 4 y a s a u a s a , ",
"w f Q _ _ _ ( Q Q U ( _ 5 5 S k s k s k k k k s a 5 5 o._ U k k k a s k a a : r ( f f f f Q ( ( ( ( R , e u.( ( ( _ *.*.*.*.u.b.p * 9 r u u a a a s k k k s s k f 2 9 f f f f f Q Q U f Q f f f f f f f r , 6.2.*.( o.*.o._ _ _ _ _ _ _ A ; 5 q a s a u u a a : ",
"8 ( _ _ _ ( Q U U U Q ( 5 5 S k s k k k k k k k k 9 * a @.( S f f k f f s 8 % i _ Q f f f f Q ( ( R S , e u.*.*.*.*.*.*.*.*.u.b.m ; 9 q q a u u a a a a a a k k S 2 9 f f k k k f k f Q Q f f U f f k f e , | 2.*.( @.( f U _ _ _ _ _ _ S ; 5 y a s a a u u a : ",
"8 ( _ _ _ ( Q U U U Q ( 5 5 f k s s s k s k k k f 0 O % 5 8 5 4 3 4 4 4 2 @ @ a _ ( f Q Q f f ( ( ( A , e u.*.*.*.*.*.@.@.*.1.u.| : 9 q y a q q u u u u u u k f S , 2 k Q U f f f f f Q Q ( ( ( _ ( f ( 4 ; | 2.*.o.( f S f U _ _ _ _ @.S : 5 q a s s k k a a , ",
"w _ _ _ ( Q U U U U Q _ 5 5 S k s s s k k k k k f 9 + $ 3 4 4 3 4 5 5 9 4 # @ l _ ( Q Q Q Q f ( ( ( ( 2 e u.*.*.*.@.@.@.@.*.*.u.6.* 2 i a l l l i a y q u a s f r # + 2 5 9 w 9 9 9 e e r r r r r i r w # * 7.2.@.@.( ( ( ( f ( o._ _ *.S : 5 q a s s s k k k 2 ",
"e ( _ _ ( Q U Q U U ( o.5 4 f k s k k s k f f k s 9 * i s b b s k k k k k 0 * i _ ( Q Q Q U f ( ( s S 3 e u.*.*.@.o._ _ o.@.*.f.^ # o ; , , , 2 2 , : : , 2 3 3 $ . o ; 3 3 2 , : , * : , , : : : : : * o ; 7.u.@.@._ _ _ ( ( S _ _ _ *.S : 9 q a s s s k k s , ",
"e _ _ _ ( Q Q Q Q Q ( o.4 3 S f k k k f k s k k s 5 , s k k k k k k a u a a , i _ Q Q f f f Q ( S a a 3 e f.*.*.@._ _ _ _ @.*.u.K @ # w r r r r r r r r r p p r : o : m f k s b b r 5 a a a u i q 0 9 9 * ; 7.1.*.*._ _ _ ( ( R _ @.@.1.S * 5 q a s s k k k k , ",
"e o._ _ ( Q Q Q Q Q ( _ 4 3 S f f f f k a a a s s 5 , s k k k s s k a u u a , r ( Q ( ( ( ( ( _ S a a 2 e h.*.@.@._ _ _ _ _ *.1.m * p *.o.@.o._ *.1.1.u.u.u.u.q.K : 5 f k k s s s r 9 a a a a a a 0 9 9 3 : 7.u.1.2.*._ _ _ ( ( ( o.@.*.S ; 5 q a a s k s a a , ",
"r o._ _ ( Q Q Q Q Q Q _ 5 3 f k k f k a u a a a k 9 , s k s k k k u a s a a 2 i _ Q Q _ _ _ _ _ ( S S 3 t u.*.@.@.@._ _ _ _ _ *.c , E ( ( ( Q Q _ *.*.*.u.1.q.9.7.8 4 b k k k k k r q k a a a a y q 0 9 3 : 9.f.2.2.*.@.*._ ( Q ( _ *.2.K ; 5 0 y a k k a q y : ",
"r @._ _ ( Q Q Q U U Q ( 5 4 k s s s s k a a a a k 9 2 k k k k k s u k k k a , a _ Q ( _ _ _ _ _ _ _ ( 3 e u.*.@.@.@.@._ _ _ _ *.a 3 R S Q Q Q Q _ *.*.*.*.*.*.u.q.8 3 s s s s k f 0 a f a a a u q y q 0 3 , 9.u.1.*.2.2.2._ ( ( ( ( *.2.K * 9 q a s k k y u a : ",
"r *._ _ ( Q Q U U U Q _ 5 5 k s k k k s k u u k k 5 2 f f f f f u a s k k s , a _ ( _ _ _ _ _ _ _ _ ( 2 e u.@.@.@.@.@._ _ _ _ @.i 3 | R f ( Q ( *.*.*.*.*.*.*.1.u.e 3 s k s s s a 5 k k s s k a a a q q 4 , 7.u.*.*.2.2.*._ ( ( ( ( *.u.K * 9 q a k k k a a a : ",
"i *._ ( Q Q Q U U U Q ( 8 4 s s k k k k k k k k k 5 3 S Q Q Q s a s k k s s , i _ _ _ _ _ _ _ _ _ _ ( 2 e u.*.@.@._ R ( _ _ _ @.i 3 7.o.( S S ( *.*.*.*.*.*.*.1.u.w 3 s s s s k 5 r s k s k k a a u q q 4 , 9.u.*.*.*.*.*._ ( ( ( _ *.u.K * 9 q a k a a a s a : ",
"i *.( Q Q U U U U U f f 8 3 a s k s k k k k k k f 9 3 R Q ( ( s k k k k k s 2 i _ _ _ _ _ _ _ _ _ _ ( 3 r *.@.*.*.f b k ( _ _ @.i 8 q.1.*.@._ @.*.*.*.*.*.*.*.*.u.e 3 k k k s s 5 s s k k s a a a u q q 4 , 7.u.*.*.1.*.*.*.o.o.@.*.*.h.K * 0 q a k a a a s a : ",
"i *.( ( ( Q Q Q U U k S 3 3 l s k k k k k k k k f 9 4 ( ( _ _ ( Q f k k k s , i *.o._ @._ _ o._ _ _ o.3 t *.( o.1.R ( S _ _ o.2.t 8 s.u.q.9.q.1.1.*.*.*.u.u.u.u.g.w 3 k f f f f w b k k k k s s a a y y 5 : 7.b.2.*.2.*.*.*.2.2.1.*.f.b.p * q u k k s k s s a : ",
"3 | *.o._ _ _ _ ( ( R a % * r s f f f f f f f f S 3 ; K *.*.*.*.o.( Q Q ( i $ 3 o.*.1.*.*.*.u.u.u.u.E * 3 9.u.u.h.*.*.*.u.u.u.9.3 : 6.v.u.| b.b.b.b.b.v.v.v.v.v.6.; * S _ ( ( ( e f f f f f k k s k k s 3 # p s.b.b.x.u.u.b.h.b.b.b.v.7.3 @ w s S R f f f f a % ",
"o , e e w w 8 5 5 5 4 * o @ * 3 5 w e e e e r e 3 @ + 3 i c p i e w 9 9 5 % X @ 3 r a b c i p c c c 7 O @ w K K K K K K K K K e @ o 3 N K N K K F F F K K K F c 2 o o 2 r e r e 3 5 5 5 5 4 4 4 4 5 5 2 @ o % e K K K K N N c r c K c 3 + . $ 4 9 e 9 9 w w ; X ",
". % 3 8 3 3 3 8 8 w w w e i e : @ O % , 2 2 2 : : : * : : * $ O @ , w 8 8 w e w 8 ; @ @ $ * * * * * * $ $ % * * * * * ; ; ; * O . @ * ; * * * * * * * * * * * = * , , 2 2 , @ o $ 2 5 5 5 5 5 4 3 3 4 4 4 3 , : * # @ % : , : * ; , , , 2 3 2 3 3 3 3 3 3 , $   ",
": a | o.o.o.@.@.9.q.u.b.v.n.b.E ; $ 9 q q y u i a 0 0 y 0 9 , o : E 9.9.q.u.u.u.u.K ; O : 4 4 5 5 9 9 0 9 9 5 4 4 5 5 5 5 5 3 @ % r i 9 9 5 5 5 5 5 5 5 5 9 9 q a k k k s a 3 @ 5 R o.o._ _ _ _ ( ( ( ( ( ( f a 9 @ @ 5 0 0 0 0 0 i a s U ( U f f f f f s s r # ",
"e ( ( Q ( ( _ _ _ _ o.u.u.h.b.b.8 < q q q q q y q 5 q q 0 9 4 % r *.@.*.*.*._ _ *.u.e % 4 5 5 9 9 0 0 0 0 0 9 9 9 9 9 9 9 9 9 : 5 a 0 0 q q 0 0 0 0 0 0 0 0 q q a a a a a a r : a _ ( ( ( Q Q ( ( ( f f f k k a a 3 2 a q q q q q a a k f f f k k k k a u u a , ",
"r ( Q Q Q ( ( _ _ _ ( _ @.*.u.b.w < q q q q q y 9 q q q 0 9 4 * c *.@.@._ ( _ _ _ u.p * 4 5 9 9 0 0 0 0 0 0 0 0 0 0 0 0 0 0 0 , w a q 0 0 q q y q q q y u y a a a a a a a s i , b ( U U U U f f U f k k k k k k a 4 4 a q q q q u a a s k k k k k k s a u u u 2 ",
"e ( Q Q ( ( _ ( _ ( ( _ _ _ *.u.w 2 y q q q y q 9 q q q 0 9 5 * i *.@.@.( ( _ _ _ u.t * 4 5 9 9 0 0 q 0 0 q q q q 0 0 q q 0 0 2 w a q q 0 a a a a a a u y a a a a s k k k f a : b ( U U U U U f f f f k s k s k s 5 3 s s u q u a a a k k k k k k k a s u u u 2 ",
"w ( ( ( ( _ _ _ ( _ _ _ ( ( o.q.w 3 a q q y a 9 q q q q 0 9 5 * c q.@.@._ ( _ _ _ f.p * 4 5 9 0 q q q q 0 q q q q q q q q q 9 : r s a q y k k k k k k s u s k s k k k k k k a : a ( U U U U f f k k k k k s s s k 5 2 s k s k s s k k k k k k k k k s a u u a 2 ",
"e o._ _ _ _ _ _ _ _ ( Q Q ( _ 9.8 2 a a a a 0 q u q q q 0 9 5 * c q.o.@.@.( ( ( _ u.p * 4 5 9 0 q q q q q q q q q q q q q q 5 : r ( f s k k k k k k k k s k s k k k k k k k i * a Q U U U f f f f k k k k k s k k 9 2 s k k k k k k k s k k k s s a a k k a a , ",
"w @.*.o._ _ _ _ _ _ ( ( ( ( _ 7.6 3 a a a r 0 a u u q q q 0 5 * c q.( _ @.*.*.*.2.b.t % 4 5 9 0 q q q q q q q q q q q q y 5 w : r ( f k k k k k k k f f f f k k k k k k k f i : a f f f k k f f f k k k k k k k f 9 2 a s s s s s s s k k k k k k k a a k k s 2 ",
"* c 7.9.7.7.@.o.| ^ ^ | | | ^ p * 5 s a k 0 i a a u y q q 9 4 * r q.R o.*.*.*.*.h.v.t % 4 5 9 0 q q q y y q q q y y y u r 5 r * r _ Q f k k k k k k f f f f Q f k k k k k f i : a f k s a k s k k k k s k k k k f e 2 a s s a s s s s k k k k k k k k a k k f 5 ",
"X % 3 8 4 3 3 6 3 3 4 3 3 4 3 % @ e s k k 0 a a u u u q q 0 5 % r u.o.*.*.*.*.1.h.b.p @ : 4 5 9 0 0 0 q 0 q q 0 q r r e 5 e 4 $ i @.( Q U k k k a s k k f Q Q f k k k k k f a : i s a a a a a a s a r r a k k f ( 9 2 b s a a a a k s k s k k k k k k k s f ( r ",
"o $ , 2 2 2 2 2 2 3 3 4 4 4 4 * @ e s k q 9 s a u u u u q 0 4 % r u.1.*.*.*.*.2.u.s.p @ + * ; : : , , , : : , , , , , = , : @ @ a *._ Q Q f f s k k k k f Q f f k k k k k f a * 2 a i i i i e r a e e e e i a f A : 2 b a a a a a a a k s k k f f f f k k U _ i ",
"% 9 q q q q q q q q q q q u a r : e k a 9 a s a u u u q q 0 5 * t u.1.*.1.*.*.u.u.u.r # * 5 9 e r 0 e r r r 0 0 e r r r q 9 = @ p *._ Q Q Q Q k f U f f Q Q f k k k k k k k a @ o * , ; : : ; ; : ; ; ; : : , 3 ; o , b s a a a a a a k k k k f f Q Q f Q _ _ i ",
"2 a q q q q q q q q q q q u a a 2 9 i 5 i k a a u u u q q 0 5 % t u.u.1.2.1.*.u.u.s.r % 9 q a a a s s a a a a u a s a a a s i * i *.( Q Q Q Q f f f f Q Q f f k k k s k s k i @ % t c p p c p c c c c c p c m m w # # t m b a a a s f f f U ( ( ( ( ( ( o.*.R 3 ",
"5 a u u u u q q y q y u u u u b 3 4 0 9 5 a a a u u u q q 9 4 * i f.2.2.1.*.1.2.u.g.r * 9 0 q a a a a a a a u u a k a a a a a = 8 o._ ( ( Q Q Q f f f f f f s k s s a a a a 5 * c s.b.h.u.u.u.*.u.h.h.u.u.v.v.v.9.8 @ # 3 3 4 4 4 5 5 5 4 4 5 w w 5 9 w e r 3 @ ",
"5 a u u u u u u u u u u u a s s 3 9 a a 0 5 a a a u q q q 9 4 * c h.2.1.*.*.*.*.1.f.p * 9 0 q u a a a a a u a a u a a a a a 9 * # 5 r r e e e e e e e e 9 9 5 5 5 5 4 4 4 2 @ ; 7.h.1.*.*.u.*._ *.*.*._ u.b.v.x.h.c $ $ 4 5 5 5 4 5 4 4 4 3 2 , , , , , , , * o ",
"5 a u a u u u u u u q r r r r r 2 9 a a a 9 9 a a q q q q 0 4 * m h.1.*.*.*.*.*.*.f.p * 0 0 q y y a a a a a y u y y u a a q 5 = o * 4 3 3 3 3 3 3 3 , , , , , 3 3 , , 2 , ; o * 7.u.@.@.@._ ( _ @.@.( ( u.f.b.h.f.m ; e k s s s s k s k s k s a a a a a i a i * ",
"3 q 0 9 9 5 5 5 4 4 5 9 9 0 r i 2 9 a a a a 5 0 u q q q 0 9 4 * K h.1.*.*.*.*.*.*.u.p * 0 0 q y y y a y u a q q y y y u 0 4 0 * : m o.| o.( o.o.| | | o.| ^ | o.o.| | | o.^ 7 * ^ *._ _ o.f k ( _ _ ( _ 2.h.b.f.u.m , s s s k k s a k k s a a a a a a a a a k 9 ",
": 5 5 9 9 0 0 0 i a k k k k f f 4 9 a u u a a 5 q q q q 0 9 3 * K h.1.*.*.*.*.*.*.u.p * 0 0 q q q q q q y u q q q q u 0 4 0 0 * i u.*.@.@.@.*.@.@.@.@.*.*.*.*.*.*.*.*.*.*.u.E , a ( ( _ _ k k ( _ ( ( *.1.u.u.u.2.c , a a a a a a s s s s a a a a a a a a a k 0 ",
"2 q q u u a a s a a k a a k k k 3 5 u u u u a 0 4 q q 0 9 9 3 * K h.*.*.*.1.1.*.2.b.t * 9 0 0 q q q q q y y q q q q y 5 9 q 9 : c u.*.@.@.@.@.@.@.@.@.@.@.@.@.*.*.*.*.*.2.u.o.3 l k k U _ k k U ( U o.*.*.*.*.2.u.c : r a a a a a k s a a a a u a a a a a a s 9 ",
", q q q u u a a a a a a a a k f 3 5 u q y u u a 9 4 0 0 9 9 3 * K b.*.*.1.1.1.1.2.b.e * 9 0 0 0 0 q q q q q q q q q 0 4 q 0 9 * c u.@.@.@.@.@.@.@.@.@.@.@.@.@.*.1.1.*.*.o.*.| , r f k k R f s f ( ( @.@.*.*.*._ *.c ; i a s s a a a a a a u u u u u u a u a s 9 ",
"2 q q q q u a a k s a k k k f R 4 5 u q q u u u a 0 4 0 0 9 3 * K b.1.1.u.u.u.1.u.b.w * 9 9 0 0 0 0 0 q q q q q q 0 4 0 q 0 5 : c 1.@.@.@.@.@.@.@.@.@.@.@.@.@.*.1.*.*.( ( _ R : e f k k s ( ( ( _ _ o._ *.@._ *.u.m ; i a a a a u a a u u u u u u u u y q q u 5 ",
"3 q q q q u u a a a u s k k f ( 5 5 u q q q u u u u 0 5 0 9 4 * N b.u.u.u.u.u.u.u.f.r * 9 9 9 0 0 0 0 0 0 0 0 0 9 2 9 q q 0 5 * c u.@.@.@.@.@.@.@.@.@.@.@.@.@.@.@.@.@.( ( _ R , r f k k k _ _ _ _ _ _ _ *._ *.*.u.m : a a a a u u u u u u q q q q q q q q q u 5 ",
"2 q q q q q u u u u u u a s f ( 4 5 u q q q u u u q q 5 4 5 4 * c v.u.u.u.u.u.u.h.u.p * 9 9 9 9 9 9 9 9 9 9 9 5 2 5 0 0 0 0 5 * c u.*.*.@.@.@.@.*.@.@.*.@.@.@._ o._ _ _ R _ S : r f k a Q ( R _ _ _ _ _ _ o.*.*.u.c : a a a u q q q q q 0 0 0 9 9 0 0 9 9 0 q 4 ",
"$ 9 q q q q q q q u u u a k U l % = q q q q q q q 0 0 9 5 3 : @ 8 9.b.b.b.u.u.u.9.K 3 + 2 5 4 4 4 4 4 4 4 4 3 : 3 5 9 9 0 0 3 @ 4 7.u.u.u.u.u.u.u.*.*.*.*.@.@.@.o.o.*.*.@.o.w @ 2 a a s ( S S ( *.*.*.@.| *.u.u.7.6 # r b a q 0 9 9 5 5 4 4 4 4 5 5 4 4 4 5 4 $ ",
". $ : , : : : : : : 2 2 4 9 9 * o + * < 2 2 3 4 3 , : * * * @ o $ 8 K K N m p e e 3 +   + % $ # $ $ $ $ $ $ @ % % % * * , 2 % X $ 8 m K K m m c c c c c p r r t r r i i i 8 @ . O * , 3 5 w r i m m m m m m m c 4 + . % 5 3 * % & & $ # @ # $ $ % % $ $ $ $ @ . "
};
