/* XPM */
static char *texture01[] = {
/* columns rows colors chars-per-pixel */
"128 128 185 2 ",
"   c #1D150E",
".  c #1F1710",
"X  c #23170E",
"o  c #25180F",
"O  c #2C1A0E",
"+  c #201710",
"@  c #241A12",
"#  c #2A1D13",
"$  c #301F12",
"%  c #2D2116",
"&  c #2E2319",
"*  c #2F281E",
"=  c #322316",
"-  c #33261A",
";  c #392719",
":  c #35291D",
">  c #3B2B1D",
",  c #342C21",
"<  c #3C2E21",
"1  c #3E3224",
"2  c #3E3529",
"3  c #3F392E",
"4  c #422D1F",
"5  c #41301F",
"6  c #412F20",
"7  c #433325",
"8  c #4A3525",
"9  c #473827",
"0  c #4A3926",
"q  c #443629",
"w  c #49372B",
"e  c #463A2B",
"r  c #4B3C2C",
"t  c #523E2C",
"y  c #463E31",
"u  c #4C3F30",
"i  c #503F31",
"p  c #4E402F",
"a  c #53412F",
"s  c #5A442E",
"d  c #5E482F",
"f  c #4E4132",
"g  c #4E4638",
"h  c #4F483C",
"j  c #534434",
"k  c #594533",
"l  c #574836",
"z  c #5A4936",
"x  c #554738",
"c  c #584739",
"v  c #55493A",
"b  c #5C4C3B",
"n  c #5E503E",
"m  c #60492F",
"M  c #624A36",
"N  c #624E3B",
"B  c #684F3A",
"V  c #655037",
"C  c #63513D",
"Z  c #6A533D",
"A  c #6C583E",
"S  c #71593F",
"D  c #564E40",
"F  c #594F40",
"G  c #5C5242",
"H  c #5D5648",
"J  c #634F40",
"K  c #645442",
"L  c #695642",
"P  c #665946",
"I  c #6D5C46",
"U  c #6B5A44",
"Y  c #615749",
"T  c #655B4A",
"R  c #685A48",
"E  c #6F5F4A",
"W  c #6C5F4C",
"Q  c #6B5E4A",
"!  c #715642",
"~  c #705E45",
"^  c #725D45",
"/  c #785D47",
"(  c #715F48",
")  c #715F49",
"_  c #7A5E49",
"`  c #665F50",
"'  c #6B5F50",
"]  c #6F614D",
"[  c #6E604C",
"{  c #736047",
"}  c #796047",
"|  c #736049",
" . c #746149",
".. c #76634A",
"X. c #74634C",
"o. c #78644B",
"O. c #7A654C",
"+. c #77684F",
"@. c #7C684E",
"#. c #7C694F",
"$. c #676152",
"%. c #6B6354",
"&. c #6B6658",
"*. c #6E685A",
"=. c #746651",
"-. c #796750",
";. c #766853",
":. c #7B6B53",
">. c #726B5C",
",. c #7C6E59",
"<. c #7F7057",
"1. c #7B705E",
"2. c #7E705B",
"3. c #7E7563",
"4. c #81664D",
"5. c #82694E",
"6. c #816E52",
"7. c #806C52",
"8. c #826D53",
"9. c #896F53",
"0. c #837056",
"q. c #827154",
"w. c #857256",
"e. c #857457",
"r. c #847156",
"t. c #8A7156",
"y. c #83735B",
"u. c #89765C",
"i. c #8A765B",
"p. c #87795E",
"a. c #8C795D",
"s. c #91775B",
"d. c #927B5E",
"f. c #827562",
"g. c #897760",
"h. c #837865",
"j. c #8D7B60",
"k. c #8C7B62",
"l. c #867B69",
"z. c #887B68",
"x. c #927F62",
"c. c #937E62",
"v. c #9A7F63",
"b. c #877B72",
"n. c #8E8066",
"m. c #8F816A",
"M. c #958467",
"N. c #948265",
"B. c #9B8365",
"V. c #95846A",
"C. c #9A876B",
"Z. c #9A896D",
"A. c #8F8573",
"S. c #8D8379",
"D. c #9C8B70",
"F. c #9C8C72",
"G. c #9E9075",
"H. c #A28B6C",
"J. c #A08E73",
"K. c #AB8F71",
"L. c #A39276",
"P. c #AB9374",
"I. c #A59478",
"U. c #A5977D",
"Y. c #A3957A",
"T. c #A9967A",
"R. c #A6997D",
"E. c #AF997C",
"W. c #B19476",
"Q. c #B39678",
"!. c #B09979",
"~. c #9A8E83",
"^. c #9B9081",
"/. c #9F938A",
"(. c #AD9E83",
"). c #A0958B",
"_. c #B2A185",
"`. c #BBA585",
"'. c #B3A68A",
"]. c #BDA789",
"[. c #BFA988",
"{. c #BFAE92",
"}. c #BEB095",
"|. c #C3AE8E",
" X c #C5B090",
/* pixels */
"b b b b b b C K :.(.'.U.u.I a k b A ~ ..Z.r.~ N r ; 7 U N z k k k k j j j j a j k z b N z K ( ( U L L L U U K K C b b b b e & % r K K j j x b K G b b b j 7 7 r b b b b N N C N b j j a r j j e 7 7 7 7 : # # # # % j I K b c c v v v K R K K P K b c c b b F F ",
"b n C K K U ( o.7.j.k.u.r.X.z U ..7.0.M.I.7... .j - 7 i...b z k j a a a a a a k z z C C C I I K C b C C C K L C C K ] I k : % % u ] ,.K F b j j j j j b b c b b K L L K K K K C N b b b b b b z z b b L C < = = = ; b =.,.n j j g v c K W =.f.1.K j j x b b b b ",
"b K K K U I  .O.@.@.@.@.-.0.L @.7.r.e.M.0...U U a - 7 x.x.L z k j a a a a a j k z b C C C N b b b b n b b b C C C E [ b j < % % r =.z.K f r 7 7 7 7 7 r j b b K K K K K K N b b b b b b b b j j j j j C b 1 = = = ; C P R b j f g v c b b b b j j x b b F F b b ",
"b K K K L I  .O.@.@.@.@.@.i.-.r.i.a.x.i.o.~ Z Z r = 7 i.P.@.z k j a a a a a j k z C C C C C b b b b b b b b n C ( :.N z z q % % u  .( j r 7 < 1 < < 7 r j b b K K L L K K N b N K K K C b b j j j r r j j > = = = 7 U n v c c c v v c c c j j j j x b b b F b b ",
"b C K K L I ..@.@.@.@.@.@.r.k.a.a.N.J.8. .L C C 8 = > @.H.a.C k k j j a j j k z N C C C C b b b b b b b b b b b K b z z j r - % j X.( j r 1 < 1 1 1 e j x b K K K L L L K C K K K K K K b b b j j r r r e ; = = = e U b v v v v c v v v v j j j x c b b b b b b ",
"b b K K K I ..O.@.@.@.@.@.7.N.x.d.L.N.O.I Z C N 7 = ; ..C.7.C z k k k k k k z b C C C C b b b b z b z z z z b z k j j j j u - % j X.X.j e 1 < < 1 q r j b b K K L L L L K K K K K K K K b b b j j r e r 7 - = = = j P c v v c b b c c c v j j f x c b b b b b b ",
"b b b K K I ..O.@.@.@.@.@.-.i.i.a.N.8.O.U Z C z > = ; @.H.o.K z k k k k z z N C C C b b l j j j z z z z z z z j j j j j j r - % j -.X.j r 7 7 1 q r f b b b K K L L L L L K K K K K K K b b b j j e < 7 : = = = ; b K c v c b b b b b b c j j j j x b F b b b b ",
"b b b C K I ..O.@.@.@.@.@.@.@.-.-.@.@...U Z C j ; = ; r.H.5.U b z k k z N C C C b b b z j j j j j j j z z j j j u r f j j f : % b 8.:.b u e q q e f x b b K K K L L L L L K K N N C K K b b l j j r e 7 - = = = 1 K b c v b b b b b b b c j j j j j b b b b b b ",
"b b b C K U ( O.O.@.@.@.O.O.@.@.@.@.@...L Z C r ; = ; i.H.w...N z z z C Z C C n b b z z j j j j j j j j j f r r r r f j j j < % b 0.u.K j u r u f j b b K K K L L L L L L K K N b b b b b b j j r r r 7 ; = = = j L C c G b b b b F b b c j j f j j x b b b b b ",
"b b b K K I ( ..O.@.@.@.O.O.O.@.@.@.O.~ U L C 8 ; = - w.H.s.o.C z N Z L L L C C b z z z j j j j j j j f r r r r r r u j j j q % b c.c.E j j j j x b b K K K K L L L L L K K K b b b b b b l j j r r r 7 - = = a E C C b ;.K b b b F b b c j j f j j x c b c b b ",
"b b b K K I ( ( ..O.O.@.@.O.O.@.@.O...I L L C 7 ; = % L P.w.O.L C L U U L L L C z z j j j j j j j j f r r r r r r r r f j b j & z C.V.R x b b c b b K K K K L L L L L K K K C b b b b b l j j j r r r 7 = = 7 :.X.I E P >.G G b b b b b c j j j j j x x x x x b ",
"c x b K L I ( ( ..O.O.O.O.O.O.O.O...U L Z Z C 7 ; = % 8 i.i.7.L L L U U L L L C z z j j j j j j u r r r r r r r r r r j b K b - r j.g.K b b b b b K K K K L L L L K K K K b b b l l l l j j j j j j j 7 = ; I a.0.:.y.;.%.G K G b b b b c x j j j j x x x x j x ",
"j j b K L U I I ( ................U Z N C Z C 7 = = = ; 7.w.~ L U U L L L L L C b z z z z z j f r r r r r r r r r r f x b Q P - < I E C b b b K K K K L L L L L L K K N b b b l j j j j j j j j j j a ; = a e.i.@.K C ;.R K K K G b F b c j j j j j x j j j j j ",
"j j b C K K L U I ~ ( ( ( ( ( ( I Z N N N V C t = = = > a.#.~ I U L L U L L L K C b b b z j f f f r r r r r f f f j j c K E e # e E L K K C K K K K L L L L L K K K N b b b l j j j j j j j j j j r : # = Z r.7.@.L K ;.K K G K G b b b c j f j j j j j j j j j ",
"j j b b K K K L U U I ( ( ( I L L C N N z z N k ; = = ; @.7.~ I I I I I I U I I L C C b z j f f r r r r f f f j j j b b b r ; = j N.X.K K K K K K L L L L L K K K N b b b z l j j j j j j j j j r > > # ; A 7.a.r.I U ] G K K K G b b b v j j j j j j j j j j j ",
"j j b b b C K L U U U I ( I L Z Z C N M z z z z 8 = = = 7 r 0 0 r a a j b N C C C b b b z j j f r r r r r f j j j c b b c < % % b Z.X.U L K K K K L L L L K K K b b b b b b l j j j j j j j j j 7 r C - ; L x.N.r.{ X.K K K G K K b b b v j j j f j j f j j j f ",
"x x b b b C C L L L U I L Z Z Z C C N M z z z z j 7 = = = 8 s 8 > ; = % = % % = % # # = - ; ; ; ; : : : : : > < < 1 7 e r 1 # # j D.=.U L K K K L L L K K K C N b b b b b b z j j j j j j j j j j j r % = ..H.B.7.{ X.C C K K K G G b b x j j j j j j j j j f j ",
"j x b b N C C C C Z Z Z Z C C C C C N N N N N M k t 7 = = 8 Z z t 0 8 ; = - = = # # @ 7 r < : - % % # # # % ; : - - & % % % % # - :.=.Q L K K K K K K K K N b b b b b b b b l l j l j j j j t t r t > @ = r.H.v.@. .X.n n K K G G K G b c j j f j j j j j j j j ",
"j j b b b N C C C C C C C C C C C C N N N N N N z a t 7 - ; V V d a 8 5 7 r > ; ; = e O.7.I b r e 1 < ; - < f j f r r r u j j j % K X.Q K K K K K K C N N N b b b b b b b l l l l j j j j j t r r r % o ; w.H.v.o.o.E n n C K K K K K C b j f r r p f r r r r r ",
"j j b b b b N C C C C C C C C K K C C N N N N N z k a t 8 - a Z m d 0 0 a t > > ; : ..x.-.I K N j u e < : j j c b j j b b K Q b & n ] Q K K K K N N b b b N b b b b b b z l l j j j j j j j t e e 8 @ X ; r.Z.d.o.X.P n n n n n n C K b j f r r e r r r r r r r ",
"j j c b b b C C C C C C C C K K C C C N N N N N M z z z z ; > k m d 0 r a 8 > ; ; L H.C...K J b b x u > r j j j c b b C K U K : % b E Q L K N b b b b b b b b b b b b b j j j j j j j j a t r e e 7 # X = 0.B.i... .b b n n n n n n n j r r e e e e e e e r r r ",
"j j c b b b N C C C C K K K K K C C N N N N M M N N N O.A > = 7 s s 8 4 8 > ; > I P.`.a.I L J N b b e 1 r r r j j c b K E X.7 : - b E Q U K b b b b l l l z b b b b z j j j j j j j j j t t e e e 7 # X = 7.d.r.0.-.z k b b n n n b l f r e e 7 7 7 9 e e r f f ",
"j x x b b b b N C K K L L L L K K C N N N M M M M N / ^ N a ; % 8 0 4 > ; ; 7 ..P. XP.O.I L K J J N j u r e e r r r j Q ,.b c b > P U U L K b b b l j j j j j j j l l j j j j j j j j t t r e e e 7 # X % @.r.:.Z.Y...L C C C b b z j r r e e 7 7 7 e r r r f j ",
"x x x c b b b b N K K U U U U U K K C N M z k k M N Z M M M t # = > ; - # > O.K.].].w.( L L L K J N j j r r r r r e r P E K k.E : U U L K C b b l j j r r r r j j j j j j l l l j j j j t t r r e > % o @ z  ...{ O.{ L Z C z z z j p r r e 7 7 7 7 e r r f j j ",
"x x x x x b b b b C K U U U U U L K N N M z k k k M z M M M a ; # % # # = C B.!.|.C...I L L L L J b b r r r r r e r e r b y.:.u : P K K K b b l j j r e r e r r r r j j z b z l j j j j j j j t e : = @ o r I { ~ U C z z z z z k j r r e 9 7 7 7 7 e r r j j j ",
"c x x x x x c b b b K K U U U U K C M z z k j j j k k M M V Z 7 % # # % j ~ 8.P.E.-.I K L L L K J b j r r r r r e r e r r j r : ; K b b b b b j j r e e e r e e e r r j l b b b z l j j l l j j r ; = @ o r L { I U C z z z z k j p r r e 7 1 1 1 7 e e r f j j ",
"c c x x x x c b b b C K U U U L K C z k k j a a a a j z V Z U z ; # # : M A Z o.8.I K J K K K K N b j i r r r e r r e e r r e : - b b b b z j j u r e e e e e e e e r j j z b b b z b z b b  .L r ; = @ o q K I I I Z z z z z j a r r e e 7 1 1 1 7 e r f j j j ",
"c c c x x x b b b b N K K U K K K b k k j a a a a a a k M N V L 7 % # - a A ^ ! O.K J J J J J N b j j u r r r e r r e r r r e : - j j j j r r r r e e q q q q q q e r j j z b b b N N b L -.I r e ; = # o 7 C U L I ^ b a a k j a r r e e 7 7 1 1 7 e r f j j j ",
"c c v c c x x b b b b K K L K K C b k j a a a a a a j k k M V Z z ; # # 7 N / } o.I K J J J J N b j i r r e r e r e e r r r e : - r r r r q e r e e e q q q q q e e e f j l b b C C L O.X.z 0 0 0 > - # o 1 z L L I ~ b t z z j a r r r e 9 7 7 1 7 e r f j j j ",
"c c v v c c c x b b b C K K K K N b j a a a r r r a a j k k N Z Z > # # ; k ! ..@.O.L K J J J N b j j r r e e r r r e r r r e ; ; r r r q 7 e e e e e q q q q q e e e r j j b b C ..X.C r 7 7 8 e 5 = # o < j Z L U ~ z z N k j a r r r e e 7 7 7 7 e r r f j j ",
"c v v v v v v x c b b b K K K N b j a r r r r r r a a a j k M V U 7 # # # r U ..7.7.( K K J J N b j j u r e e r e e r r r r 7 - : j r r 7 < q e e e e e q q q q q e e r j j z N ..K r 0 7 7 7 7 8 4 = # o > j C L U ~ z k k j a p r e e e e 7 e e e e r r r j j ",
"c v v v v v v v c b b b b K b b x j r r r r r r r r r r a j z V Z e # # @ > Z ..8.t.-.U L K K N b l j j r r e e r r r u j u 7 = : r r e < < 7 q q q e q e q q q q q e r j j j z j e 0 7 7 1 < > 7 > % # o > j N K L ~ z j j a a r e r e 9 7 q e r r r f f f f j ",
"v v v v v v v v c c b b b b b c f f r r r e e e r r r r r a k z k e ; # @ % N O.i.d.i...I L L K b l j j j i r r j j j j j j e = = < 7 7 < : 7 q q q q q q 7 7 7 q q e r j j j j r 0 0 8 > < < 7 7 > # @ o > j N Z U ..z a a a a r e e e 7 e e r r r f f f f j j ",
"v v v v v v v v c c c c b b x f r r r e e e q e e e e e e r t r Z ..a = # @ t o.i.d.d.7.( I L K b b z j j j j j z z j j j j r ; % % - : % # - ; : : : : : : : : < < 1 7 e j j j r e 0 7 > < < < 7 : # @ o < j b C L ..N a a a r r e e e e e r r r r f f j j j j ",
"v v v v v v v v v v v x x j f r e e e e e 7 7 7 7 7 q q q 7 j ~ ~ N z ; # @ 7 ..i.d.d.w.I L L K b b b b z j j b b b b b z j j 7 % % % : : : : > > > < < > ; = % # # # # % 7 e r r e 7 7 7 7 > > 7 ; @ o o 1 j z N L o.C a a a r r e e e e e r e r r f j j j c c ",
"v v v v v v v v v v j g f u e e e q q 7 7 1 1 1 7 7 7 7 7 0 a j r t k 8 # @ 7 r.B.H.T.T.-.L L C b b b b z j j b b b b b b b j i < % r k.k.k.k.:. .E E E E I K C z r e 7 : % @ @ # # @ @ @ # # # # o o o o < j j N U -.C a a a r r e e e e e r e r r f j x c c c ",
"v v c c c c v v x g f f u e e 7 7 7 7 1 1 1 1 1 1 1 7 7 7 7 7 0 r r a t % @ 7 a.J.(.'.L.O.L K b b b b z j j j k z b b b b b j r q -  .{._._.(.M.:.-.X.X.E I L L L L L L K N k t 7 ; # # @ O O # % ; ; % o : j z C X.N.L a a p r r e e e e e e r r r j j x c b c ",
"b c v v c v v v g f f r e e q 7 1 1 1 1 < < < < < < < 1 7 7 7 0 0 e r r % @ : ( y.w.w.-.I L K b b b z j j j j j j k b b j j r e q - X.T.V.k.i.:.-.-.X.E U L C C C C L L L L L L C z t > = - > > 8 5 ; = o - r z C ..i.Z a a r r e e r e e e e e r r f j c c c b ",
"G n c v v v c v g f r e e q 7 1 1 1 < < < < < < < < < 1 1 7 7 7 0 0 0 e % @ : U y.w.w.:.I K N b j j j r r r j j j j j j r r e w 7 % X.D.u.y.:.:.-.X.E P U K C C C C I ~ U L L L C C z j > = 7 0 > 7 r > o % r z C U 0.C a a p r e e e e 7 7 7 e r r r j j c c b ",
"G G c c c c c c g f e e e q 7 1 1 < < < < < < < < < < < < 7 1 7 0 0 0 e - @ > L y.w.w.:.K b b z j j r w w r j j j j j r e e w w < # E M.y.-.k.u.X.E U U U K C C C C L ~ ~ U L L C C b z r - - ; 0 b j 9 % # e z C I i.b a a r r e e e q 7 7 7 e e e r j j c b G ",
"G G G b b v v v g f u e e q 7 1 1 1 1 < < < < < < < < < 1 7 7 7 7 0 0 e ; @ < L 0.8.:.-.N b b z j r e w e r i j i r r e w w w q : # E k.:.y.J.8. .U U L L L C C C C L ~ ~ ~ I L C C N z j > = - e r e e - # 7 k N I 0.j r r r e e e q 7 7 7 7 e r r f j j c b G ",
"G G G G b v v v g f r e e q q 7 1 1 1 1 < < < < < < < 1 7 7 7 7 7 0 r 0 & @ 1 Z :.@.:.-.b b b j r r w w r r r r r e e q q q q q : # U k.:.C.V.X.U L L L L L L L L L I ~ ~ ~ ~ U C C N z j 7 = ; 0 e e e ; # > j b I X.r e e e r e 7 7 7 7 7 e e r r f j x b G G ",
"G G b b v v v v g f e e e q q q 7 1 1 < < 1 1 < < 1 1 7 7 7 1 1 7 0 7 - @ @ 7 L O...:.X.b b j j r r e w e w e r e q 7 7 7 7 7 q - # b k.i.F.:.E U L L L L L L L L ~ ~ ~ ~ ~ ~ I K C N z j 7 = > 0 e e e : # = r z I 0.z e e r r e 7 7 7 7 e e r r r f j c b G G ",
"G G b v v v v v x f y e e q q q 7 1 1 1 1 1 1 1 1 1 7 7 7 7 7 7 7 > : ; @ # r U ..O.y.E j j j i r r w w w q q w q 7 7 7 7 7 7 e : # j a.8.-.[ U L L L K K K L L L ~ ~ ~ ~ ~ ~ I L C N z j 8 - 7 e e e e 0 7 = > j b C j r e r r e q 7 7 7 q e r r r r f c G G G ",
"G b c c v v g g g f r e e q q q 7 7 7 1 1 1 1 1 1 7 7 1 7 7 7 7 7 8 0 1 @ % k L ..O.y.L j j j j r w w w q q q q q 7 7 7 7 7 q e : # j u.X. .I U L L K K C C L L L L I ~ ~ ~ ~ I L C N z j e > 0 e e e e e r r : : ; ; < r r r r r e 7 7 7 7 e e e r p j c G G G ",
"c c c c v g f f f f u e e e e e e e q 7 7 1 1 1 1 1 7 7 7 7 1 1 7 0 0 : @ : M L ~ O.0.b u j j j r e w q q q q q q 7 7 7 7 q e r : # e :.X.X.I U L K K C C C C C C C K L I ~ I L L C N z j r r e e 0 e e 7 7 r j : @ @ ; f j f r r e q 7 7 7 7 e e r f j b G G G ",
"v v c c x g f f f f f r e e e e e e e q q 7 7 7 1 7 7 7 1 7 7 7 7 0 0 - @ 7 N N ~ O.:.j r r u r r r q q q q q q 7 7 7 7 q e e e < # 7 -.X.X.E U L K K C C C C C C C C C L L L L K C b z j a r e e 0 e 7 7 7 0 0 : # # 7 j j j f r r e e q 7 e e e r j x c b G b ",
"v v v v x g g f f f f f f f u u e e e e q q q q 7 1 7 7 1 7 7 7 7 0 0 % @ e N N L X.X.r r r r r r r w q q q q 7 7 7 7 q e e e e < # 7 =.X.X.E U U K K C C N b b b b C C C C L L C b z z j a r e 8 7 7 7 7 7 0 1 - # = j b z j j f r r r e e e e r r j c c b c b ",
"v v v v v v x g g g g f f f f f r e e e e q q q 7 7 7 7 7 7 7 7 0 0 8 % # t N N K -.X.w w e e e r w w w w q q 7 7 7 q e e e e e < # 1 O.X.X.I U P K K C C b b b b b N C C C C C b z z j a a r 0 7 7 7 7 6 7 7 > = @ > L C b b j j f r r r r r r r j j c b b c c ",
"v v v v c c c v v g g f f f f f f y e e e e e e e q r 7 7 7 7 7 0 0 7 # - k N N I k.K q w w w w w w w w w w 7 7 7 7 q e e e e e > # - K X. .U U K K K C b b b 7 7 b b b b b b b b z z j t t e 7 7 7 6 4 6 7 7 > = O 7 O.L C b j j j f r r r r f f j x b b b b b ",
"v v v v c c c v j g g f f f f f u e e e e e e e e e j : 1 7 7 0 0 0 > @ > V V N 8.,.r q q w w w w w w w w q 7 7 7 7 q q e e e < - # - G ,. .P P K K C b b b b e 7 b b b b b b b z z l j a r 8 7 6 6 4 4 6 6 7 > = @ r i...L b j j j f f f u f f j j c b b c b b ",
"c c v v v v v x g g f f f f f f f e e 7 r r r r r e r > ; 7 7 7 > = # @ e Z N Z 8.b 7 7 q q 7 7 q q q w q 7 7 7 7 7 7 q q e e - @ # 7 =.=.E U K K C b b b b b z z b b b b b b b z z z j a r 7 7 > > 4 4 7 6 7 > = # t N.8.I C b j j f f f f f f j j x x c b c c ",
"v v x g g g g f f f f f f f f f f e : 7 f f f f r r 0 7 - < 7 ; = # @ # a Z N / ..w 7 7 7 7 7 7 q q q q q 7 7 7 7 7 7 7 q q q : o @ 1 G U U U P K K b b b b z z z z b b b b b z l z z l j r 7 7 ; ; : : > 4 7 > - # 7 a.a.o.L C b j j f f f f f j j j j j x x x ",
"x g g f f f f f f f u f f f f f u : - f j j j f f r 0 e : ; 1 - - ; = # k Z Z @.C 7 7 7 7 7 7 7 7 q q w q 7 7 7 7 7 7 7 7 7 7 : @ o < b U U U P K K N b b b z z z z b b z z z z z z z z j t 0 7 ; % ; : : : > 6 ; # > 7.N.7.~ K b j j f f f f f f f f j j j j x ",
"g f f f r r e e e e e f f f f f 1 % r c c x j j f r 0 0 7 = < > ; ; ; % z Z L @.j 7 7 7 < < < 1 7 7 q q 7 7 7 7 7 7 7 7 7 7 7 > @ X - j K U U U K C b b b z z z z z z z z z z l z z l l j t e 7 > % = : > : : > ; # = ~ B.i. .K b j j f f f f f f f f j j j j j ",
"f r e e e e e e e e e r f f f r % < b b b c j j p e 0 0 0 = ; < ; ; ; = M A U ..e 7 < < < < < < < 7 7 7 7 7 7 7 7 7 7 7 7 7 7 1 # X % u K U U P K N b b b z z z z z z z z z l l z z l j a r 7 7 > - # - ; : : : ; # # V N.a. .C b j j f r r r r r f f f f f f f ",
"e q q 7 7 7 7 7 7 7 1 1 1 < 1 - & j b b l e 0 8 7 7 7 7 8 ; # ; ; ; = % t M L Z 7 < < < < < < < < < < 7 7 7 7 7 7 7 7 7 7 7 7 7 % o # r b U U K K b b z z z j j j j l l j j j j r 7 7 > - = = = % # o # % = = = = # # 7 C C j r e e 7 7 7 1 1 1 1 1 7 7 e e r r ",
"& & & & % % % % % # # @ @ @ @ @ # & & : - % % # # # # # # @ @ # # # # @ = ; > > ; ; = = ; < < < < < < 7 7 7 7 7 7 7 7 7 7 7 7 7 = o # e j K P K C b b l l j j j j j j j j j j e - @ o o % : < < > : ; ; ; ; - = = = # % = : < > : < < < < < < < < < < : : : : : ",
"e q e q 7 7 7 1 1 , - - : : : , , - & # % j j 8 7 > : ; ; > < > > : - - % # % = = = # o o # = ; : : < 6 7 7 7 7 7 7 7 7 7 7 7 7 : o @ 7 f b K b b b z r j j j a a j j j j r 0 : - % o ; b C C C C C z j j j a r a e ; 7 e r j j j c b G G K Q ] ] %.] T R ,.R H ",
"f f f f u r r r e e e 7 e e f v b G b : - ..O.z k r 0 0 t k N S @.w.9.i.w.I k t a t 0 > ; ; = # # @ # # = ; > 7 7 7 7 7 7 7 7 7 > o o % : 1 r j z j e 7 7 a r 8 0 j j j r 0 7 - - - o : L L C C C C N b b b z z z j > 7 r r j j j j j c c b b G K K K P ,.3.G ' ",
"r r r e e e e e e e e e u u j b K Q K : # V } z N t 0 t j k Z _ 5.s.B.P.Q.W.B.s.9._ Z k t t r 8 8 ; = = # # @ # # - ; > < 7 7 > # o o @ @ o @ # = = # # = > : ; 7 e r r 0 0 : - - # X 7 O.o.L C Z L Z C C C C C C b 7 7 r j f f j f j j j j j j j j j j c j e f ",
"e e e e e e e e e e e e r f x b K Q j % % a ! U V r r t t k B _ 4.5.t.B.W.P.d.9.} ! M s a j t t j t r 8 8 8 8 6 ; # @ o @ # # o X o ; 7 8 7 r 7 > > > ; ; ; ; # % = = = ; ; % # @ o o b r.q...L U L L L L K C C C C j 7 a n f f f f f j j j j j j j j j f f e e ",
"u r e e e e e e e e e e r f v b K P 7 # # a / ! t t t t t z / 8.4.4.9.s.K.v.5._ ! B z a t a t t j k t t t t t j a t 8 : % = ; ; # o > 0 0 a V V V V N N N N N M k j r e 7 7 : # o o @ U N.i.O.~ ~ ~ I I U L L C C C b r I b p r r f f f j j j c x v x j j j r e ",
"f f u e e e e e e e e e u f v b G b < # # z ! M t t a j k N ..4.4.4.8.w.t.4._ ! L N M k k t t i s k t t t t t t k k k t 7 0 j j 6 @ ; 0 r a k t t t a j z b b N N C b b b b r 1 @ o > 0.Z.M.:.~ ~ U U I ~ ~ Z C C C z b Q j r r r r f g j j c c x c c c c c f e ",
"g f f r r r e e e e e r u f v b G f : # # N @.N k k k k M B ! / } @.4.4.4.O._ ! L N M k k t t t j j t t t t t t t k k k j j k t ; # = r a k t 8 8 0 t j k z b b z b b b b z f e # # z N.Z.N.@.~ I L K K U ~ L C C b z b b r r r r r r j j c x x x c c b b b j r ",
"v j f f f u u e e e e u f j c b G r : @ # k w.A M M M M N B ! ! _ _ } O.O.O._ ! L N M k t r 8 t t a t t t t t t t t a a t t t 7 ; @ # r z s 8 8 8 e t j z b b b b b b b b j f e % % z a.Z.i.o...~ L L L L L L C C z z j f r r r e r r f j x c c c b b b b b x f ",
"c v j f f f u e e r u f j c b G G r < @ @ r i.! M M M M N N Z L ! _ _ _ _ _ / ! B M k t r 8 8 8 t t t t t r 8 r t t t t a t w > # o # N ~ t 8 8 8 r t j z b z z b b b b b j f r % # j -.N.:.O.o.~ a z L K L L C C z j f r r r r e r r r f x c b b b b b b b c c ",
"c c c j f f u r r f f j c G K P n r : @ @ r v./ M M M N B N N B L ! ! _ ! ! L Z M k a r 8 7 7 8 8 0 8 8 8 8 8 8 t t t j j t 7 ; o o # O.~ 8 8 8 e r a k z b b b b z b b b j r e % % z  .e.:.O...~ z z L L L L C b z j r r r r e e r r r f j c b b b b b b b b b ",
"c c c v f f u u f f v c n K R Q b e % @ # C B.! M M M B N N B N B ! ! ! Z B N M k t t 8 6 7 7 8 8 8 8 8 8 8 8 8 t t j k j t 7 # o o # b a 8 8 0 e t a z z b b b b b z z z j f e # - N  .0.0.O...~ ~ ~ L L ..L C z j j f r r e e e r r f f j j c b b c b b b b b ",
"c c c c g f f f g v c b G R Q E b q - @ = U B...M M M N N N B B N B Z Z N M k k t t 8 7 4 4 7 7 8 8 8 8 8 8 8 8 t t k k j t > o o o # k r 8 8 e r t j z b b z z b z b z z j j < o - C O.0.i.:...~ ~ ~ L u.j.L C z j f f f r e e e r r f j j j c c x c c c b b b ",
"c c c c x f f j c c c G K Q E Q j 1 - @ = L v.7.M M M N B N N N M M k k k s a t 0 8 7 6 4 4 6 7 8 8 8 8 8 8 8 t t j k k k t = o o X ; Z a 0 0 r t a j z b b b b z z b b z j 7 # X : L -.0.a.r.o.{ ~ ~ X.k.O.L C z j j f f r e e e r f f j j v j x j x c c c c c ",
"v v c c c j x c v c G K Q Q Q G 7 > % @ % L B.7.N M M M M M N M k k t t t r 8 8 8 7 7 4 4 4 6 6 6 6 7 8 8 8 8 t t k k z z r # o o X : b t e e t a j k z z z b b b z b b j 7 : ; % 1  .:.0.a.i.o...~ ~ -.o.U C b z j j j f r e e r r f j f j v j j j j j j c x c ",
"v v c v c c c c v n K Q Q Q Q G r e : @ % M d.5.N M M M M M M k k t r 8 8 8 8 8 7 7 7 7 6 4 4 > > 4 7 8 8 8 8 t t j k M k 7 o o o X < k r 0 r t j j k z k z b b b z b b j j z j : 7 X.:.0.a.a.O.o.{ ~ ..~ L C z z j j f r e e r r r f j j j j j v v j j j x x x ",
"b b v v c c b b G P Q Q Q Q Q Q P j : @ % k @.! M k k k M M k k a t 8 7 7 7 7 7 7 7 7 7 7 7 > > > > 6 7 8 8 8 r t k z M z t = o o X > t e 0 r t j k z k j j z b z k z b C C K n ; 7 -.0.e.i.a.O.O...~ ~ L C b k j j f r r e e e e r f f j j j j v j j j c c b b ",
"G n c c c b G K R Q Q Q Q Q Q E U 7 & @ % j ..V k k k k M M k k t 0 7 7 7 7 7 7 7 7 7 8 8 8 4 > > > 4 7 8 8 8 0 t t k M U N k ; X X : r 0 0 e t j j k j t j k z z z b C K C U K - q :.i.a.k.j.@.O.O...~ L N z j j r r r r e e e e r r f j j j j j j v c b b b n ",
"n v c c v G K T Q Q Q Q Q Q Q E K 1 - @ % a ..Z k k k k M M k s t 8 7 7 7 7 7 6 6 7 8 8 8 8 6 > > > 4 6 7 8 8 0 k k a N U I ~ ; o   ; r 0 0 0 r j j j t t a j j k z b C P K X.c - 7 -.k.N.N.k.@.O.O...I C b j j r r r r r e e e e e r j j j c c j c c b G G n n ",
"G b c c b G K Q Q Q Q Q P K Q E P 1 & @ % a O.! k k k k M k k s t 8 8 7 7 6 4 4 6 8 8 8 8 8 7 4 > > 4 4 6 7 8 8 8 t j t r N k = X   - r 0 0 0 r a a r e r t j j k z C K P E :.e - 7 -.V.D.Z.N.:.-.O.~ L N z j f r r r r e e e e e e r j j c c c c b b G K K G K ",
"G G G n G K R Q Q Q E Q K K Q E P q % @ % k @.C k k k k k k k k t 8 7 ; ; 4 4 4 7 8 8 8 8 8 7 4 > > 4 > > 4 6 7 7 8 8 t 8 > - = X   = 0 0 0 8 r t r e e r t a j z b C P U ,.,.< & 1 -.Z.D.D.V.:.-...U C b j j f f r r e e e e e e r f j c x x b b n G G K K K K ",
"G G G G K P Q Q Q G b b b n P Q P e @ @ # z ~ Z k k k k k k k a t 8 8 : : 4 4 7 7 8 8 8 8 7 7 4 > > > > > 4 4 4 6 7 7 7 8 > = = X   % 0 0 0 0 e t r 0 0 r a j k b b K U X.u.] ; # < X.Z.L.D.Z.y.O.{ L C b z j j f u r e e e e e e r j j x c b b n n G K K K K K ",
"G G G G K T Q Q P e - ; : > 7 j j : @ @ @ - ; ; > 7 6 7 7 7 8 r r 8 8 8 8 4 4 7 7 8 8 8 7 7 6 4 > > > > 4 4 4 4 4 6 7 7 7 6 ; % X   = 0 0 0 0 0 e e 0 r a j j k b C P  .:.k.K - @ : I Z.U.L.D.u.o.~ L C C b j j j r r r e e e e e r j j c b n n n K K K P K K K ",
"K K K K R Q Q Q P n : % & % % % % % # # # # @ @ @ # # # % = ; ; > > > 4 7 7 7 7 7 8 7 ; > 4 4 4 > > > > > > > 4 4 4 4 4 4 > 4 =     = 0 0 0 0 r e e r t j j j z N K I X.y.k.b % @ & b k.U.Y.L.u.o.~ L Z C z z j j r r r e e e e r r j l b b n n K K K P P P P K ",
"R P R T Q Q Q Q K n > f W b r r r e q 7 1 < : % # @ @ @ @ @ @ @ # # # = : : ; ; ; ; = O $ ; ; ; ; ; ; > > > > > > 4 4 4 > > 4 ; X   = e 0 0 0 t r r a j j j k b C K E ;.y.k.l % + # j y.Y.Y.L.u...~ L Z C z l j f r r r r e e e r f j z b b n K K K P Q Q P P P ",
"T T T Q Q Q P K n j < b.z.X.K N b b b b b b j r 7 : % # % % % - % # # # % # O O O # O O O O O # # # # $ = ; ; ; ; ; ; > > > ; = X   - r 0 0 r a a j j j j j k z N C Q ;.2.u.l % + # f =.G.Y.I.a...~ U C N z c j f r r r e e e r f j j z b n K K K P Q ] ] Q Q Q ",
"Q Q Q Q Q P n b c 1 H /.f.;. .K C b b b b j x x j j f u j 7 7 r > ; = ; 7 r 7 4 4 - = O O O O O O O O O O O O O @ @ @ # # # @ o     : a 0 r j k k k j j k j j z C C U X.2.2.c % . # f E V.D.I.j...~ L C b z j j j f r r r r r r j j z b b K P P Q E ] ] ] ] ] ] ",
"Q Q ] ] Q K n v u 1 S.~.2.:.X.U C N b b b x j j j j c x c e : 8 8 7 ; 7 ! B.9.8.5.} ! M a a r 7 4 > ; ; = # O @ @ @ @ @ o o X X   X 7 z t j k z z z z z k j j z n C P K [ 2.b % . @ r P u.Z.I.j.~ L Z C z z j j j f r r r r f f j j z b G K P Q ] ] ] ] ] ] ] ] ",
"] X.=.=.Q K n c < Y ).z.,.;. .U C N b b l j j j j j x x j r - > 7 8 > 7 @.B.9.9.9.5.4.../ / _ ~ U Z V M M k a t r r 0 t k k 5 # o # r C k z b b b b z z k j j k n K P b 7 K j % + @ 7 n ,.V.I.x.~ L C b z z j j j f f r r r r f j z b N K P U E ] ] =.X.X.X.X.] ",
"=.=.=.=.Q P G j < S.^.2.;. .U K C b b x x j j j j j j j l f - ; > 4 ; 0 w.d.9.5.4.4.} / / / ^ ! U A Z A A A A A Z Z Z A ^ A 0 % o ; j U z z b b b b b z k j j z C K P ,.n < 1 % @ + 1 b :.V.L.M...L C b z z j j j j f f r r r f j z b C C K U [ ] X.X.X.X.=.X.X.",
"=.;.=.=.E P K r 7 A.z.X.[ b r C b b j j j j j j j j j j l j - % ; ; ; t v.d.9.5./ ^ } ^ A Z Z Z Z Z N B B Z A A Z N N M z z 8 = o ; j I b b b b b b b z k j j z K P P =.K 7 < % @ + 1 b y.Z.L.C...U C C z z z j j j j f f f r j j b N C K U I  .X.X.X.X.X.=.X.X.",
",.,.;.=.E Q P e 7 l.,.U P K b C b c j r r r r r r j j j j j > % % = - t H.B.9.4.s t A A Z Z Z Z Z Z N N N N B Z N N M z z z r = o ; j ( b b b b b b b z z z b b K P P Q ] n r - @ @ 1 b u.Z.D.C.o.U Z C z z l j j j j j j j j j b C C K L I { ..X.;.;.X.X.X.X.;.",
",.,.:.=.E Q P j 1 3.2.P P C C N b j j r r e q e e f j j j j e - # # = 7 a.s...} z a Z Z Z Z B B B B N N M N M N M N z z z z r ; o ; a ( b b b b b b b b b b b C K P P P Q R j - @ @ 7 c ,.V.Z.V.o.L C N z j j j j j j j j z z b C C K L I { ..X.;.-.-.=.X.=.-.,.",
"2.2.,.=.] Q P b 7 b ;.K C N b b b j j r r q q q e r j j l j f : o @ % ; z 7.../ Z N N B Z B N M M z z z z z z z z z j k z z t ; o % 7 I C C b b b z b b C C C C K P Q Q Q P r & @ + 1 c :.V.V.V.O.L C N z j j j j j j j j z b C C K K I ~ { X.=.-.-.-.-.-.,.:.0.",
"y.y.,.;.] Q P C j < < < 7 f j b x j j r e q q q q r j j l l j q # o # - r 7...A B M M M N M z z k j a a a a a j z k 0 a k z a ; o # 1 L b b b b z z b b C K K C K P Q Q Q P e % # . 1 c -.k.V.V.@.U L N z j j j j j j z z b N C K K K U ~ { ..-.,.,.-.-.,.<.y.y.",
"y.y.2.,.=.Q P K j q % # # # - 7 r j r r e e q q e r j j l l j f 1 # # = 7 ~ ! Z N N N N N z k j t r r r t t t a j j a j j j a ; X @ , n C b b b b b b b n C K K K K P Q Q K 7 % #   < c X.k.V.V.8.U L C z c j j j j j z z z b C C K K L I ~ X.-.,.:.:.:.y.y.y.y.",
"y.y.y.,.;.] P K b u < < 1 & @ @ # - 1 e r r r r r r j j j j l j r 1 # % ; k ! Z Z N N N N M j t 0 0 0 0 t t j j j j j a j j r ; X @ , b K K b b b b b b K K P P K K P Q Q K e % #   , c X.u.k.V.i.~ L C b z j j j j j j z z b b C C C K L { ;.-.:.y.y.y.y.f.y.y.",
"y.y.y.,.;.] U K b j f j f r 1 - # @ @ % : 1 q e r j j j j j j f e 7 @ o # r / Z M M M M M k j r 8 8 8 0 t j j a a a a e e e 1 #   # , G T K C b b b b b K P P U U P P Q Q Q c - #   : c E y.k.V.u.~ U C b z j j j j j j z z b b C C C K L ~ =.-.:.0.y.y.y.y.y.y.",
"y.y.y.,.;.[ P C b l x x j j f r 7 & @ @ @ @ @ # & - , : : : ; ; - # o X X ; 8 ; = = = = ; ; = = = % % % = ; ; ; ; ; ; % # @ @     # , K =.R K b b b b b K P Q Q Q P P Q Q Q K < # . - j I ,.k.V.N.{ I C b z z j j j j j z z b C C C C K U I X.-.:.y.y.f.y.y.y.y.",
"y.y.,.,.=.Q K b b b j j x x j f u r < - & % @       # - e j z j e e e j j 7 1 1 7 7 1 1 e e q e e q e r 7 > e r a a r e & @       % , T ,.%.P K C C C C K P Q Q Q P P Q Q Q K q # . & j K X.u.V.Z...L C z z z j j j j j z b N C C C C K I { X.-.,.0.y.y.y.y.y.y.",
"2.,.,.;.E P n b b j j j j j j j j j f u e 7 &     @ 7 b / ..I C C C K I ( K C K K U I Q E E E U K C C C b e b Z C Z U b 1 & @     & , ] ,.=.[ P K K G G G P Q Q Q P Q Q Q Q P f # . & f C  .2.V.L...K N z j j j j j j z b b b N C C L U ~ { X.-.-.:.2.y.y.y.2.0.",
":.;.=.] P K b b j j j j j j j j j j f f u 7 & @   X 7 K I b j b b N C C C K C K K U U I Q Q P  .@.@.X.o...-.k.0.b b L n r : %   . : 1 %.1.=.%.T K K K G K K P P K P Q Q Q Q K l % + & f b E ,.k.I.-.Z b z x j j j j j z z b b b C K L U I { X.-.-.-.,.:.<.:.,.,.",
"=.=.] Q K C b b j j f u u f f f u u r u u 1 & @     < C z j j b b N K C C K C K U I Q Q Q K E -.-.-.:.0.0.0.k.X.a j b b f : %   . : 1 %.3.;.%.T P K G K K K K K K P Q Q Q Q P b & + % u b U ;.k.I.:.C b z x j j j j j j z z b b C K K U ~ { X.-.-.-.-.,.-.-.-.=.",
"E Q P K C b b b j j u u u u u u u u u u u 7 % @     < b j j j b b N C C C C K L U Q Q Q K X.:.-.+.+.+.+.X.X.<.U a K C b j : #   . : 1 T 3.>.%.T R K K K K K G K K R Q Q Q Q P c & @ # r j P X.u.L.w.C b z j j j j j j j z z b b C K K U I {  .-.-.-.:.:.-.=.X.{ ",
"P K C b b b b c j j u u u u u u u u u u u 7 &     X < b f j j x b b C C C C C K U I Q P I X. .X.X.X.X.X.[ E =.Z C U b b j : #   . * < H h.>.&.$.T Y K K K K K Y R Q Q Q Q Q P v - @ # r j K X.u.L.w.C b z j j j j j j z z z b b C K K U I {  .=.-.-.:.:.;.X.{ I ",
"C b b b j j c j j f u u u u u u u u u f f 7 & @   @ 1 b f j j j b b b b N C C C K U I U E E E E [ [ E E U K U K K b c b j : #     & , G 3.>.&.$.R R R P P R R R Q Q Q Q Q Q P v - @ @ e j K ] y.D.u.C b z j j j j j j z z z z b N C K U I ~ {  .=.-.-.-.X. .I K ",
"b c j j j j j j f u u u u u u f f f f f f e & @   @ 7 b r f f j j b b b z j b C C K K K L L L L L U L K C n K K c j x j f < #     % , v >.>.&.$.T R R P R R T Q Q Q Q Q Q Q R b - @ @ 7 f n [ 2.Z.C.C b z j j j j j j j z z z z b C Z L U U ~ { X.;.;.X.~ U K C ",
"l j j j j j f f u r u u u u f f f f f f f e & @ . & r b r r r j j b b b r b P C C C K C C C C C C C C n b b b b x x j f f 1 %     # : f >.>.*.&.` T T T T ` T T W Q R R Q Q Q b : @ . 1 f b  .:.V.L.K b z z l j j j j j z z z z b N C K L I ~ ..X.X. .~ L K C b ",
"j f j j j j u r r r r u u f f f f f f f g e & + @ : j b r r r f j x b b P f.=.C C C C n n n n n n n b b b b b j j x j f f 7 %     @ * y *.>.*.&.$.` ` $.` R R T T W T R R Q Q G : @ . : u b  .y.Y.F.b b b j j a a j j z z z z z b N C K K I {  .X.{ ~ I K C b j ",
"f f f f f f r r r r r u f f f f f f f x v r &   @ : b z e r r j j x b b b b b b b n n b n n n n n b b b c c x x j j f f f 7 %     @ * y *.>.>.&.&.$.` ` T Y Y Y Y Y R K K R R b : # . : r b X.N.Y.D.k.:.-.I j j j j j j z z z z b N C K L I { { { ~ L K C b j j ",
"r r u u r r e q r r r u u f f f f f j c c u #   @ < j j r r r j j j x j x j c b b b b b b b n b b b c x x x j x x j f f f 7 #     @ * 7 $.>.>.*.&.&.$.T Y H H H H H K K K K K b : @ . - r l E 2.V.'.k.U C c j j f f j j j z z z b b C K K U I ~ ~ L K C b j j f ",
"r r u r r r e q r r r r u u u f f f v c b r @   @ 7 r f r r j j j j j j x j x b b b b b c b b b x j j j j j j j j f f f f < .     @ * 1 H *.>.*.&.&.$.T H H H H H G G G G G F v : @ . & e j K =.k.Y.R K x j j f f u r f j j z z z b b C K L U I U L C C b j f p ",
"r r u r e e r r r r r r r u u f f g c b b 7 @   # e r r r r f j j j j j j j j j x x c x j j j j j j j f j j j j u f f f r #       @ * , b &.&.&.&.%.` Y H G G G G G D D b b v v : @ . & e f b X.p.L.R C j j j f r r r r j j j j z z b b C C K K K K C b l f r r ",
"r u r e e e e e e r r r r u f f f v c b b , @   % e r r r r f f f f f j j j j j j j j j j j j j f r r f f f f f u f f j :         @ * , g %.&.&.&.$.T Y H G G G D b v v v g g g : @ . & e r b X.k.Y.R n j j f f r r r r r j j j j z z b b N C C C C b z j r e e ",
"r r r e e e e e e r r r u u f f j c b G G 7 #   % e r r r r f f f r r u f f j j j j j j j j f f r r r u r f f f f f j j : @       @ * , f T $.$.$.$.T Y H G G b b v g g g f f f : @ . % e r b X.n.L.P n j j f f r r r r r r j j j z z z b b b b b z j j r e e e ",
"r r e e e e e e e r r r r u f g c b G G Y c &   & e r r r r f f r r r r f f f j j j j j f r r r e e r r r r r f f j j j < #       # * , y Y T T T T Y H H G b b v g g f f f y e - @ . % e f K X.Z.F.K b j j f f f r r r r r r f j j j z z z b b z j j p r e e e ",
"e e e e e e e e e e r r r f f v v b b G T b ,   & e r j r r r r r r r r f f f f f f u r r r e e e e e r r r r f f j j j : @       # * , 3 H H H H Y H H G G b b v g f f f y y e & + . & 7 j K =.G.D.K b j f f f f r r r r r r r f j j j j j z l j j f r e e e e ",
"e e e q q q q e e e e r u f f c c b b G T G <   & r f f r r r r r r r r r u f r r r r r e e e e e e e r r r f f j j j j 1 #       # * , e G G G H H H H G D b b v g f y y y e q & . . & 7 j K =.Y.m.K c j f f f f f r r r r r r r j j j j j j j j f p r e e e e ",
"e e e q q q e e e e e r r f f v c c b G Q P :   & r j r r r r r r r r r r r r r e e e e 7 7 q e e r r r f f f j j j j j 7 %       # * , f D b G G G G G D b v c h g f f y e e 2 % . . & 7 j K =.R.y.n j f f f f f f r r r r r r r f j j j j j j j p p r e e e e ",
"e q q q q q q e e e e r r f f j v c b G Q v #   % f j r r r r r r r r r r e e e e 7 q q 7 q e e e r r f f f f j j j j j q - @     # : , e v v b D G D D b v v v g g f y y e e 2 % . + - e l L X.D.X.b j f f f f f f r r r r r r r u j j j j j j j p r e e e e e ",
"e 7 7 7 7 7 q e e e e e r f f f v c c G R e @   & j j u r r r r r r r r e e q 7 7 7 7 7 q e e e e r r f f j j j j j j j e : #     # : , 2 e g v v b b b c v v g g f f y y e e 2 # . + - e b E V.F.y.) b j r u f f u r r r r r e e r f j j j j j j p r e e e e e ",
"e q 7 1 1 1 7 q e e e e r r f f v c c G F , #   : j j r r r e r r r r e q 7 7 7 7 1 7 7 e e e r r r r f j j j j j j f f r < #     # , , 2 y g g v v v v v v g g g f y y e e e 2 # . . - r b -.Y.}.F.E b r r u u r r r r r r r e e r u f j j j j j r e e e e e e ",
"e q 7 1 1 1 1 7 q q q e e r r f j v c b v : #   @ - : < 1 e e e e e e e 7 7 7 7 7 < 7 7 e e e r r r f j j j j j j f f f r 1 %     # * , 2 h g f g g v g g g g f f f y e e e 2 2 # . . & u K X.y.u.C j r r u f r r r r r r r e e e r r f j j j j f r e e e e e e ",
"e q 7 1 1 1 1 7 7 7 q q e e r f f v v b b , #   @ % & % % - 1 e e e 7 7 7 q 7 7 1 < 7 7 e e r r r f j j j j j j f f f f u 1 - @   # * , y h e f f f f g g f f f f y e e e 2 2 2 # . . : j K X.u.:.b r r r f r r r r r r r e e e e r r f j j j j p e e e e e e e ",
"e q 7 1 1 1 1 1 1 7 7 q q e r u f x v c b 1 % . # : : : : - % : 7 7 7 7 7 7 7 7 < < 1 1 7 e r r f f j j j j j f f f f r r 7 - @   # * , g f 2 u f f f f f f u y y y e q 2 2 2 2 # . @ 1 c C  .u.X.b r r r r r r r r r r r e e e e r r u j j j f r e e e e e e e ",
"e q 1 1 1 1 1 1 1 1 1 7 q e r u f f g v c e -   # < 7 7 < < ; # : 7 7 7 7 7 7 7 1 1 1 1 7 7 e r r r f f j j f f f f r e e 7 - #   @ * 2 D e 2 e e y y u u y y e e e e 2 2 2 2 2 @ . @ 7 j b K y.U b r r r e e r r r r r e e e e r r r f j c j f r e e e e e e e ",
"e 7 1 1 1 1 1 1 1 1 1 7 7 q e r f f f g c r : @ # 1 r q < < < - # 7 q 7 7 7 7 7 1 1 1 1 1 7 7 e e e r r r r u f r r e e e 7 - #   @ * f v 2 2 2 q e y y e e e e e 7 2 2 2 2 2 2 # . @ 1 j b j E K b r r e e e e e r e e e e e r r r u j j K j f r e e e e e 7 u ",
": 7 1 7 7 7 1 1 7 7 7 7 q q e r f f f f c u - @ @ < 7 < : < < ; @ ; 7 7 7 7 1 1 1 1 1 1 7 7 7 7 7 e e e 7 < e r r e u e e 7 % @   @ : g v 2 2 2 2 q e e e e e e 2 : 1 1 1 1 1 1 # . . # 1 j j b L b r e e e e e e e e e e e e r r r u f b P j r e e e e e q e g ",
"& 7 q q 7 7 7 7 7 7 7 7 q e e 1 : 1 e r u e - @   % - - - - - # @ @ # % - < 1 1 1 1 1 7 7 7 7 7 7 e e e > - 1 e e f e e e 7 % @   . * 2 h e 2 2 2 2 7 7 2 2 2 2 2 < 1 1 1 1 1 1 % . . . @ - r b X.C f r e e e e e e e 7 7 7 7 e e e r r G b r e 7 1 1 1 1 e f 1 ",
"# - - - - - - - - - - - - - & # @ @ # # % % # @   @ # # # # # # # # @ @ @ # % & % % % % & - - ; : : : % # # - 1 e 7 % : 1 < # X     @ % : , * * * & * * & & & & & & & - : : : : # . + . . . # r U j r 7 7 7 1 1 < : - & & & & - - - - - & & & % # # % % % & % % ",
"@ # # # # # # # # % % % # # # @ # % % % # @ @ @ @ @ & 7 e e 7 7 1 : : ; ; ; ; - ; ; - - - : < < < < < < : - - - % # # # # # @               @ @ @           . @ # # # # # # # # @ @ . + + + . @ & % % % % % # # @ @ # : < 1 1 1 < - % # # # # # # # @ @ @ @ @ @ "
};
