/* XPM */
static char *texture12[] = {
/* columns rows colors chars-per-pixel */
"128 128 168 2 ",
"   c #1D162A",
".  c #1F182D",
"X  c #141535",
"o  c #1F1630",
"O  c #1F1A32",
"+  c #161838",
"@  c #20152D",
"#  c #201A2F",
"$  c #211730",
"%  c #231C34",
"&  c #241E38",
"*  c #1E203E",
"=  c #262336",
"-  c #282737",
";  c #272836",
":  c #282937",
">  c #262239",
",  c #29253C",
"<  c #272839",
"1  c #2B2B3D",
"2  c #2D303F",
"3  c #30313F",
"4  c #1D2449",
"5  c #2B2740",
"6  c #2D2D42",
"7  c #2E2D49",
"8  c #312E45",
"9  c #322E48",
"0  c #2E3143",
"q  c #2F3449",
"w  c #323445",
"e  c #383447",
"r  c #323847",
"t  c #34354A",
"y  c #39354A",
"u  c #353B4C",
"i  c #3A3C4D",
"p  c #343652",
"a  c #383755",
"s  c #363E51",
"d  c #3B3E51",
"f  c #323B5F",
"g  c #3D3D5A",
"h  c #323C62",
"j  c #403F51",
"k  c #37404F",
"l  c #39414E",
"z  c #364254",
"x  c #3B4354",
"c  c #3F4857",
"v  c #374558",
"b  c #3D4559",
"n  c #3E4559",
"m  c #3C4758",
"M  c #3E4758",
"N  c #3D445B",
"B  c #3D455A",
"V  c #3F445B",
"C  c #3E455A",
"Z  c #3F475B",
"A  c #3F465A",
"S  c #3F425F",
"D  c #3E465C",
"F  c #3F465D",
"G  c #3F465E",
"H  c #3B4659",
"J  c #374859",
"K  c #3A495B",
"L  c #3A485A",
"P  c #3B4A5B",
"I  c #3E4859",
"U  c #3F495A",
"Y  c #3C4A5B",
"T  c #3C4B5D",
"R  c #3D4C5E",
"E  c #3C4C5E",
"W  c #3E4D5F",
"Q  c #3E4C5F",
"!  c #3D495B",
"~  c #3E4363",
"^  c #3E4A60",
"/  c #3F4E60",
"(  c #3E4E61",
")  c #3F4E63",
"_  c #3E4E60",
"`  c #3F5165",
"'  c #3E5161",
"]  c #414454",
"[  c #434856",
"{  c #404459",
"}  c #41465A",
"|  c #40475B",
" . c #43465B",
".. c #41475F",
"X. c #44475C",
"o. c #424659",
"O. c #424A5B",
"+. c #434B5C",
"@. c #46495E",
"#. c #434B5C",
"$. c #494E5C",
"%. c #4A515E",
"&. c #414562",
"*. c #414662",
"=. c #414761",
"-. c #414662",
";. c #424B60",
":. c #404862",
">. c #434A63",
",. c #474A60",
"<. c #404E61",
"1. c #414C63",
"2. c #414F62",
"3. c #404F63",
"4. c #424B67",
"5. c #444D62",
"6. c #484E64",
"7. c #414768",
"8. c #454F6B",
"9. c #464F69",
"0. c #4D4F69",
"q. c #425061",
"w. c #435263",
"e. c #445163",
"r. c #465165",
"t. c #445163",
"y. c #4A5263",
"u. c #4B5966",
"i. c #455268",
"p. c #455369",
"a. c #46546B",
"s. c #44576E",
"d. c #45526A",
"f. c #485768",
"g. c #4A546B",
"h. c #4C546B",
"j. c #455D6D",
"k. c #4B5A6C",
"l. c #4D5A6C",
"z. c #515761",
"x. c #555B67",
"c. c #51576A",
"v. c #515A6E",
"b. c #585F6E",
"n. c #424C71",
"m. c #475376",
"M. c #4F5770",
"N. c #4F5B73",
"B. c #4D5A76",
"V. c #4E5A71",
"C. c #515F77",
"Z. c #535D74",
"A. c #546174",
"S. c #5B6475",
"D. c #5B6976",
"F. c #53637F",
"G. c #57637A",
"H. c #5A647B",
"J. c #5D6A7E",
"K. c #616774",
"L. c #626D7C",
"P. c #556480",
"I. c #556784",
"U. c #5A6982",
"Y. c #5B6B86",
"T. c #626C86",
"R. c #607482",
"E. c #667389",
/* pixels */
"v v v v z u u u u u u u u u u u u u u u u t , % % % % % d T.^ s t 6 > % % % % & > , 1 , , t i d 8 & % & 6 4.Y.E.{ d d s p p p p p p s s p p t , u s s s p t t t s J z t u u t u u t u u s s z x x x v M M Y +.@.O.x s u u t t w w 6 & % t k.v u u q q q 0 > , u ",
"v v v z z z u u u u u u u u u u u u u z z v u > % , 6 s ( 2.J v z z u 6 > % 9 d d d d i t t t X.x w 6 a 8.F.U.r.b p p s p p p d d x d s a d w , t s s s u t t t z z u t u t t u u t t u u u u u s s v v v v Y O.x x s s u u t w w 0 = & M g.Y v u u t q q 1 1 u ",
"v v v z z z z u u u u u z u u u u u s J K T T s p 2.2.s.q.T K z s u u u w > &.b i i i i i t t d @.d M B.P.C.;.M b s d p p s d M F M M M M M t > t s s u t t t u s s u u u u t u u u t t w w w u u s x v v x v v x s s s u w w w w 6 = , w.q.K v z u u t u 0 6 u ",
"v v v v z z z z z u u z z z s s u u z K T ( 2.i.i.i.T ( ( ( T J z s u t w > ~ { i i i i i t t t ,.d d Z.g.M { X.{ M b x b b b ..4.&.F &.;.&.w > t s s t t t u s s u u u u u u t w w w w 0 0 0 w w u u x z s s s d s s u u w w w t 0 = , w.q.Y v u u u u u u u u ",
"v v v v v v z z z z z z v z z z s u z J T T 2.i.q.T K T ( T T K v s u t w & t g t t t t t t t t i u u d x { @.@.@.@.X.{ @.{ ..>.g.6.&.&.&.&.w > t s s t t t s s s s s s u u u w w w w w 0 0 0 0 0 0 w u u u u s u u u u t w w w w w = 6 r.q.Y v z u u u u u s z ",
"v v v v v z z z v z v v v v v z s z z z J T q.2.T K J K K K K J z u u u w & , t t t t t t t t t t t t u d b X.@.@.@.@.@.@.F ;.g.g.g.8.6.4.&.q > p s u t t s s s d s s x s s u u w w w 0 0 0 0 0 0 0 0 w w w w t u w w w w w w w w w = 6 y.w.T v z z u u u u z v ",
"v v v v v z z v v v K K K K v z u u z z z K T J v z v K K J J z s u u u t & > t t t t t t t t t t t t u u d { @.@.5.6.5.+.;.>.6.g.h.g.g.4.&.w , d s t t s s d x d s x x M Y x u u t t w 0 0 0 0 0 0 0 w w w w w w w w w w w 0 w t w = 1 y.w.T v z z z u u u z J ",
"v v v v v z v v v K Y Y Y K v z s s u s s s u s z v v v v z s u u u u u t % > w t w t t t t t t t t t t t x X.@.@.5.6.6.6.g.h.h.h.h.g.8.6.&.w , b s u d x s x x x v v Y +.+.x x s u u u w 0 0 0 0 0 0 w w w w w w 0 w w w w w u u w > > 2.q.Y v v z u u u z v J ",
"v v v v v v v v v K Y Y Y Y K v z z s u u t t u u z z z v z u t t u u u t % % w t t t t t t t t u t t t t b @.@.@.5.6.g.g.h.h.C.Z.h.g.4.6.;.w , N s s x s s s x v Y Y +.+.2.Y v x d i u w w 0 0 0 0 0 0 w w w w w w w w w w t u u u > % M 2.T 2.T s s z z J J J ",
"v J J K K K J K K K K Y Y T K J J z z u u t u t t u s s z s t t t t u z t o & w t t t t t t t i u t t t u x +.@.@.6.g.g.h.Z.Z.Z.Z.h.g.>.&.&.w , g s s s s s d x Y Y T +.+.;.+.Y M v x i u w w 0 0 0 w w w w w w w w w w w t u u u u > % p q.2.T x z z J J J J J ",
"v K K K Y Y K K Y K J K Y T T T K v z s u u u u t t u u t t t t t t s v q o > w t t t t t t t u t t t t u d { @.6.6.g.g.h.C.G.G.l.h.h.6.&.&.w > p s s s d s x M Y Y O.+.+.+.+.+.Y M x d i u w w 0 0 w w 0 w w w w w w 0 0 w u u u u > % 6 J z u z z J J K J J J ",
"K Y Y Y Y Y Y Y Y K J J K T T T K J v z u u u u t 0 t t t t q t t t s v q o > t i i u u u i u t t t t t i d b @.6.6.g.g.h.Z.G.G.Z.h.g.8.&.&.w > 6 d s s x z x Y Y Y +.+.+.+.+.+.Y Y v x d u u t w w w w w w w u u u u t w u u s x u = % & 0 u u s z J J K J J J ",
"Y K K K J Y Y Y Y Y K K K K T T Y K v v s u t t t q 0 0 0 q q 0 t u z v 0 o > u d u u i i d s u t t t t i d d { @.6.g.g.h.v.G.H.G.Z.h.8.&.&.6 > w d s d x x v M Y Y +.5.+.+.;.+.+.Y v x x d u u w w t w w w t u u u u u u u u z x s , % % & 0 u u z z v v J J J ",
"K v v v v K Y Y Y Y Y K T T T T T Y J v z u u t t t 0 0 0 0 0 0 q u v v 6 o , d d i i d d d d d t t t u i i d d X.5.6.h.M.Z.G.J.H.C.h.6.&.S 5 > u s s z z x M M Y Y #.5.5.+.+.+.+.Y M x z d i u u t u w w w w u u u u u u u u x v x 6 % % % 1 u u u u u z J J J ",
"v v v v v J K K Y Y Y T ( ' ' q.( T T v z z u u t t 0 0 0 0 0 0 0 t s v 6 o 5 d d d d d d d d d t t i i i i d x { @.6.g.Z.C.G.J.H.G.h.g.&.b , > u d s s x x v Y Y Y +.w.w.2.2.#.+.Y M x v x d i u u t w w w t u u u u s x x x v Y x 6 % % 1 u u u z z s z z J J ",
"v v v v v z v K K K T ' w.q.q.w.q.' T J v z z u u q 0 0 0 0 0 0 q 0 t z 6 o 6 i u d d d d d d d t t t i i i d b M +.6.g.Z.Z.H.J.J.G.Z.g.>.g 6 , u d s s x x v Y Y Y #.w.w.w.w.w.2.+.Y v x d d i i u w w w w u u u u s x x v v Y #.Y 6 % w A.i.v v K K v v v v v ",
"z v v v v z z v v K T q.w.w.w.w.q.' T K v z z u u t 0 0 0 0 0 q q q t z 5 o , i t u i d d d d i u t t i i d d M M X.6.g.C.G.J.J.J.H.Z.h.r.b 6 , s x x x x x M Y Y +.5.w.w.w.w.w.2.+.Y x i i i i i i u w t u u u u u x x x Y Y w.w.+.6 6 N.k.v v J Y Y K v v z v ",
"z z v v v z z z z v K T T q.q.w.w.q.q.T K v z s u t q 0 0 0 0 0 0 0 t z 5 o > u t t t t u t t u i i i i i d b M M @.r.h.C.H.J.J.J.H.G.Z.r...6 , M x z x x v M Y Y T +.2.+.+.+.2.+.Y J x i d x i i i u u u u u u u x x x Y O.5.w.w.+.1 w T z v v J K Y Y J v z z ",
"z z z z z s s s s z v J K T ' q.q.w.w.q.T K v z u t t 0 0 0 0 0 t t t z , o & t t t u u u i u u i i d d d x M M { ,.g.h.Z.H.J.J.J.H.Z.h.r.+.8 1 r.M z x d x x v Y +.+.+.;.+.+.+.+.Y v x i s i i i i u u u u u u x x x Y T w.w.w.w.#.1 w K v v v v K Y Y K J v z ",
"z z z z z s s s s z z v J T T ( ' q.q.' T K v z u u t 0 0 0 0 0 t t u z 1 $ % t t t u t t t u i u u i d d d b M { ,.r.M.Z.H.J.J.H.Z.h.r.y.#.8 , x x z z z z x v Y +.+.+.;.+.+.+.T M v x x i i i i i i u u u u u x x Y Y 5.w.w.w.w.w.1 6 J v v v J K Y Y Y K J v ",
"z z z z z s s s s s z z v J K T T T T K K K J v z u u t 0 0 0 0 0 0 u z 6 % % w t t t t t t u t t u d d d d b { @.@.r.h.Z.G.J.H.Z.h.r.5.5.@.6 % 1 s x d x x z J Y +.+.;.+.+.+.+.Y v x x d i i i i i i u u u u z x x K Y w.w.w.w.w.2.5 5 v z v v v K K J J K J v ",
"z z s s s s u u u s s z z v v J J z t s v v v v z s u t w 0 0 0 0 0 u z , % % 6 t t t t t t t t t d d d d b M { @.@.r.h.C.G.H.H.Z.5.#.@.#.b > % & t x x x x z v Y Y +.+.Y Y Y Y Y v x d i i i i i i u u u u u u x b M Y #.w.w.w.w.+.1 1 z z z v v J J v v v v v ",
"z s u u u u u u u u u s z z v z u 6 5 u v v v z s u u u t t 0 0 0 0 t t , % % 6 t t t t t t t t u d b M M { { M @.,.r.h.Z.G.H.G.h.+.{ { O.w & % & 6 s x z z x J Y Y x Y v v x v x v x i i i i i i i u u u u 6 > , w s x +.w.w.w.5.x , , z z z z z v v v v v z z ",
"0 0 0 w t t u u u u u s s z z u 6 1 > t s t t u u u u u t t w 0 q t t 6 > % % 6 t t t t t t t t i d b M M M X.@.@.5.g.h.v.Z.G.Z.r.M x b d , & % & 8 u x x x x v x M x x x d d d x x u i i i i i u u w 6 6 1 > & % & , 5 6 w w w 6 , % & 0 u u u u u u t q q t u ",
"% % % & = > , 6 0 w t u u u 0 5 , & % > 1 & & > 6 t u u u t 0 0 q q t , > & % 6 e e e e t t t i d d d x M @.@.@.6.6.g.h.h...g 6.{ d d d 8 > % % & 6 6 0 0 w w 0 w w 8 8 8 8 8 8 6 6 , , , , 1 , , > & & & = & % % % & & % % % % % % % % % % % & & % % % % % % % ",
"% % % % % % % % % & > > > > > & % % % % % % % % % & 1 0 w 0 0 6 6 6 6 , > & % 1 t e e t t t t u d d b { X.@.@.6.6.6.6.@.d , , 8 w w 8 6 , > & , w t t t t u w r u u i t w 1 = % % & & , , , , , , , > & % & > 1 1 1 > % % > w t t t w 6 1 , > % % % % % # # # # ",
"0 6 1 , > = % % % % % % % % % % % % % % % % % % % % % % & & & & & & & & & & % > 6 8 8 8 8 w w w t t t u d ] b b b g i w , , , , , , , , 8 y d X.$.$.X.X.] x x x x l x l i t , & , 1 t i i i x x d i u t 0 w d b ] b i , & d +.x d d d i i u u 6 & # # # % 0 i u ",
"x x x x d u w 6 6 , > % = 6 0 6 6 6 5 1 1 1 1 1 6 6 6 6 6 1 , & % 6 w w t u w w w w w t t t t t t t t t t i d ] b x x d i y e e 8 6 , 0.y.] #.y.y.y.%.#.O.[ ] ] x x x x l i , < t ] d x d d d d i d d u u u d d d d d i u { x i d d d u u u i x w & # % 0 #.y.+.",
"+.+.#.O.x x x x x u 0 & 1 u u u s u u u t t t t t t t u u u t , & d #.O.] x b x x x b { @.@.X.{ ] ] ] ] ] X.@.@.X.] ] ] d i y t 8 6 , Z.y.i ] %.y.y.y.y.#.X.O.] ] ] ] x l i > w O.x x x x x d d x x x x i i d i d d d x x d d d d u u u u t u x O.u % = #.u.y.y.",
"+.O.O.O.x x x x x i 0 , u s x x x u u u t t t t t t t u s u u 6 > O.y.#.@.O.{ ] x O.@.#.y.#.+.{ { ] ] ] ] @.@.@.X.] ] d i y y 8 8 , > ,.,.y i #.y.y.y.y.%.#.+.[ ] ] ] ] x l > 1 #.x x x x x x x b x x x x d d d d d d x x x d i d u u u t t t i b O.1 1 D.w.#.y.",
"M x x x x x i i i i 0 0 x x x x x u s u t t t t t w t u u u u 6 6 g.y.y.y.#.@.@.X.#.y.y.y.y.#.@.] ] ] ] ] X.X.@.X.] j i i y t 8 8 , > g { y x X.$.%.y.y.#.@.X.O.] ] ] ] ] x , 1 #.[ [ ] ] ] ] ] [ [ [ ] x d x x i x x x x x i u u u u t t t t i d x u w y.Y O.#.",
"x x x x x i i i u u t u x x x x x x x u u t t t t t t u u t t 5 t h.h.y.y.#.@.+.@.#.y.y.#.#.#.@.{ ] ] ] ] ] ] ] ] d d i y y e 8 8 6 , t t 8 d [ X.@.#.#.@.X.] ] ] ] ] ] ] [ 1 6 #.[ [ [ [ [ O.O.O.O.O.] x d d x x x x x x x u u u u u t t t t u d x u w #.Y Y Y ",
"x x v x x i u u u u u x x i i x x x x u u u t t t t t t u t t 6 d h.h.y.#.+.+.+.+.#.y.#.+.+.+.@.X.] ] ] ] ] ] ] i i i i y y e 8 8 8 , 5 , , y ] [ X.+.+.+.O.O.O.O.] O.O.O.O., 6 #.[ [ [ [ O.+.+.+.+.O.x d d d d x x x x x x i u u u u t w w w u i x u w #.Y Y Y ",
"x v x x i u t t u u u i i i i x x x x u d x u u u t t t t u u t M h.y.y.@.+.@.#.#.y.y.#.+.+.@.{ ] ] i i ] ] ] j i i i i y y t 8 8 e , , , , X.$.[ [ O.O.O.+.O.O.+.+.+.+.%.O., 6 X.[ [ [ O.+.#.#.+.O.[ b d d i i d x x x x x d i u u t w w w w t u d t 8 +.Y Y Y ",
"x x x l u w w w t u u i i i i x x x x x v M x v x u t t t u u t +.N.r.#.+.#.%.y.y.y.y.#.@.X.{ ] ] ] i i ] ] d i i i i i i y y y t y , , , b v.X.[ [ [ [ O.O.[ [ O.+.+.@.y.X.> 6 X.[ [ O.+.#.%.%.#.O.] b x d d x d d x x x x x d u t w w w w w t u d t 8 +.Y x x ",
"x x x i u w w w w u u i i i i x x x x x Y Y Y Y v s t t t u u u i.G.h.#.#.y.y.y.y.y.$.#.@.X.] ] ] i i i j i i i i i i i i i y y y y , > d Z.X.] [ [ [ [ [ [ [ [ O.+.+.#.h.#., , ] [ [ O.+.#.%.%.%.$.] x x d d x d d d x x x x x u t w w w w w t u d w 6 +.x x x ",
"x x i u w w w w w u u u i i i i i d x v Y Y Y Y v u u t t u u t i.N.h.y.y.y.y.y.y.y.y.#.X.{ ] ] d i i i j i i i i i i i i i i y y y , 8 H.h.] [ X.X.[ [ [ [ [ [ [ O.O.O.y.$., % 6 $.#.+.#.%.%.%.%.#.[ b d d i d x d d x x ] x d t t w w w w w w t u w , { x x x ",
"x i u w w w w w w w u u i i i u u d x v Y Y Y Y x u u t t t u t i.h.y.y.y.y.y.y.y.y.y.#.@.] ] ] j j i i j j i i i i i i i i i i i i , 6.G.[ [ [ $.%.X.[ [ [ [ [ [ [ [ [ #.X., % & d y.#.%.%.%.%.%.%.X.] b x x d x x x b ] ] x d u w w w w w w t t u 6 & d v v x ",
"x i u w w w w w w w w u u u u u u d x J Y Y T J x u t t t t t w N.Z.y.y.y.y.y.y.y.y.y.#.X.] ] ] j d i i j j j j i i i i i i i i i i 1 6.y.[ $.$.%.z.%.[ X.$.$.$.$.O.O.O.#.O., % % t %.%.%.%.%.%.#.#.#.O.[ x x x x x x ] [ x x d u t w w w w w t t t 6 > b M v x ",
"i u u w w w w w w w w w w w u u d x x Y Y Y Y x u t t t t t t 6 i.N.#.w.w.y.y.y.y.y.y.#.O.] ] ] ] j i i j j j d d i i i i i i j ] ] 1 { y.$.%.%.z.z.%.[ $.$.$.$.$.+.+.+.#.X.1 % w O.%.%.%.#.#.#.#.+.+.+.O.O.] x x [ [ [ [ [ x x i u t w w w t t t t 6 , +.M v x ",
"d u u u w w w w w w w w w w u d v J J O.Y Y v u u t t t w t w , p 3.K Y T y.y.y.y.y.5.+.@.X.] ] ] j i i j j j i i i i i j j j ] [ [ 6 d y.$.%.z.z.%.$.X.#.$.$.$.#.+.+.+.#.#.1 , O.#.%.%.%.#.#.#.+.+.+.O.O.[ X.O.[ [ [ [ [ x x x i u t w w w t t t t 6 , +.M v v ",
"i i u u w w w w w w w w w u i x J Y +.+.+.Y x u u t t w 6 6 , & > 5 t J +.y.y.y.y.y.y.#.@.@.{ ] ] ] d i d j j d i i i i j j j ] X.$.8 8 $.$.z.z.%.$.$.$.$.$.$.$.+.+.+.O.#.#.5 b r.+.#.%.%.#.+.+.+.+.+.O.[ [ $.#.#.#.[ [ x x ] x d u u t w w w t t t 5 , +.M v x ",
"i u u u w w w w w w w w u d x v O.+.+.+.+.Y x u t t 0 q 6 > & & & t ,.w.y.r.y.y.y.y.y.#.#.#.X.{ ] ] d i i i i i i i i i j j ] X.y.y.w 6 [ %.z.z.%.$.$.$.#.#.$.$.+.+.{ x { @., ;.r.+.#.#.#.#.+.+.+.+.+.O.[ [ X.#.#.#.X.[ [ [ [ ] x i u u w w t t t t 1 , M v x x ",
"i u u w w w w w w w w u x v Y Y +.+.+.+.+.v s t t w 6 6 6 6 5 & 7 I.C.r.y.y.r.r.y.y.y.y.w.@.X.{ ] ] j i i i i i i i i i j ] ] y.y.y.8 6 X.%.z.z.%.$.$.$.O.O.O.O.O.+.x x x x , ;.r.+.+.@.+.+.+.+.+.+.+.O.[ O.#.#.#.#.[ [ [ [ [ x d u t t t w w t t u 6 = d v x x ",
"i u t w w w w w w w u x Y Y +.+.+.+.+.+.Y v u t t 0 6 6 6 0 5 % p i.Y 5.r.y.r.y.y.y.y.y.y.@.] ] ] j j i i i i i i i i i j ] $.y.y.y.w 6 $.z.z.%.$.$.%.] 8 w d x x O.M x x d , ,.w.+.@.@.+.+.+.O.O.O.+.O.[ X.#.#.$.X.[ [ ] ] ] x i u t t w w t t u d 6 = d x x x ",
"i u u w w u u u u u i v Y +.+.+.+.+.Y Y Y x u t t 0 6 6 6 w , % 6 J J Y w.r.#.y.y.y.u.u.y.#.] ] ] j j i i i i i i j j j ] ] $.y.y.y.8 6 $.z.%.$.$.$.x 6 > 5 6 w d x x x x d , 5.r.#.O.O.O.@.+.[ [ O.O.[ [ [ [ O.[ [ [ [ x x b d i u t w w w t t x b 8 = d x x x ",
"i u u u u u u i i i x Y +.+.+.+.+.O.K Y Y s t t t q 6 6 6 t , % 6 v z z Y +.+.y.y.y.u.y.y.#.{ ] ] j i i i i d j j j j j ] [ X.y.y.y.6 6 %.%.X.] [ i , & & > , , 6 u x x x d , ,.r.d 6 1 8 i x [ [ [ [ ] ] x u u u u t t w u u u u t t w w w t d +.+.w = u x x x ",
"i u u u u u i i d x J Y +.+.+.+.+.Y Y Y K u t t t t w 6 6 t > % q v z v O.O.#.y.y.y.y.y.y.X.{ ] ] i y y i j j j j j j ] [ X.X.X.$.$.6 > i d ] i w > & & & & & & > 5 9 t u t > 6 5 & & & % & > 6 u d d d i w , , > > & > , , 1 6 6 0 w w w w b @.@.b 6 & u x x x ",
"i i i i i i i d x v Y Y Y Y +.+.Y Y Y Y v u w 6 6 w t t t t > % t v z T 2.O.+.+.#.w.y.y.y.X.{ { ] i y y i i j j j j j ] [ X.] X.X.] 6 & , 8 6 > & & & & & & & & % & > > > & % % & & & & & & & % % > , , , & % % % % % % % & > = & = , 1 w x { d w 6 > % w b x x ",
", w t u i i i i x v Y Y Y Y Y Y Y K v K x w , & & 5 6 6 w w > % t v J r.T z v M Y Y +.y.#.O.{ { ] i y y y i i i i i i j ] [ ] X.X.{ 6 % & & % % & & & & , 6 w 6 , > & & % % & % & & & & & & & & & & % % % % % % % % % % % % % @ @ % % & , 6 6 , , , = % 1 x x w ",
"% > , , , 1 6 w w u z z u s s s s s u t 1 & % % % % & % > , & % 5 u x x s s s s s s x M { x b i i y t t t y y y t t t e e e w e t @.g 6 6 6 1 , , , 6 t b { { { ] x t , & & & w b d u u u u u u u t q 6 6 6 8 w w 0 6 6 , > % @ @ @ @ @ % % = > > > % % , u u > ",
"& & > 6 t d d t w u t 6 , > 0 t 6 6 1 1 , , , , , , & % > > > & > 1 5 5 6 6 w t w 5 > , , 6 6 6 8 8 8 8 8 8 8 w 6 1 1 6 6 , , 8 t { { d b { ] d t d ] { { { { { { { d u 1 > d C.g.O.v v v v v v v x K O.w.l.A.A.A.Z.l.i.Y x 6 @ @ % , u t t t t u d t t t w 6 , ",
"u 6 u r.S.J.J.l.Z.H.y.x t > d J i i i x x x x x x d w w r.x d u u u u u u u u x M u 0 > > d i y y y y y y @.x i i i i X.{ 8 { @.i y y i b ] { b d { { { ] ] b { b d d i u 6.A.r.O.M v x x x v v v Y Y O.O.+.+.q.w.+.+.Y x v x , % , { O.x x x Y M M O.+.+.Y Y Y ",
"w.x x y.l.l.f.k.l.r.T x 0 > d J i i i i x x x x x x x +.l.v x x s s s u u u u u u s s t , d i y y i d i d ] x i i i i ] g ] v.{ i y y y i d d d d b ] x d d i d d i d u u +.x z z z x v x x v v v Y Y K Y O.O.Y Y Y O.Y x x x u > , @.x v v x x x x M Y +.T Y Y ",
"w.w.w.y.l.l.y.y.y.+.J s 0 % t J x i i i i x x x i x x O.O.x x x s s s u u u u u u s s s 6 i d i d d i d d i ] d d i i i X.h.@.d i i y y y i d d d d d d d u u u u u u u t u u u u u u z v v J v x Y Y Y Y Y O.O.O.O.+.Y x x x x w 1 x x v x x Y M M M M Y Y Y Y ",
"w.w.w.w.g.f.r.w.+.Y v s 6 % > s v d i i i i i i i i x x x c x x s s s s u u u u u s s s 5 t d d d ] x d ] x ] x x d d i i d i i i y y y y i d d d d d d i u t w w t t w w u t w t u u u z v z v Y Y Y K M Y O.O.O.O.O.Y v x x x x u x x v x x Y M x x M Y Y T Y ",
"w.w.+.+.w.w.T T Y v x s 0 % % , i i u i i i i i i i i x x c c x x x s s s u u u s s s u > t d x ] ] ] ] ] ] ] ] ] x d i i i i i i y y y y y i i d i d i u t w w w w w w w t u w w w u u u s z z v M Y K Y +.+.T O.Y Y Y v x x x x v x x x x x x x x x x Y Y Y Y ",
"Y Y v v Y T M v x u s s 0 % % % w i u u i i i i i i i x x c c c x x x s s s s s s s u , . w d d x ] ] ] ] ] ] ] ] ] d i i i i i y y y y y y y i i i i t t w w w w w w w w w w w w w w u u u x v x Y M Y Y +.Y K Y Y J Y x x x x b x x v x x Y x x x x Y Y Y Y Y ",
"v x z s z z x x z u u u 0 % o % 8 i u u i i i i i i x x x c c c x x x x s s x x d s u = . 6 x d d d ] ] ] ] ] ] ] ] ] x x i i i i y y y y y y y y y y t w w w w w w w w w w w w w t u u u i x J Y Y M K Y J J Y Y K Y K x x x x b b x x x x Y x Y x Y O.Y O.Y Y ",
"x u u u u u u u z u u u 6 % % = w i u i i i i i i i x v v x x x x x x x x x x x x s u , . p F d d d x ] ] ] ] ] ] ] ] ] ] d i i i y y y y y y y y y y y t w w w w w w w w w w w w u u u i x v Y Y K J v v v z v J Y Y Y v x x x x x Y x x x x x x x x Y Y Y M v ",
"u u u u u u u u u u u w & % > b { u u i i i i i i x x x x x x x x x x x x x v v v M u O + f p d d d d ] ] ] ] ] ] ] ] ] x i i i y e e e e y y y y y y y t w w w w w w w w w w w w u u i x v K Y J z z z z s z z z Y Y M x x x x v x x x x v x x x v x v v v x z ",
"u u u u t t t u u u u 6 % % t r.b u u u i i i x x x x x x x x x x x x x x x x J O.+.t X 4 n.g x d d d x ] ] ] ] ] ] ] i i i i y y e e e e e e e e y y y t t w w w w w w w w t w t u u d z J Y Y v s u u u u u z z K Y Y Y x x x v v v x x x x x x u u x u s u u ",
"u u u u t w t t t u u s , % b r.i u u u u i i i x x x x x x x x x x x x x x x M +.O., X h n.4.%.] ] ] ] ] ] ] ] ] ] ] i i i i y y e e e e e e e y y y y y t w w w w w w w w u u u u i x v J Y K z u u u u u u s x Y Y K Y v x x x s u s u u u u u u u z z u u u ",
"u u u t t t t t t u u z 1 % d 5.i u u u u i i i x x x x x x x x x x x u u x v M #.i o * m.8.y.y.] ] ] ] ] ] x x x i d d i y y y y y e e e e e e y y y y y t w w w w w u u u u u u i x z z z v J x u u u u u u z z v K Y Y v x x x u u u u r r r r r u u u u u u ",
"u u t t t t t u u u u x 6 o 1 { i u u u i i i i x x x x x x x i l u l l u x x +.y.1 % 1 S.b.x.$.d d ] ] ] ] i i i i i i i i y y y y y e e e e e y y i i y y i t t w t u u u i d z x z z z z z z s u u u u u u z J K Y J K v x x x u u u r r r r r r r r u u u u ",
"u d t t t t t u u u u z 6 % > i i i u i i i i i x x x x x x x u u u i u u x Y y.x 6 < 1 S.K.c.] d i i i d x i y i i i i y y y y y y e e e e e e y y i i y i i y u u u u i i x J v z z z z z z z z u u u u s s z J Y Y Y Y v x x u u u u u u r r r r r r u u u u ",
"t u w t t t u u u u u z 0 % > i i i d x x i i i x x x x x x x x x l u u z x Y +.u t w < c.L.] d d i i i i i i i y y e e e e e e e e e e e e e e e y i i i i i y i u i i i d z Y O.J z z v z z z u u u u s s u z z v J Y Y x v x s u u u u u u u r r r r r u u u ",
"t t t t t t u u u u z v 0 % > i i i x x x x x x x x x x x x x x x l u u z v v x x s 0 = x b.d d i d i i i y y e e e e e e e y y e e e e e e e e e e y i i i i i i i i i i z v Y T Y K J J z z z u s u u u u u s s z v Y Y Y v x u u u u u u u u u r u r r u u u ",
"u t t u u u u s u z z J 0 % , i x x x ] x x x x x x x x x x x x x u u u d x x x x M w & 6 6.d i d d i i y y y e e e e e e y y y y y y y y y e e e e y y y y i i i i i i i x J +.2.+.+.+.Y v z z z v z z z u z v v J Y T +.Y v x z u u u u u u u u u u u u u u u ",
"u u t u u u u z s u z J 0 % , i x x x ] ] ] ] ] x b x x x x x x x u u u x x x x +.5.t > > { d d d d i i i y y y e e e e e y y i i i i i i y y y e e y y y y y y y i i i x v T 2.w.w.w.w.+.Y J v v Y v z z v K T +.+.T 2.2.Y v b x u z k u u u u k z z u u u u u ",
"u s u u u u s z z s x J 6 % , i i x b x ] ] ] O.[ ] x x x x x x u u u x x x x x +.y.u = > { d d i i i i i i y y y y e e y i i i i x x x i y y y y e y y y y y i i i i i x J +.2.w.w.w.w.2.Y Y Y Y Y Y Y Y Y T q.r.w.2.w.2.Y M x x z u u u u u u z z z u u u u u ",
"s z z z z z z z z z J v , % 1 i i x x ] ] ] ] O.O.[ O.O.x x x x u u u x x x x Y +.l.u & , { i i i i i i i i i i i y y y i i x x x x b x i i y y y y y y y y i i i i i i x v T 2.w.w.w.w.+.Y Y Y Y Y +.+.+.+.2.2.r.r.w.2.2.T Y M v v u u u u u u u u z u u u u u ",
"v z z z z z z z z z v s = % 0 i i x x ] ] ] ] O.+.+.+.+.O.O.x x s u x x x v T +.T l.t & , ] i i i i i i i i i i i i i i i x b b x x x i i i i i y y y y y y i i i i i i x J T q.w.w.2.+.Y Y +.Y Y T 2.2.r.r.w.r.r.r.r.r.r.r.2.T Y x u u u u u u u u u s u z z v ",
"K K K v z z z z z z s t = o 8 i i x v x x x ] ] O.O.+.+.+.+.O.] x x x x x T 2.Y T r.t % , d y y y i i i i i i i i i i i i i x x x x i i i i i y y y y y y y i i i i i d z Y +.2.w.2.T Y T Y +.Y Y T 2.w.r.w.r.r.r.r.r.w.r.r.2.Y v u u u t q q q q t u u z v J K ",
"Y Y Y J z z z z z u u t > % , i i x v v x x ] x x ] ] O.+.+.+.+.] x x x v T T T T M w & , d t t e 9 8 e t 8 6 6 8 u i i i i i t t d i i i i i y y y y y y e 6 , , t i i d Y Y +.+.+.Y Y x v J v z J Y 2.r.r.r.r.r.w.q.q.r.q.Y x u t q q q q q q q q u z v K K K ",
"Y Y Y v z z z s s F p q = % % w i i i i i d u t u x x ] O.@.#.#.O.b x x v Y T T T x 6 % > t w 8 5 5 , , , > > > > , w i t w 1 > , , 1 6 w t t y y t t e 6 , > & & 6 i i i x Y Y Y T x w 6 0 s z z z v Y 2.r.r.r.w.2.2.2.2.Y z u t 0 0 0 q q q q q q u z J K J J ",
"x v z s u 0 5 , , , , , % % % % = , , > = & % % > w t t t u u t w w 0 0 0 w t t t 6 > % & > > > > > > > & > & & & & & > > > > > > & & & & > > , , , , > > & % % % & 6 , > 6 u s x u 6 , & & , 6 0 0 0 6 0 t u u s s u u u u q 0 6 6 6 6 6 6 6 0 0 0 0 u z z z z ",
", , , , = = = > = % % & > 6 1 , , , = = , , , 6 6 6 6 6 6 0 , % & 6 6 6 0 w w w w 6 6 6 6 6 8 6 , , > > & & > > > > > > > > > & & & & & 1 6 w w 6 , > = & % % % % % % % % % > , , > & % % % % % % = > > = & % % % % % % % & % % % & & & = = , 1 1 , = = > > > > ",
", > > , 5.l.J z z z z s s z u t t w w w t t t u u t t u x x , % & i i i i i i i x t t i d i i i t t t t t 8 w t t t t u u i O.b w w 8 d x i u u u t w 1 = % % % % & & & > & % % 6 w > % % % > t x x v v v z t 6 6 6 0 6 1 1 5 6 6 1 1 5 6 u K P P z 6 % % % % % ",
"> > t S.J.q.v v v v v z u w w w w t t t w w w u x u u u x u > % = u i i i i i d x t i ] ] x i i i i t u d ] ] g t t t i i x $.y.+.y ] X.i i i i u w w 1 < & % & = , , 0 8 , % = d 2.p > % & u w.r.T T 2.T z u r u u u z z v T T ' T z z ' ' ' ' ' E v 6 % % % = ",
"6 #.J.l.J z v v z z s t w w w w w t w 6 6 6 6 6 6 0 6 1 1 , > % & u i i i i i x x i x ] ] ] x i i i i t t d { { t t t t i i i x O.x 6.b i i i i u t w 0 1 = % > < , 6 d 6 > % , x M b 6 % 1 v v Y T r.2.x u r u u r u z z T T i.j.j.' ' ' K K K K K v z 6 % , 1 ",
"A.l.Y s s s z z s s u u w w w w t w 6 1 1 6 6 6 6 6 1 , , , > % & u i i i i i ] ] ] ] ] ] ] ] x i i i y t t i d t e t t t i i i i d x d i i i i u u w w 0 , % , 6 1 u s 6 > % , x b u u , 0 z u x 2.w.x u u r u r u u u u u u u z v K v u u u u u s z v z , < i ",
"M s s s s s s s s s u t w w w w t w 6 6 6 6 6 6 6 6 1 , , 1 , % & t i i i i x ] ] ] ] ] ] ] x i i i i i t t e w w w e t t i i i i i d i i i i i u u w w w 1 = 0 M p.+.s 6 > % , x b w w w w u u u z x x x u u r r w w w 0 0 0 0 0 0 0 w u u u r u u z v v t w R.",
"s s s s u u u u u u u t w w w w t w w 0 6 6 6 6 6 6 6 1 6 6 , % % t i i i i i x x x x i i i t t i i i u t e w w w w w w t t t i i i i i i i i u u u t w w w w u d x x x w , % , x x w w w w u u u u u v x u u u r w w 0 0 0 0 0 0 0 0 w u u u r r u z v v z z i.",
"s s s u u u t t u u t w w w w w t t w w w 0 6 6 6 6 6 6 6 1 > % % w t i i i i i i i i i y t t t i i i t e w e w w w w w e t t t i i i i i i i i u u u w u w u s s d v v w 1 % > x i w w w u u u u u u x x u u u w w w w 0 0 0 0 0 0 w r u u u u u u s z v v v v ",
"s u u u u u u t t t t w w w w w w w w w w 0 6 6 6 6 6 6 1 , % % % 8 t i t t t i i i y t t t t t t i i t e w w w w w w w w e t t i i i i i i i u u u u u u u w t u s v v t 1 % = d u w w w u u u u u u u u u u u r w w w 0 0 0 0 0 0 w w u u u u r u u s z v z z ",
"s u u u u u u u u t t w w w w w w w w w w 0 6 6 6 6 6 6 1 > % % % 8 i t t t t t i y t t t t t t t t t t e e e e e e e e t e t u i i i i i x i u u u u u u u w w w t x v t 6 & = i u w w w w u u u u u u u u u u u r r w 0 0 0 0 0 0 w w w u u u r r u u s s s s ",
"s u u u u u u u t t t w w w w w w w w w w 0 6 6 6 6 6 6 6 1 & % = w i w w e e t t t w w t w w t t t t t t e e e t t t e e y t i i i i i x x x i i u u i i u w w w w u v u 6 % = u u w w w w u u u u u u u u u u u w w w w w 0 0 0 0 w w w w r u r u r r u u s s ",
"s s s s u u u t t t t t t w w w w w w w w 0 6 6 6 6 6 6 6 0 , % , t t w w w e e t t w w w w t t t t t t t t t t t t e e e e t i i i x x x x x x i i i i i i u w w w t u u 6 % , u u w w w w w u u u u l l l i u r w w w w w w w w w w w w w w r r u r r u u u u ",
"s s s s u u u u u u u u u t t w w w w w w w 6 6 6 6 6 6 6 w , % 6 t w w w w w e t w w w w w w t t t t t t t t t t t e e t t t i d b b x x O.O.x x i i i i i u w w w w u u 6 % & > 1 w w w w w u u u l l l l l u r w w w r w w u u r w w w w w u r u r u u u u r ",
"s z s s u u u s s u u s u u u u w w w w 6 0 6 6 6 6 6 6 w t , % 6 t w w w w w w t t t w w w w w w t y t t y t t e e t t t u i x M Y M M Y O.+.O.b i i i i u u w w t w w t 6 % % % , 6 w w w w u u l l l l l l i u u u u u u u u u u u r w w r r u u u u r r r r ",
"u s s s s s s z z z s s z s u u t w w w 0 0 6 6 0 0 w 6 t i , % 8 t w w w w w e t t t w w w w w w w t y t t t t t t t i i i x x Y M M Y O.O.+.O.x d i i i u u t t u w w w 1 % = 8 d u w w w u u u i l l l l l l u u u u l l l l l l u u r r r u r w w w 0 w r u ",
"t u s s s s z z z z z z z s s s u t w w 0 0 6 6 6 6 w 0 u i , % w i e w w w w w t t i t w w w t t t t t t i i t t y i i x x x M M M M Y O.+.+.+.x x x i i u u u u u u u u 1 % y g t w w w w u u u u l l l l l l l u u l l l l l l i u u r r r w w 0 0 0 0 0 w u ",
"u u s s s s s z z z z z z z z z u t w w w w 0 6 0 0 w w u u , % w i t e w w e t t i i t t w t t t t t t t i i i t i i x x x M Y x ] Y Y +.+.+.+.Y x x b x d u u u u u u u , % y u w w w w w w u u u l l l l l l l u u u u u u u u u u u r u r 0 0 0 0 0 0 0 0 q ",
"t t u s s s s s z z z z z z z z u u w w w w w 0 w w w t u i , % w i u t t t i i i i i i t t t t y t t t t t i i i i x b x M M Y O.O.Y Y O.+.+.Y Y x x x x x i i i i i u u , % y u w w w w w w u u u u l l u u l u u u u u w w w r u u r u u r 0 6 6 6 6 0 0 0 0 ",
"t t t u s u u u s s s s z z z z z u u t t t w w w w t t i u = % w i i i t i x x b x i i y t t t y t t t t u t i i i d x x M M Y O.+.+.+.+.O.Y M x M x x x x x x i i i u u , % y t w w w w w w u u u u u u u u u u u u u u 0 0 0 q w w w w r w 0 0 6 6 0 6 0 0 0 ",
"t t t t u u u u s z s u u u s z z s u u u u w w w t u u i u = % w i x i i x x ] ] x x i i t t t u y t t y t t i i i i x b x M M Y O.+.+.+.Y M x x x x d b ] x x i i i u u , % y t w w w w w w u u u u u u u u u u u u u r 0 6 0 0 0 0 0 0 0 0 0 0 6 6 6 6 6 0 0 ",
"t t w t t u u s s s s u u u u u z z u u u u t w w u u i i t % % w i x i x x ] [ [ [ ] x i t u i i i t t y t t i i i d b x x M M M Y O.O.M M x x x d d d b { ] b x x i i u 1 % t t w w w w w w u u u u u u r u u u u u u w 0 6 6 6 0 6 0 0 0 0 0 6 6 6 6 6 6 0 0 ",
"t t t t t u s s s s s u u t t u u s s u u u u t t t u i i 1 % % w x i x x x [ [ [ [ [ ] x x x x d i t t t t t i i i i x x x M M x x x x x x x x x d d x x O.{ { ] { x i u 1 % 6 w w w w w w w u u u x u r r w r u u u u r q 0 6 6 6 6 6 6 6 6 6 6 6 6 6 6 0 0 0 ",
"t t t t u u s s s s u u u t t t t u u u u t w w w w t u w % % % 0 x x x b ] [ [ [ [ [ [ [ [ ] x x i t t t t t t u i i x b x M Y b d i i u d d d d d d x O.#.O.{ { { x i u 1 % 1 w w w w w w u u l x x x u r r r r u u u r w 6 1 1 6 6 6 1 1 < < 1 6 6 0 0 0 0 0 ",
"w w t t u u u t q 0 6 1 , , > , > > > , > = % % % % & , & # % % 6 u i i d x ] x ] ] x x x ] ] x d i i t t t t t i i i x b x p M { u t t t t t t i d d x X.#.@.{ { { x d u 1 % , 0 0 w 0 w w t t t u u u u 1 1 w r u u u r w 6 1 < 1 , , , , , > , 1 1 1 1 1 1 6 ",
"> , , 1 6 5 > & % % % % . . . % % % % % = = > , 1 6 6 w w 6 , % = , , , 1 6 6 6 6 6 6 6 6 6 6 6 , , 6 6 6 8 t u u u u t 8 5 > 6 ..d t t t t t t u d d b X.#.#.{ { { b d u , % & > > = = & = > > > > > , > % & , 1 1 6 1 1 1 < > & & & & & % % % & & & & & & & & ",
"& & & & & % % % % % % .     = w 6 1 6 0 w x #.O.O.#.l.A.l.x l u t w w w u u i d x x x x x u u w 6 > & & & & > > > > > & & & % & , 5 , , , , , , 5 5 5 , 6 w w w 8 8 6 6 6 > % & & % % % % % % % & & & & & % % % & % % % % % % % % % % % % % % % & & & & & & & & ",
"0 0 0 0 0 w t u u w 1 , %   , M u 0 0 0 0 w w r r r u u u l l l i u u u u u i i i i i i i u u t w , > 7 7 t w w 7 7 7 7 7 7 7 6 6 6 6 5 6 t w w w w w t w 6 6 6 5 > % % % = 6 w w u u u t t t i i u t t t w % % % = & & % & % % % % % & % = w w w 6 6 0 6 6 0 w ",
"u u u u x x v x x u u 0 =   = x u 0 0 0 0 0 q w w u u u l x l u u u u u u u i i i i i i i u u w w > 7 7.S :.g S S a a a a b b b b x p 9 a &.b i b r.D.L.Z.5.5.5.b u 6 & 6 u t 6 w u x x x { O.M x x x x x x 1 % , w 0 6 6 6 6 0 6 6 u x i i 5.u u w w w w r u u ",
"u u u x x x x v x u u 6 %   # u w 0 0 0 0 0 w w 0 w u l x x l u u u u u w t u u i i i i i u u t w > 7 ~ a a a a p t t t w 9 9 9 9 9 9 9 9 9 9 9 t u d d i i i i i b d , 6 i w 1 1 6 w w u i x x x x x x x x w % , u u w 0 0 0 t u i d b O.5.O.u u r w w r r u u ",
"u u u u u u x x d u 0 = .     < 0 0 u u 0 0 q 0 0 w u u x x x l l l u u w w w r i i i i i u u t w > 7 ~ a a a a p t t t w 9 9 9 9 w 9 w t w 9 w t t u t u i i i i d { d 6 u w 8 1 1 8 w w w t u x v x x x d 6 % , u u u u u u u i i u u u u u u w w w w w w u u ",
"u u u u u u u u w 0 1 % .     = 0 u x w 0 0 0 0 w r r u l x x x x i u w w 3 w r u i i i i u u w w > 7 7.a a a a p t t t w 9 w w t w 9 w t t t t t t t t u i i i i i i i i t w w 6 1 6 8 8 w w w t i x x u u 1 % 1 x d u u u i i i i i i u u u u r w w w w w u u ",
"u r u u w w w 0 1 1 < = %     = w u 0 0 0 0 0 0 r r u u l x v x x u w 3 3 3 w t u i i i i u u w w , 7 ~ t t t p t t t t w t t w 9 9 9 9 w t t t t t t t t t i i i i i i i i t w w 1 1 8 8 w w w w w u x x s , % 6 5.d u u i i i i i i i i u u u u r w w w w w u ",
"w w w w 0 0 2 0 1 < < < %   # 0 0 1 1 0 0 0 0 0 r u u l l x x x x u w 3 3 w w r u i i i i u u u u , 5 ~ t t t t t t t t t t w 9 9 9 9 9 9 9 w t t t t t t t u i i i i i d i t w w 1 1 1 1 8 w w w w w t u t , % t h.d i i i i i i i i i i i u i i w w w w w w w ",
"w 0 0 1 1 1 1 1 1 < < < %   % 0 1 1 1 0 0 0 0 0 r u u l l x x x l w w w w w w u u i i i i i i u u , , a t t t t t t t t t t w 9 9 8 8 9 9 9 9 t t t t t u i i i i d d x x i t w w 1 1 1 1 8 w w w w w w w t , % d S.i i i i i i i i i i i i i i i u r w w w w w ",
"1 1 1 < < < < < < < < < =   % 0 1 1 1 1 0 1 1 0 w u u l l x x x u r w w w w u u u i i i i i i i t , > t t t t t t t t t t t 9 9 9 7 7 8 8 7 w t t t t u i i i d d x x x x i t w w 1 1 1 1 1 6 w w w w w t t , % u r.u u i i i i i i i i i i i i i u u u w w w 0 ",
"1 < < < < < < < < < < < =   % 6 1 < < 1 1 1 1 2 w r u u u u l u u u u u u u u u i i i i i i i i w > > w t t t t t t t t t 9 9 9 9 8 6 8 6 6 w t w t t i i d d d b b x ] x d y e w 1 1 1 1 1 1 8 8 8 w w t t , % i @.u u i i i i i i i i i i i i i u u u w w w 0 ",
"< = = = < < < < < < < < %   % 0 < - - - < 1 1 0 q r r u u u u u l l u u l l u u u u i i i i i i w > & 6 t t t t t t t t w 9 9 9 9 8 6 8 6 6 7 9 9 t t i i d d x x b x x x i t e e 8 6 1 1 1 1 1 8 8 w w t t , % d +.u u u i i i l i i i i i i i i u u u w 0 0 1 ",
"= = = = = = = = = < < = .   # 1 < - - - - < 1 2 0 w w r r u u u u u l l l l u u u u u u i i i u t > & 5 t t t t t t t t t w w 9 9 9 6 6 6 6 6 8 9 w t i i d d d x x d d d i t e e w w 1 1 1 1 1 1 8 8 w w t , % b { u u i l l l l i i i i i i i u u u w 0 0 1 < ",
"= = = = = = = = = = = #     . < < - - - - - 1 1 1 0 0 0 r r u u u u l l l u u u u u u u u i i i u , % , t t t t t t t t t t t t w 9 8 6 8 8 6 8 9 9 w t i i d d d d d d i e t w w w w w 1 1 1 1 8 8 w w w u , % d u u u i l l l l i i i i i u u u u w 0 0 0 1 < ",
"= = = = = = = = = = %         - - - - - - - < 1 1 1 1 1 0 w u u u u l l l i u u u u u u u u i i u , & , t t t t t t t t t t t t t 9 9 8 8 8 8 8 9 9 w t t i i i i d d i i e t w t t w w 1 1 1 8 w w w w t d , % > , t i l l l l l i i i i u u u u w 0 0 1 1 < - ",
"= = = = = = = = = = %       . = - - - - - - < 1 1 1 1 1 1 2 w u u u l l l l u u u u u u u u i i u , & > w t t t t t t t w 9 w t w 9 9 9 9 9 8 9 9 9 w t t t u u i i i i i e e e e t e w 6 1 8 w w w w t d x , % % & t l l l l l l i i i i u u w w 0 0 1 1 1 - - ",
"= = = = = = = = = = = %     # = - - - - - - - - - - - < 1 1 0 r u u l l l l l u u u u u u u i u u , & > 6 t t t t t w 9 9 9 9 9 9 9 9 9 9 9 9 9 9 9 t t t t t u i i i i i y t t e e e e w w w w w w u x O.i > % % 6 h.i i l l i i i i i i u w 0 0 0 2 1 1 < - - ",
"= = = = = = = = = = = = .   . = 1 < - - - - - - - - - - 1 1 1 w r u u l l l l u u u u i i i i u u 5 , t 6 t t t t t w w 9 9 9 9 9 9 9 9 9 9 9 w w t t t t u i i i i i i i i i u i u t e w w w w w u x x d 6 % % , v.y.i i i l l i i u u i u 0 0 0 0 1 < - - - - ",
"= = = = = = = = = = = = %     , 1 - - - - - - - - - - - < 1 1 0 w u u l l l l u u u u i i i i i i 6 5 g t u t u t t t 9 9 9 9 9 9 9 9 9 9 9 9 t t t t t u i i i i i i i i i i u y t t e w w w w w t t t t 6 & & 5.G.i i i i l l l i u u r w 0 0 1 1 1 < - - - - ",
"= = = = = = = = = , < = %     < 1 - - - - - - - - - - - - 1 1 0 w r u u u u u u u u u u i i i i i 6 5 g u i d u u u t w 9 9 9 9 9 9 9 9 9 9 w t t t t u i i i i i i i i i i i y t t e w w w w w w w t t t t , , 2.{ i i i i i i i u u u u w 0 1 1 1 1 < - - - - ",
"= < < < < < = = = < < = = #   = - - - - - - - - - - - - < 1 1 0 w r u u u u u u u u u u u u u u u 1 5 g u d d d d d i t w w w 9 9 9 w w 9 9 w t t t t i i i i i i i i i i i i t u i e e w w w w w w t t t t , , d x i i i i i u u u u u u w 0 0 1 1 1 1 < - - - ",
"< < < < < < < < < < < - = =   = - - - < 1 1 1 < - - - - - < 1 1 0 w r r u u u u t w r u u u t t w 1 6 d d d d d d d d d t t w 9 9 9 t t w 9 t t t t u i i i i i i i i i i i t 6 u i t e w w w w w w t t t t , , J v i i i i i u u u u w w w w 0 0 0 0 2 1 < < - ",
"< < 1 1 1 1 1 < < < < < < = . = - - 1 1 0 0 0 1 1 < - - < < 1 1 0 0 w r r u u u t w w w w w w w w 1 5 d i i d d d d d d i u t t w w t t w t t t t t t i i i i i i i i i u w 1 1 d x i e w w w w w w t t t t , , M Y i i i i i i i u u u u w w w w w 0 0 1 1 1 1 ",
"1 1 1 1 1 1 1 1 1 1 < < - % . = - < 1 1 0 0 0 1 1 1 1 1 1 1 1 0 0 0 w u u u w 6 6 1 6 w w w w w w 1 , u i i d d d d d d i u u t t t t t t t t t t t t t u i i i i i i t 6 , > , u x i t w w w w w w w t t t , > b T u t i i i i i u u u r w w w 0 0 0 0 0 0 1 1 ",
", , , < < < 1 1 1 1 1 < = %   = - < 1 1 0 0 0 1 0 1 1 1 1 0 t t 6 1 1 1 6 1 < < < < 1 w w w w w w 1 & 5 6 w w w w w 8 6 6 6 6 6 6 6 6 8 6 6 5 , , 5 5 6 6 8 8 w w w 1 , > > & > , 1 5 6 1 6 0 0 0 w w w w t , & s x , & , 1 1 1 1 , , , , , > = = = , , , , , , ",
", , , , = % % = % % = = % = # # = = = = % % % % % % % % % % % % % % & & & > > > > > > > > > , 1 6 > & & & % & 6 9 8 6 6 6 7 8 8 w t t t t 9 , & , , , , 5 5 5 6 > > , 1 5 5 6 6 6 6 6 5 5 6 6 1 6 0 6 1 1 , & % , > % % % % % % % % % % & 0 0 6 1 1 > & % % % % "
};
