/* XPM */
static char *texture04[] = {
/* columns rows colors chars-per-pixel */
"128 128 187 2 ",
"   c #0D0B0F",
".  c #140E0F",
"X  c #17100E",
"o  c #18110F",
"O  c #0F0C10",
"+  c #110E12",
"@  c #141115",
"#  c #1B1315",
"$  c #16141A",
"%  c #19161C",
"&  c #1B181E",
"*  c #221414",
"=  c #271817",
"-  c #20171A",
";  c #221A1D",
":  c #291C1E",
">  c #171422",
",  c #1A1623",
"<  c #1B1A22",
"1  c #1E1C29",
"2  c #201E26",
"3  c #201D2B",
"4  c #211D32",
"5  c #232027",
"6  c #2B2327",
"7  c #27242D",
"8  c #25222D",
"9  c #28252E",
"0  c #28252F",
"q  c #28262F",
"w  c #28252D",
"e  c #28262E",
"r  c #2A292F",
"t  c #322326",
"y  c #372528",
"u  c #392A2C",
"i  c #262330",
"p  c #252331",
"a  c #292630",
"s  c #292632",
"d  c #292734",
"f  c #292634",
"g  c #2A2831",
"h  c #2B2932",
"j  c #2C2A33",
"k  c #2C2933",
"l  c #2B2936",
"z  c #2D2B34",
"x  c #2D2B34",
"c  c #2E2C35",
"v  c #2F2D35",
"b  c #2F2D36",
"n  c #2E2C36",
"m  c #2F2E37",
"M  c #2E2B35",
"N  c #2A263B",
"B  c #2E2D3A",
"V  c #2F2D3C",
"C  c #2F2C3A",
"Z  c #302E37",
"A  c #302D37",
"S  c #302E37",
"D  c #312F38",
"F  c #302F38",
"G  c #302C3D",
"H  c #3A2F32",
"J  c #2F303C",
"K  c #333237",
"L  c #3C3134",
"P  c #32313A",
"I  c #32313C",
"U  c #34333D",
"Y  c #36353E",
"T  c #35343E",
"R  c #34323C",
"E  c #39363E",
"W  c #3A383F",
"Q  c #44383B",
"!  c #2E2C40",
"~  c #332E41",
"^  c #363544",
"/  c #353444",
"(  c #383741",
")  c #383644",
"_  c #373843",
"`  c #3A3942",
"'  c #3B3A45",
"]  c #3C3B45",
"[  c #3C3B44",
"{  c #3C3B46",
"}  c #3D3C45",
"|  c #3D3C44",
" . c #3C3A44",
".. c #363649",
"X. c #393449",
"o. c #3D3C4B",
"O. c #363A51",
"+. c #3E3D52",
"@. c #403E46",
"#. c #403F4C",
"$. c #403E51",
"%. c #3F414D",
"&. c #424047",
"*. c #43424B",
"=. c #45484E",
"-. c #434353",
";. c #484753",
":. c #464856",
">. c #4A4B54",
",. c #464659",
"<. c #48475C",
"1. c #47485A",
"2. c #4A4B5C",
"3. c #4F5057",
"4. c #4E515D",
"5. c #505157",
"6. c #52535E",
"7. c #55585E",
"8. c #454960",
"9. c #4C4D62",
"0. c #4F5163",
"q. c #525364",
"w. c #555965",
"e. c #5A5B63",
"r. c #53556B",
"t. c #55596D",
"y. c #595C6C",
"u. c #565770",
"i. c #575A71",
"p. c #5A5D73",
"a. c #5E626E",
"s. c #5D6274",
"d. c #5E6379",
"f. c #61636C",
"g. c #616474",
"h. c #636A75",
"j. c #6B6C76",
"k. c #62657A",
"l. c #646A7C",
"z. c #696D7D",
"x. c #6E707B",
"c. c #73757F",
"v. c #656A81",
"b. c #6B6E84",
"n. c #6D7383",
"m. c #6F7887",
"M. c #6D738A",
"N. c #717684",
"B. c #727986",
"V. c #72758C",
"C. c #747C8C",
"Z. c #7A7D8B",
"A. c #6F7991",
"S. c #757B94",
"D. c #797D94",
"F. c #787E98",
"G. c #708089",
"H. c #7B828C",
"J. c #7C8393",
"K. c #7A829B",
"L. c #7F899E",
"P. c #7B88A3",
"I. c #83858C",
"U. c #808597",
"Y. c #848C9B",
"T. c #888B98",
"R. c #848892",
"E. c #91969E",
"W. c #828AA1",
"Q. c #868EAA",
"!. c #8B93A5",
"~. c #8C9BAA",
"^. c #8591AA",
"/. c #969FAB",
"(. c #919CB2",
"). c #8DA3AE",
"_. c #9EA4AC",
"`. c #97A2B7",
"'. c #9BA4B2",
"]. c #A3ACBB",
"[. c #AAB1B9",
"{. c #A2AEC0",
"}. c #A4B0C3",
"|. c #A7B7C6",
" X c #B0B6C0",
".X c #ACC2CF",
"XX c #B4C0CF",
/* pixels */
"c c c c c c c c c c I R c c c c ` } { { } { } } { { } } ` A A A A c 3 2 3 % O %  .1.i 8 8 8 3 3 8 8 8 8 8 3 8 8 8 8 3 8 3 8 3 < < < < < < < < < < < < < < < < < < < < < < < < 1 3 3 3 3 3 3 3 3 3 3 3 3 3 3 3 8 7 7 7 8 w w 8 7 7 8 w w 8 7 8 s c c c c c c c c ",
"c c c c c c c c z 7 U D c c c c ` } } } } } { } } { { } ` D A A A c 5 2 3 <   $ B 1.f 8 8 8 8 3 8 8 8 8 8 3 8 8 8 8 8 8 8 8 < < < < < < < < < < < < < < < < < < < < < < < < < 1 3 3 3 3 3 3 3 3 3 3 3 3 3 3 8 7 7 8 7 8 8 7 8 7 7 8 7 7 8 7 7 s c c c c c c c c ",
"c c c c c c c c 5 5 T c c c c c T } } } } } { { } } } { T D A A A A 8 3 3 < O @ 8 -.l 3 8 3 8 8 8 8 8 8 8 3 8 3 3 3 8 8 5 < < < < < < < < < < < < < < < < < < < < < < < < < < 1 3 3 3 3 3 3 3 3 3 3 3 3 3 8 8 7 7 8 w w 8 7 w 7 7 w 7 8 w w h z c c c c c c c c ",
"c c c c c c c 7 $ I I c c c c c D T { { } { { } { { } ` I A A A A c 8 3 3 < O + 3 } V 8 8 i l 8 3 3 8 8 8 3 8 8 8 8 8 3 < < < < < < < < < < < < < < < < < < < < < < < < < < < < 3 3 3 3 3 3 3 3 3 3 3 3 8 7 8 8 7 7 7 7 8 8 w 7 7 w 8 8 7 s c c c c c c c c c c ",
"c c c c c c h $ 7 ( c c c c c c c c T { } { { } } { { T A A A A A c 3 3 3 < O O < ^ ^ f 8 B s 8 8 8 8 3 8 8 8 8 8 8 8 1 < < < < < < < < < < < < < < < < < < < < < < < < < < < < 1 3 3 3 3 3 3 3 8 8 8 8 8 7 7 7 7 7 7 7 7 7 8 7 7 8 7 7 7 s c c c c c c c c c c ",
"c c c c c c < @ T I c c c c c c c c T  .{ { { { } } { ( D A A A A z 3 3 3 < + O , C ) / V l 8 8 8 8 3 8 8 8 8 8 8 8 8 1 < < < < < < < < < < < < < < < < < < < < < < < < < < < < < 3 3 3 3 3 3 3 8 7 7 7 7 7 8 7 8 8 w w 8 8 8 8 8 8 7 8 s h c c c c c c c c c c ",
"c c c c c 7 O < U c c c c c c c c c R ` } { } } } ` I D A A A A A k 3 3 3 1 +   % 8 ^ / G 8 8 8 8 8 3 3 8 8 3 3 3 8 1 < < < < < < < < < < < < < < < < < < < < < < < < < < < < < 1 3 3 3 3 3 3 8 7 w 8 8 w w 8 7 w 7 7 8 8 7 7 8 7 w s s z c c c c c c c c c c c ",
"c c c c k $   2 D c c c c c c c c c c D ( { } } } E A A A A A A z 8 3 3 3 1 @   O $ s B i 8 8 8 8 8 8 8 8 8 8 8 3 3 < < < < < < < < < < < < < < < < < < < < < < < < < < 1 3 1 3 3 3 3 3 3 3 8 8 8 7 8 5 7 7 7 7 w w w 7 w 7 w w h c c c c c c c c c c c c c c c ",
"c c c c <     1 D c c c c c c c c c c c A ( } { } T A A A A A k 8 3 3 3 1 1 @       $ 8 8 8 3 3 8 8 8 8 8 8 8 8 8 8 8 8 < < < < < < < < < < < < < < < < < < < < < < < < 1 1 1 3 3 3 3 3 3 3 3 8 8 7 1 < 7 8 7 7 s z z z h h z z z c c c c c c c c c c c c c c c ",
"c c c 5 O   + 2 c c c c c c c c c c c c c A ` {  .T A A D D c 8 3 1 , $ @ @ O       O % 3 3 3 3 3 3 3 3 8 8 8 8 8 8 8 8 3 < < < < < < < < < < < < < < < < < < < < < < 1 1 1 1 3 3 3 3 3 3 3 3 8 8 3 $ 5 7 7 8 7 z c c c c c c c c c c c c c c c c c c c c c c c ",
"h h w @     + 1 7 7 7 w w w w w h z c D  .T ( -.:.( k k h w 5 < % @ O                 O + @ @ @ @ @ @ @ @ $ % % % % % % % % % % , % % % % < < % % % & < < < < < < < 1 3 1 1 3 3 3 3 3 3 1 3 3 8 5 $ % 8 8 8 5 5 5 5 5 7 7 w h h h h k z z z z z z z h h h h h h ",
"+ + +         + @ $ % & < < < < < 2 5 5 l R J B 5 % @ @ + O O             O O                                                         O O + + O O O O + + @ @ $ $ $ % % % % % % % % % % $ % % % +   @ $ $ @ + O O O O O O + + + @ @ @ $ $ $ $ $ $ $ @ @ + + + + ",
"                                      O                       O       % / ' R ( I 3 $ @ + & h 5 < % $ $ @ + O O O O O O O       O $ @ O O                                           O O O O                   O O O O                                           ",
"@ @ $ 5 T ` r 5 < & % % $ & & $ $ + . . .     + + . . . . O       @ p 0.r.o.o.:.9.R $ % D n.!.F.V.k.0.-.o.^ / R G B B G % O O   1 X.^  .^ R z < % % % < $                 + & 5 c R ( } 3.} R B B R ( ` ' } } 8 < < < 1 2 5 7 7 5 5 2 < < % % % & & & % % % $ @ ",
"& & 2 -.f.I.f.5.=.} ` ` `  .} &.2.q.&.# + # # # # # # + @ +   O 1 ..i.b.-.o.' ' 0.2.B ) M.Q.S.M.n.d.2.+.o.o.' X...X.' X.< + + O B ~ G ~ / / / G V V V ~ ' 5             5 -.2.4.0.0.s.n.2.I I B l z B R (  . .h 8 8 s G c T } } T I D A c c z c c c c c c c s < ",
"< & h 6.j.e.=.&.{ ` T U U T ` { -.y.z.k . 6 Q H u H ; # # O $ / +.k.Y.q.' ^ ~ ~ ' i.i.9.v.i.V N ! V N N p p 4 4 4 4 4 N , + O < 2.~ G G G G V V G G ~ / $.:.5         @ 0.m.z.l.z.C.N.=.c c z s 8 8 8 8 8 8 8 8 8 7 D D c c c c z c c c c c c c c c c c c c z 5 ",
"z k } x.j.} { { U A c c A I ` { } -.w.A + ; Q L 6 - # # + + r.9.r.!.b./ G G G G G X.q.i.-.p 4 4 4 4 4 4 4 4 4 4 p p N V 1 + % 1.,.V G G G G G G G G / o.-.:.%.$ O     5 n.Y.m.C.C.w.T k h s 7 8 8 8 8 8 8 8 8 8 8 G ) A c c c c c c c c c c c c c c c c c c c k ",
"T 2.c.R.>.{ } ` A R T T ` { } } { { -.c + # y : # # # #   } M.+.V.D.' G G G G G G V V ~ V V N p 4 4 4 4 4 4 p N V G G G 3 < o.o.G G G G G G G G ~ / X.-.:.:.R @ +     ( C./.J.4.T z z s 8 8 8 8 8 8 8 8 8 8 8 8 8 C ) c c c c c c c c c c I D c c c c c c c c c ",
"T R.[.e. .} } ( I ` } } } } } } } { &.5 + # t y # # # + 1 M.,.8.C.-.G G G G G G G G G G G G G V V V N N N V V G G G G G f C ~ V G G G G G G G G / X.o.,.2.1.8 @ @ O   %.]._.=.k z z s 8 8 8 8 8 8 8 s s w s s h z c R c c D / R I D B / / ^ ( D c c c c c c c c ",
"` E.H.{ { } } ` I T } } { } } } { } A # @ # : u # # + @ k.p.O.k.2.G G G G G G G G G G G G G G G G G G G G G G G G G G G V i C G G G G G G G ~ / X.X.$.2.2.o.% $ < @   }  Xg.I c z s 8 8 s 8 8 8 s z c c c c c c c c c c D I ^ ^ ( R R ^ ^ ^ ^ / D c c c c c c c ",
"{ 7.=.{ } } { } {  .} { { } } } } A # . @ # - t # @ O 0.V.O.i.i.' G G G G G G G G G G G G G G G G G G G G G G G G G G G f 3 f G G G G G ~ X.X.X.X.X.$.2.2.z @ G q.1   % a.h.} z c h 8 s k 7 h z z c c c I ( R c c c c B ( ( ^ ^ ^ ( / ^ ^ ^ ^ ^ ^ ( R c c c c R ",
"{ { { } { { } } } } } } { { } } U < . . + # # - % + } S.+.9.s.#./ G G G G G G G G G G G G G G G G G G G G G G G G G G C 3 3 N G G G G ~ X.X.X.X.X.X.o.,.,.< D k.l.i O   % -.-.c c c s k z z c c c c c D ( ` ` I z c D R ^ ^ ^ ^ ^ ^ ^ ^ ^ ^ ^ ^ ^ ^ ( G R c c / ",
"{ } } { { } &.} { { { } } { } ( 5 < % @ @ # # # # c S.8.8.p.o./ G G G G G G G G G G G G G G G G G G G G G G G G G G G V 3 i G G G ~ / X.X.X.X.X.X.X.X.$.' } g.g.p.f O     , R c c c c c c c c c I D c I ` ` ` ( c c R ( ^ ^ ^ ^ ^ ^ ^ ^ ^ ^ ^ ^ ^ ^ ^ ^ ( B B ( ",
"{ { } { } } =.&.{ { } { { { } z < < < # @ # # # 6 V.u.9.r.X.V G G G G G G G G G G G G G G G G G G G G G G G G G G G G G f N G G ~ X.X.X.X.X.X.X.X.X.o.$.1.q.,.:.0.f +       $ s c c c c c c D ( ( ( T T ` ` ( ` U c c ( ^ ^ ^ ^ ^ ^ ^ ^ ^ ^ ^ ^ ^ ^ ^ ^ ( R ( ^ ",
"{ { } { } { &.&.{ { } } } } { h < < < $ # # # & y.b.9.-.G C C C V G G G G G G G G ~ / ~ G G G G G G G G G G G G G G G G G G G ~ / X.X.X.X.X.X.X.X.X.X.X.X.X.o.-.1.p +   @ @ O < c c c c c T ( ` E `  .` ` ` ` ` ` I D ( ^ ^ ^ ^ ^ ^ ^ ^ ^ ^ ^ ^ ^ ^ ^ ^ ^ ^ ^ ^ ",
"{ } } { { } } *.} } } } { } } U 1 < < $ # # #  .b.,./ f f f f f f V G G G G G G G / X.X.~ G G G G G G G G G G G G G G G G G G ~ X.X.X.X.X.X.X.X.X./ / X.X.X.X.-.o.i @   < 8 $ B =.c c c c T ` ` ` ` ` ` ` ` ` ` ` ` ( ^ ^ ^ ^ ^ ^ ^ ^ ^ ^ ^ ^ ^ ^ ^ ^ ^ ^ ^ ^ ^ ",
"} { { { } { { } } } { } } { { { s < < @ # # 2 q.9.C f f f f f f f C G G G G G ~ / X.X.X.X.~ G G G G G G G G G G G G G G G G G ~ X.X.X.X.X.X.X./ ~ B G / X.X.X.o.' p @   < 1 s g.y.A c c c D `  .` ` ( ` ` ( ` ` ( ` ^ ^ ^ ^ ^ ^ ^ ^ ^ ^ ^ ^ ^ ^ ^ ^ ^ ^ ^ ^ ^ ^ ",
"} } { } } { } } } } } } } { } } T 3 < @ # # z 1.D f f f f f f f f C G G G G G / X.X.X.X.X.X.~ G G G G G G G G G G G G G G G ~ X.X.X.X.X.X.X.X.G B B B / X.X.X.X./ 8 @   @ < 2.} *.} c c c c U ` ` ` ` ` ` E `  .` ` ( ^ ^ ^ ^ ^ ^ ^ ^ ^ ^ ^ ^ ^ ^ ^ ^ ^ ^ ^ ^ ^ ",
"} } { } } } } } } } { } { } } } } z % @ # ; { -.C C f f f f f f C G G G G G ~ X.X.X.X.X.X.X.~ G G G G G G G G G G G G G G G / X.X.X.X.X.X.X./ B B B B / X.X.X.X...i $ O O } 2.z z A c c c c U ` ` ` ` ( ` ` ` ( ( ` ( ^ ^ ^ ^ ^ ^ ^ ^ ^ ^ ^ ^ ^ ^ ^ ^ ^ ^ ^ ^ ^ ",
"} { } { { } { } } { } } { } { } } ` & + # w o.) C l f f f f f f C G G G G ~ / X.X.X.X.X.X.X.~ G G G G G G G G G G G G G G G G ~ / X.X.X.X./ G B B B B B / X.X.X.X.i % O < l.` c c c c c I T ` ` ` ` ` ` ` ` ` ( ( ` ^ ^ ^ ^ ^ ^ ^ ^ ^ ^ ^ ^ ^ ^ ^ ^ ^ ^ ^ ^ ^ ^ ",
"{ { } } } } { { { { } } } } { { { { s @ @ k ' G D z f f f f f f V G G G G ~ X.X.X.X.X.X.X.X.~ G G G G G G G G G G G G G G G G G ~ X.X.X./ G B B B B B B ~ X.X.X.X.f < $ _ n.D c c c c c U ` ` ` ` ( ` ` ( E  . .` ( ^ ^ ^ ^ ^ ^ ^ ^ ^ ^ ^ ^ ^ ^ ^ ^ ^ ^ ^ ^ ^ ^ ",
"{ { } { } } { } } } } { { } { } } ` 8 @ # D ) D D C f f f f f f N G G G G G / X.X.X.X.X.X.~ G G G G G G G G G G G G G G G G G G ~ X.X./ G B B B B B B B ~ X.X.X.X.N 1 , } z.c c c c c c A ` ` ` ( ` ` ` ` ` ` ` ` ^ ^ ^ ^ ^ ^ ^ ^ ^ ^ ^ ^ ^ ^ ^ ^ ^ ^ ^ ^ ^ ^ ^ ",
"{ } } { } { { } { } } { { { { } } T 3 @ & U / D D D C f f f f f f C G G G G X.X.X.X.X.X.X.~ / G G G G G G G G G G G G G G G G / X.X.X.~ G G G G B B B G / X.X.X.X.N p 1  .g.c c c c c c A ` ` ` ` ` ` ` ` ` ` ` ` ` ^ ^ ^ ^ ^ ^ ^ ^ ^ ^ ^ ^ ^ ^ ^ ^ ^ ^ ^ ^ ^ ^ ",
"} } { } { { } { } } } } { { { { } I 3 $ 5  ./ D G C z l f f f f f N G G G ~ X.X.X.X.X.X.X.X.X.~ G G G G G G G G G ~ ~ ~ ~ G G ~ X.X.X./ / X.X./ / / G / X.X.X.X.X.f 4 3 ( a.c c c c c c U ` ` ` ` ( ` ` ( E  . .` ( ( ^ ^ ^ ^ ^ ^ ^ ^ ^ ^ ^ ^ ^ ^ ^ ^ ^ ^ ^ ^ ^ ",
"{ } } } } { } } { } } { { { } } } z 1 $ U 1./ D D i f C f f f f f N G G G ~ X.X.X.X.X.X.X.X.X.~ G G G G G G G ~ / X.X.X.X./ ~ ~ / X.X.X.X.X.X.X.X.X.X.X.X.X.X.X.X.N 3 < c y.c c c c c c I ` ` ` ` ` ` ` ` ` ` ( ` ` ( ^ ^ ^ ^ ^ ^ ^ ^ ^ ^ ^ ^ ^ ^ ^ ^ ^ ^ ^ ^ ^ ",
"{ } } { } { { } { } } { } { } } ` i 1 $ } 1.G D z 3 i l f f f f f N G G G / X.X.X.X.X.X.X.X.X.~ G G G G G G ~ X.X.X.X.X.X.X.X.X.X.X.X.X.X.X.X.X.X.X.X.X.X.X.X.X.X.l < % 5 q.c c c c c c c U E ` ` ` ` ( ` ` ` ` ` ` ^ ^ ^ ^ ^ ^ ^ ^ ^ ^ ^ ^ ^ ^ ^ ^ ^ ^ ^ ^ ^ ^ ",
"} } } } { } { { } } { } } { { ` D 3 < % #.-.G G f 3 f G f f f f f V G G G / X.X.X.X.X.X.X.X./ G G G G G G G G / X.X.X.X.X.X.X.X.X.X.X.X.X.X.X.X.X.X.X.X.X.X.X.X.X.C , $ % ;.A c c c c c c c A ( ` ` ` ` ` ( `  .( ( ^ ^ ^ ^ ^ ^ ^ ^ ^ ^ ^ ^ ^ ^ ^ ^ ^ ^ ^ ^ ^ ^ ",
"{ } } { } } } { } } } {  .E ( T s 3 , % ' o./ C 8 8 ' ~ V N f f f V G G G / X.X.X.X.X.X.X.X./ ~ G G G G G G G ~ X.X.X.X.X.X.X.X.X.X.X.X.X.X.X.X.X.X.X.X.X.o.X.X.X.~ < @ @ =.D c c c c c c c c E ` ` ( ` ` ( ` ` { ^ ^ ^ ^ / ^ ^ ^ ^ ^ ^ ^ ^ ^ ^ ^ ^ ^ ^ ^ ^ ^ ^ ",
"{ { { } } { } } } { { } ` U U D 3 3 # & ' o.^ l 3 X.X.G G G V f f V G / / X.X.X.X.X.X.X.X.X.X./ / ~ G G G G G ~ / / X.X.X.X.X.X.X.X.X.X.X.X.X.X.X.X.X.X.,.k.o.X.X./ 3 @ O  .U c c c c c c c D ` ` ` ` ` `  .` } -.o.^ ' ^ ^ ^ ^ ^ ^ / ^ ^ ^ ^ ^ ^ ^ ^ ^ ^ ^ ^ ^ ",
"} } { } { } } { { { { } { T U s 3 < + & ) ' ) z G o.G G G G G C C G ~ X.X.X.X.X.X.X.X.X.X.X.X.X.X./ G G G G G ~ ~ G / X.X.X.X.X.X.X.X.X.X.X.X.X.X.X.$.o.p.C.-.X.X.X.f $   I ( z c c c c c c c D U T ( ( ` `  .-.-.-.} -.o.^ ^ ^ ^ ^ ^ ^ ^ ^ ^ ^ ^ ^ ^ ^ ^ ^ ^ ^ ",
"{ } } { } } ( I E E E `  .T I 8 3 % . & ) ) ' / X.~ G G G G G V G G ~ X.X.X.X.X.X.X.X.X.X.X.X.X.X./ ~ G G G G / X./ / X.X.X.X.X.X.X.X.X.X.X.X.X.X.o.,.<.l.g.,.o.X.X.~ $   5 ` c c c c c c c c c c c D ( ` ( }  .-.-.-.-.-.o.^ ^ ^ ^ ^ ^ ^ ^ ^ ^ ^ ^ ^ ^ ^ ^ ^ ^ ",
"{ { } { } ` 2 2 U U U T T U s 3 3 $ . 2 X.' ' / G G G G G G G G G G ~ X.X.X.X.X.X.X.X.X.X.X.X.X.X.X.~ G G G / X.X.X.X.X.X.X.X.X.X.X.X.X.X.X.X.X.X.o.<.2.9.9.2.+.X.X.X.3   + k I c c c c c c c c c A E ` ` { o.3 z -.-.-.-.' ^ ^ ^ ^ ^ ^ ^ ^ ^ ^ ^ ^ ^ ^ ^ ^ ^ ^ ",
"} { } }  .5 . % T T U U U D 3 3 1 @ . 5 $.' / G G G G G G G G G G G ~ X.X.X.X.X.X.X.X.X.X./ X.X.X.X.~ G G ~ X.X.X.X.X.X.X.X.X.X.X.X.X.X.X.X.X.X.X.X.$.2.2.2.2.+.X.X.X.8     @ k D c c c c c c c c c U ` ` } -.5 < B -.-.-.#. .' ) ^ ^ ^ ^ ^ ^ ^ ^ ^ ^ ^ ^ ^ ^ ^ ",
"{ } } } A @ @ % R ( U U U z 3 3 < % + D <.X.~ G G G G G G G G G G G ~ X.X.X.X.X.X.X.X.X./ G / X.X.X.~ G G / X.X.X.X.X.X.X.X.X.X.X.X.X.X.X.X.X.X.X.X.o.2.2.2.r.,.X./ 8 +     O &  .I c c c c c c c c c T `  .;.c $ 8 / o.-.:.-.-.-.' ' ' ^ ^ ^ ^ ^ ^ ^ ^ ^ ^ ^ ^ ",
"} } } } w % 2 5 5 { T T U s 3 3 3 < @ ( ,.X.~ G G G G G G G G G G G / +./ +.+.X.X.X.X.X./ G G / X./ G G ~ X.X.X.X.X.X.X.X.X.X.X.X.X.X.X.X.X.X.X.X.X.X.<.2.2.9.,./ 1 @ @ O   + $ h R z z c c c c c c c A ( ` } w + 3 V ^ +.q.q.2.2.,.1.o.^ ^ ^ ^ ^ ^ ^ ^ ^ ^ ^ ^ ",
"r r r w % # 2 < % k c w 5 & < < 1 < + ( ,.X./ G G G G G G G G G G ~ ' C B 9.,.X.X.X.X.~ G G G ~ ~ G G G ~ X.X.X.X.X.X.X.X.X.X.X.X.X.X.X.X.X.X.X.X.X.X.<.2.2.2.-.2 $ < < +   + % % h 7 7 s z c c c c c c T ` ` w O < f / ^ 2.p.9.9.9.:.^ V B l s s h h s 7 7 7 7 ",
". . . . . + + . . . + . . . . + @ $ . z ,.X./ V V G G G G G G G G ~ i 2 q.u.8.$.o.X.X.~ G G G G G G G G G / X.X.X./ X.X.X.X.X.X.X.X.X.X.X.X.X.X.X.X.o.,.2.2.-.1 $ < 8 k $   $ % < h 5 3 5 7 z k h h z c T ` ` k O % 8 o.,.,.1.o./ l < @ @ + O   O O O O         ",
". . . . . . . . . . . . . . . . . . . % U s < % & 8 V G G G G G G N 2 -.v.9.$.o.o.X./ ~ G G G G G G G G G G ~ / / ~ / X.X.X.X.X.X.X.X.X.X.X.X.X.X.X.X.o.2.-.2 % 1 7 k ( <   @ 2 5 l 5 5 5 2 2 2 < % 1 A ( T R c + + < l h 1 $ +                                 ",
". . . . . . . . . . . . . . . . . . . . @ % % @ + + < C G G G G G 8  .b.9.+.X.X.X./ G G G G G G G G G G G G G G ~ G / X.X.X.X.X.X.X.X.X.X.X.X.X.X.X.X.X.o./ C G } :.1.-.5   O % 2 2 < < < < < & % @ + % % $ @ @ O   +                                           ",
". . . . . . . . . . . . . . . . . . . . . @ , < % @ . 2 G G G G N ( k.,./ / / / / ~ G G G G G G G G G G G G G G G ~ / X.X.X.X.X.X.X.X.X.X.X.X.X.X.X.X.X.X.o.$.-.2.y.s.2.7       + O   O O +                         + $ % @ @ + + O O         . + O .           ",
"% < < # @ . . . . . . . . . . . . . . . . . @ % < , % < C G V ~ -.q.+.G G V G G G G G G G G G G G G G G G G G G G o.X./ X.X.X.X.X.X.X.X.X.X.X.$.X.X.X.X.X.#.:.:.1.q.q.q.l   . . . . . . .                       $ h :.z.m.q.2.-.( R R B I <   @ ; t -     O 1 7 ",
"s / r.l.1.o.R 7 & @ . . . . . . . . . . . . . + $ , 3 C G ~ ,.t.,.~ G G G f i p N V G G G G G G G G G G G G G G X.$./ G / X.X.X.X.X.X.X.X.X.+.-.X.X.X.X.X.X.-.:.:.2.q.r.`   . o o o o o X . .   .             $ *.n.L.`.{.K.A.l.i.t.t.i.k.0.@ # = : #   + h -.:.",
"( l V.].d.p.p.u.0.-.( r % . . . . . . . . . . . . + $ < 3 ( t.,.~ G G G G N p i i i f C G G G G V i G G G G G ~ $.^ B B / X.X.X.X.X.X.X.X.X.-.o.X.X.X.X.X.X.X.-.:.1.q.r.:.@ . o o o o o o o o . . @ < < @     w z.(.(.}.XX^.P.S.l.l.l.l.l.d.5 + # +   < } 1.:.-.",
"1.:.V.W.v.i.i.p.p.p.s.d.h.h.w.%.r & + . . . + . . . .     + $ 3 f G G G G V p i i i i i f V G G N % N G G G G o.o.B B B G ^ X.X.X.X.X.X.X.) $.X.X.X.X.X.X.X.X.o.:.1.q.q.2.< . o o o o o X X @ ; D 1.r.2.s   @ ' K.(.(.|.'.W.F.M.s.d.d.d.l.l.h     + R s.d.q.q.9.",
"-.y.a.q.t.r.t.t.t.t.t.t.l.~..X|.).G.& . % < < < < < % $ +       + , i C G G N p p i i i i f V G f + i G G G / o.R B B B D / X.X.X.X.X./ G / ^ / X.X.X.X.X.X.X.:.:.1.q.-. .&   X o X X @ 2 I -.r.p.p.p.u.G @ 5 :.!.}.].N.*.-.-.%.%.*.-.-.1.t.(   2 a.Y.n.y.1.:.-.",
"c c c c I R T T T T T T ` >.N.H.C.h.& . % 3 3 *.a.6.q.q.} 5 $ +     + $ < i N N p i i i i p C G i O 3 G G G o./ B B B G ^ X.X.X.X.X./ i B ^ R G / X.X.X.X.X.o.:.;.2.-.l & +     @ ; I ;.s.d.p.p.p.p.u.t.^ < c 2.J.n.q.}  . . .'  . . . . .%.r.4.H.~.N.2.{  .R B ",
"c c c c c c z z c c z z c T  .-.;.{ % % % 3 2 2.r...' o.+.^ V i % O       O @ , 3 i p i i V G C %   , G G X.' B B B B / X.X.X.X.X.X.f s / X.G B / X.X.X./ G B s 2 & @ O   + 7 ( :.t.s.s.p.t.r.0.9.,.-.-.G 8 I s.t. . . .' ' } } { ' { '  .} s.!.!.g.*. . . .U B ",
"A c c c c c c c c c c c c I ` *.;.#.8 < % 3 3 -.' / / / / / / / V 5 $ O           + % 1 f G C ,     $ C ~ -.R B B B G / X.X.X.X.X.G i / ^ X.B B G C i < $ O               & g.i.u.t.t.9.+.o.o.o.o.} o.o.B l  .g.*.' '  .' ' '  .{ ' ' '  ./  .q.;. . . . . .T B ",
"R R D c c c c c c c c c c c (  .*.;.z < < 3 z ;./ / / / / / / / / / C < +               @ < 8 , +   + f +.' B B B B B D R / X./ V 8 8 8 5 2 % $ + O       + @ +       O $ l p.p.u.r.t.9.o.o.o.o.o.o.o.' i 5 ;.2. .'  . .'  ./ /  . . . . .G B D )  . . . .( T B ",
"R R I c c c c c c c D I c c I ` } ;.( 3 3 3 -.-./ / / / / / / / / / / V %                   + , @     < ' l h s 8 8 5 3 1 1 < % @ + O         + @ % < 7 R %.:.o.@ + % < 3 -.k.k.t.t.r.:.o.o.o.o.o.o.o.^ < i 9.o. .}  .R R G B B D G G G G B G (  . .( ( U D D B ",
"R R R D D B c c D k  .I c c c T ` #.*.7 3 f q.^ / / / / / / / / / / / / 1   . +                       + @ + + + O O     O         + @ $ % @   3  .%.2.w.y.y.y.0.< + < 1 2.m.l.p.t.t.r.$.o.o.o.o.o.) ' l < ' 2.'  .( G B B B B B B B B B B B D R U G B B B B B B ",
"R R R R R R R R z B { c c c c ( ` ` } z 1 #.2./ / R / R / / / / / / / / 3   @ * @ + $ < < < 1 I c < $ @ @ + + O   O $ @     & s h h c I R c 8 R  .( ` ( (  .:.,.1 + < C S.V.d.t.t.t.2.o.o.o.o.' / D / 1 i y.*. .R B B B B B B B B B B B B B B B B B B B B B B B ",
"R R R R R R R D h -.I c c A U ` ` ` ` U 8 4.) B c c c c D / / / / / / / 2   # * @ < B ( %.2.N._.H.h.w.>.E k r 5 5 7 ( s % @ ( *.%.} } o.o. .R B h h z K K D ' 2.V < 3 r.L.k.u.t.t.r.-.o.) / / R B B s < ;.s.( R B B B B B B B B B B B B B B B B B B B B B B B B ",
"R R R R R R I 7 }  .z c c R U I ( ( ( (  .;.z z z z z c z c R / / / / / <   @ + 5 q.w.4.2.3.e.7.=.&.| W Y K K R R  .{ h 7 z 1. .R I B c z h h h h h c K I B ^ ,./ 1 / S.v.u.t.t.r.,.o.o.R B B B B B 5 5 z.-.D B B B B B B B B B B B B B B B B B B B B B B B B B ",
"R R R R R R 7 V -.G c c c I U c c D c I ` I c c c c c c c c D / / / / / %     $ y.l.9.} E E R K K K K K K K K A K I c h s 0.q.s h w w s h h r s h h A K K B ) :./ 8 t.S.t.r.t.0.:.o.o.' R B B B B B 5 -.l.R B l l B B B B B B B B B B B B B B B B B B B B B B B ",
"R R R R R l i 1.) D c c c c D c c c c c c c s s k 7 h c c c D / / / / B +   + / s.z.2.*.E E Y K K K K K K K K A w < 1 h k q.U r h h h s h s h h h c K K I R ' :./ / F.d.9.0.,.o.o.o.o.) B B B B B B D z.1.C z f s l B B B B B B B B B B B B B B B B B B B B B B ",
"R R R R I 8 :.-./ D c c c c c c c c c c c c 8 8 8 3 8 h c c G / / / / s O < o.,.q.N.y.1.{ E T K K K K K K K K K K 2 < w D } h h h h h h h s h h A K K I A ( o.2./ p.S.9.9.,.o.o.o.o.o.^ B B B B B l 2.l.R f f f s f z B B B B B B B B B B B B B B B B B B B B B ",
"R R R R i  .2.( ( D c c c c c c c c c h s s 3 3 3 3 3 3 s c R / / / ^ 5 $ 9.r.,.2.N.g.2.} E E R K K K K K K K K K r < w I K h h s h h h r r h h A I K D B ( $.2.q.W.i.2.2.o.o.o.o.o.' G B B B B B 8 V  .z f f s s f l B B B B B B B B B B B B B B B B B B B B B ",
"R R R c z 2. .( / D c c c c c c c z s 3 3 3 3 3 3 3 3 3 3 h D / / ^ 2.< 3 r.9.,.1.y.0.-.( T R K K K K K K K K K K A 1 h T A h h h h h h h h h h k K K K D ^ $.2.S.b.<.,.o.o.o.o.o.o.' D B B B B B i f G f f f f s f f C B B B B B B B B B B B B B B B B B B B B ",
"R R I i -.' / / D c c c c c c c k 8 3 3 3 3 3 3 3 3 3 3 3 h c c D  .' + i 2.1.-.' :.:. .E R K K K K K K K K K K K K 5  .} A h h h h w k A h r s s c I I R ' -.r.d.-.o.o.o.o.o.o.) / ) D B B B B B s i C f f f f s f C B B B B B B B B B B B B B B B B B B B B B ",
"R R D o.o./ / D c c c c c c c z 8 3 3 3 3 3 3 3 3 3 3 3 i c c c c z <   B 1.-./ I } { E E R K K K K K K K K K K K K c K R K h h h h z W R c k s h c I / / ' o.$.o.o.o.o.o.o.o. .D B G B B B B B B s i C f f s f f z B B B B D B B B B B B B B B B B B B B B B B ",
"R I -.:./ D D c c c c c c c c h 3 3 3 3 3 3 3 3 3 3 3 3 h c c c c s $ O / 1.' D G ` E E E T K K K K K K K K K K K K K K K K k s h K  .Y K K K k h c D ' o.o.o.o.o.o.o.o.o.o.o./ B B B B B B B B B h 8 z f f f f l B B B D I U D B B B B B B B B B B B B B B B B ",
"D  .-.R D c c c c c c c c c z 8 3 3 3 3 3 3 3 3 3 3 3 s c c c c h 1 O O ( ,./ D D E E E E E R K K K K K K K K K K K K K c h h h K W Y K K K K K c A A / ' o.'  .( ^ X.o.' ' ( D B B B B B B B B B z i z f f f l B B D I E E E D c B B B B B B B B B B B B B B B ",
"R ' c c c c c c c c c c c c s 3 3 3 3 3 3 3 3 3 3 3 3 8 c c c z 3 %   + ( *.D D U E E E E E Y R K K K K K K K K K K K K k h h c K K K K K I K K K K K D ) ' R D B B R ) G D B B B B B B B B B B B C f f f f f C B D R E E E E T I D B B B B B B B B B B B B B B ",
"D c c c c c c c c c c c c h 3 3 3 3 3 3 3 3 3 3 3 3 3 3 h c c c 5 < + + (  .D D U E E E E E E Y K K K K K K K K K K K K K c K K K K K K I D D D D D A D D G B B B B G R B B B B B B B B B B B B B l s f f f z B B B D E E E E E E D B B B B D B B B D D D B B B ",
"c c c c c c c c c c h s h 8 3 3 3 3 3 3 3 3 3 3 3 3 3 3 8 z c c 7 < + + ( ( D D T E E E E E E R K K R I K K K K K K K K K K K K K K K K D B B B c B B B B B B B B B B B B B B B B B B B B B B B z f s s f f z B B B I E E E E E E T D B B D U D D I T E U D B B ",
"c c c c c c c c c s 3 3 3 3 3 3 3 3 3 3 3 3 3 3 3 3 3 3 3 s c c s 1 @ + R ( D G E E E E E E R K K Y T R K K K K K K K K K K K K K K I K I B B B B B B B B B B B B B B B B B B B B B B B B B B B z f s s s f B B B I E E E E E E E E R D D D T E E E E E E D B B ",
"c c c c c c c c z 3 3 3 3 3 3 3 3 3 3 3 3 3 3 3 3 3 3 3 3 h c c c h < @ k / D R E E E E E E E Y Y E E T R R R K K R R K K K K K K K D D B B B B B B B B B B B B B B B B B B B B B B B B B B B B B l f f s z B B I E E E E E E E E E E E E E E E E E E E E U B B ",
"c c c c c c c c h 3 3 3 3 3 3 3 3 3 3 3 3 3 3 3 3 3 3 3 i c c c c c 5 @ 8 D U  .E E E E E W E E E E E E E E E R Y E E T K K K K K D B B B B B B B B B B B B B B B B B B B B B B B B B B B B B B B B B z f C B B D T E E E E E E E E E E E E E E E E E E E T B B ",
"D c c c c c c z 8 3 3 3 3 3 3 3 3 3 3 3 3 3 3 3 3 3 3 s c c c c c R z + & w &.} E E E E E &.@.@.@. .E E E E E E E E E E R K K K K K D D B B B B B B B B B B B B B B B B B B B B B B B B B B B B B B B B B B B B B R E E E E E E E E E E E E E E E E E E E E U R ",
"E I c c c c c z 8 3 3 3 3 3 3 3 3 3 3 3 3 3 3 3 3 3 8 z c c c c c / G + + r ;.E E E E E W &.*.*.*.| E E E E E E E E E E R K K K R Y R I D B B B B B B B B B B B B B B B B B B B B B B B B B B B B B B B B B B B B U E E E E E E E E E E E E E E E E E E E E E E ",
"E Y c c c c c h 8 3 3 3 3 3 3 3 3 3 3 3 3 3 3 3 8 h z c c c c c D ) G +   h &.E E E E E | *.*.*.*.} E E E E E E E E E E Y R K K Y E E T R D B B B B B B B B B B B B B B B B B B B B B B B B B B B B B B B B B B B U E E E E E E E E E E E E E E E E E E E E E E ",
"E T c c c c k 3 3 3 3 3 3 3 3 3 3 3 3 3 3 3 3 3 8 z c c c c c c / X./ @ + w } E E E E ` &.*.*.*.*. .E E E E E E E E E E T R K R E E E E E D B B B B B B B B B B B B B B B B B B B B B B B B B B B B B B B B B B D T E E E E E E E E E E E E E E E E E E E E E E ",
"E T c c c c z 3 3 3 3 3 3 3 3 3 3 3 3 3 3 3 8 s z c c c c c c c ) X./ @ $ r } E E E E E @.*.*.*.*. .E E E E E E E E E E R K K T E E E E E I B B B B B B B B B B B B B B B B B B B B B B B B B B B B B B B B B B D E E E E E E E E E E E E E E E E E E E E E E E ",
"E E I c c c z 8 3 3 3 3 3 3 3 3 3 3 3 3 3 8 z c c c c c c c c c ;.q.) $ @ w @.E E E E W &.*.*.*.*.@.E E E E E E E E E E T R Y E E E E E E U B B B B B B B B B B B B B B B B B B B B B B B B B B B B B B B B B B B U E E E E E E E E E E E E E E E E E E E E E E ",
"E E A c c c c h 3 3 3 3 3 3 3 3 3 3 3 3 3 3 h c c c c c c c c z ( g.2.$ @ 5 >. .E E E W &.*.*.*.*.&.E E E E E E E E E E E E E E E E E E E E D B B B B B B B B B B B B B B B B B B B B B B B B B B B B B B B B B B D E E E E E E E E E E E E E E E W @. .E E E E ",
"E Y c c c c c s 3 3 3 3 3 3 3 3 3 3 3 3 8 s h c c c I c c c c c z ( -.< + 5 6.=.E E E E } *.*.*.*.*. .E E E E E E E E E E E E E E E E E E U B B B B B B B B B B B B B B B B B B B B B B B B B B B B B B B B B B B D E E E E E E E E E E E E E E  .=.&.E E E E E ",
"E R c c c c c k 8 3 3 3 3 3 3 3 3 3 8 h z c c c c A ` R c c c c c z *.5   $ >.6.E E E E } *.*.*.*.*.@.E E E E E E E E E E E U U U E E E E D B B B B B B B B B B B B B B B B B B B B B B B B B B B B B B B B B B D D U E E E E E E E E E E E E E @.} E E E E E E ",
"E A c c c c c z 8 3 3 3 3 3 3 3 3 3 h c c c c c c I ` ( A c c c c c 4.w     % w w k Y E  .*.*.*.*.*.&.E E E E E E E E U G G G G G U U U U D B B B B B B B B B B B B B B B B B B B B B B B B B B B B B B B B B B D U D I E E E E E E E E E E E E E E E E E E E E ",
"E A c c c c c c s 3 3 3 3 8 7 8 3 s c c c c c A I E  .` E E D c c c } 5         O & R E ` &.*.*.*.*.*.@.E E E E U U E G G G G G G G G G G U B B B B B B B B B B B B B B B B B B B B B B B B B B B B B B B B B B B D U D I E E E E E E E E E E E E E E E E E E E ",
"E A c c c c c c z 3 3 3 8 z c h s z c c c c c c (  . . . . .E c c c I 5       % w Y E E E } @.@.@.&.*.&.E E E U U G G G G G G G G G G G ~ ( G B B B B B B B B B B B B B B B B B B B B B B B B B B B B B B B B B B B U R B T E E E E E E E E E E E E E E E E E E ",
"E A c c c c c c c 8 3 3 8 z c c c c c c c c D T E  . . . .` R c c c D r   + c 6.;.A k k R E E E E  .@. .E E U G G G G G G G G G / / / / ) / G z f f l l z z B B B B B B B B B B B B B B B B B B B B B B B B B B B B U U B U E E E E E E E E E E E E E E E E E E ",
"E I c c c c c c c h 8 i h c c c c c c c c c I  . . . .` T A c c c c c I O % r.t. .1 < 8 T E E E E E ` E E E G G G G ~ / / / / / ) ) ' ) ~ z f f f f f f f f l B B B B B B B B B B B B B B B B B B B B B B B B B B B U R B T E E E E E E E E E E E E E E E E E E ",
"E A c c c c c c c c z c c c c c c c c c c c U  . . . .I c c c c k c c U $ + 2.t.} B R ^ / U E E E E E E E U G G G ~ / ) ) ) ) ) ) ) ) ^ G f f f f f f f f f f z B B B B B B B B B B B B B B B B B B B B B B B B B B R U D U E E E E E E E E E E E E E E E E E E ",
"Y c c c c c c c c c c c c c c c c c c c c c R  . . . .U I c c k s z c c % O 2.J.t.:.^ l N V T E E E E E E U G G G / / ) ) ) ) ) ) ) ) / V f f f f f f f f f f z B B B B B B B B B B B B B B B B B B B B B B B B B D T E D B R E E E E E E E E E E E E E E E E E ",
"R c c c c c c c c c c c c c c c c c c c c c R  . . . . .` D c s 7 s s s % + 6.U.' i i i f N G E E U G U G G G G G G ~ / ) ) ) ) ) ) ^ ~ G l f f f f f f f f z B B B B B B B B B B B B B B B B B B B B B B B B B B D T E D B D E E E E E E E E E E E E E E E E E ",
"c c c c c c c c c c c c c c c c c c c c c c E  . . . . . .R D 7 8 8 8 8 % + w.n.i i i i i N N )  .U G G G G G G G G ~ ^ ) ) ) ) ) ) ) / G V f f f f f f f f z B B B B B B B B B B B z z B B B B B B B B B B B B B D E E U D D E E E E E E E E E E E E E E E E E ",
"c c c c c c c c c c c c c c c c c c c c c I  . . . . . . .` z 7 7 8 8 s & @ g.Z.i i i i i i N <.-.G V V V N N V G G G ~ / ^ ) ) ) ) ) ^ G G V C f f f f f f B B B B B B B B B B B z f f l z B B B B B B B B B B B D E E E R I E E E E E E E E E E E E E E E E E ",
"c c c c c c c c c c c c c c c c c c c c I E  . . . . .|  .E s 7 7 7 8 h < @ h.T.p i i i i p p $.2.~ N N N N N N V G G G G ~ / ) ) ) ) ~ G G G C f f f f l z B B B B B B B B B B z f f f f f l C B B B B B B B B B D U E E E E E E E E E E E E E E E E E E E E E ",
"c c c c c c c c c c c c c c c c c c c R `  . . . .&.=.=.@.D 7 7 7 7 8 z < @ h.T.f i i i i p i V / V N N N N N N N G V V V V G / / / ~ G G G V f l C C B B B B B B B B B B B B z f f f f f f f l B B B B B B B B B B D E E E E E U D D D U E E E E E E E E E E E ",
"c c c c c c c c c c c c c c c c c c c R  . . . . .&.>.>.=.A s w 7 7 8 B 1 $ h.C.i p i i i i i N N N N N N N N N N N N N N N N V V G G G V V C f z B B B B B B B B B B B B B B z f f f f f f f f z B B B B B B B B B B U E E E D f f f f f D E E E E E E E E E E ",
"c c c c c c c c c c c c c c c c c c c U  . . . . .&.>.>.>.T k 7 7 7 s I < % z.l.i i i i i i p N N N N N N N N N N N N N N N N N N V V V V N N f f B B B B B B B B B B z z z B l f f f f f f f f z B B B B B B B B B B D R T E z f f f f f f R E E E E E E E E E ",
"c c c c c c c c c c c c c c c c c c c R  . . . . .&.>.>.>.R 7 7 7 8 z I & < n.y.8 p i i p p i N N N N N N N N N N N N N N N N N N N N N N i p f f z B B B B C B B B z f f f l f f f f f f f f f z B B B B B B B B B B B l z D f f f f f f z E E E E E E E E E E ",
"c c c c c c c c c c c c c c c c c c c I  . . . . .*.>.5.&.T D c k 7 c I $ 5 B.2.8 p i p p p i p N N N N N N N N N N N N N N N N N N N 4 3 3 3 i s l B B B z l l z l f f f f f f f f f f f f f f l B B B B B B B B B z l f f f f f f f f f l U E E E E E E E E E ",
"c c c c c c c c c c c c c c c c c c c D `  . . . .} >.>. .} } D s 7 c J $ h V.o.8 p p p p p p i N N N N N N N N N N N N N N N i i N i 3 3 3 3 3 3 s l z z l z f f f f f f f f f f f f f f f f f l B B B B B B B B B z f f f f f f f f f f f R E E E E E E E E E ",
"c c c c c c c c c c c c c c c c c c A E `  . . . .@.>.;.-.-.( z 8 8 c c @ I n.V p p p p p p i p N N N N N N N N N N N N N N 3 3 3 3 3 3 3 3 3 3 3 8 f f f f f f f f f f f f f f f f f f f f f f f B B B B B B B B B z f f f f f f f f f f z E E E E E E E E E E ",
"c c c c c c c c c c c c c c c c c c A `  . . . . .>.2.>.q.;.} o.s 8 z k +  .y.p p p p p i p i N N N N N N N N N N N N N N p 3 3 3 3 3 3 3 3 3 3 3 3 8 f f f f f f f f f f f f f f f f f f f f f f z B B B B B B B B B z f f f f f f f f f I E E E E E E E E E E ",
"c c c c c c c c c c c c c c c c c c A `  . . . . .-.>.>.&. .I ( D 8 h 7 + *.:.p p p p p i p i N N N N N N N N N N N N N N i 3 3 3 3 3 3 3 3 3 3 3 3 3 8 s f f f f f f f f f f f f f f f f f f f f f z B B B B B B B B B f f f f f f f f l T E E E E E E E E E E ",
"c c c c c c c c c c c c c c c c c c I  . . . . . . .| |  .` U I z 7 l 2 @ :.' p i p i i i i p N N N N N N N N N N N N i 3 3 3 3 3 3 3 3 3 3 3 3 3 3 3 3 8 f f f f f f f f f f f f f f f f f f f f f z B B B B B B B B B l f f f f f f f D E E E E E E E E E E E ",
"c c c c c c c c c c c c c c c c c c Y  . . . . . . . . . .( I c s 8 s % @ -.( p i / i i i i N N N N N N N N N N N i 3 3 3 3 3 3 3 3 3 3 3 3 3 3 3 3 3 3 3 8 i f f f f f f f f f f f f f f f f f f f f l l B B B B B B B z f f f f f f f U E E E E E E E E E E E ",
"c c c c c c c c c c c c c c c c c c T  . . . . . . . . .` U D s 8 7 5 @ @ *.( p V q.l i i N N N N N N N N N p p p 3 3 3 3 3 3 3 3 3 3 3 3 3 3 3 3 3 3 3 3 3 8 f f f f f f f f f f f f f f f f f f f f f f z B B B B B z l f f f f f f f z T E E E E E E E E E E ",
"c c c c c c c c c c c c c c c c c c R  . . . . . . . .` U D z 7 8 8 1 @ O ( ' p i V p i p N N N N N N N p 3 3 3 3 3 3 3 3 3 3 3 3 3 3 1 3 3 3 3 3 3 3 3 3 3 3 i f f f f f f f f f f f f f f f f f f f f f z B B B B z f f f f f f f f f f z T E E E E E E E E E ",
"c c c c c c c c c c c c c c c c c c U  . . . . . . . .T D s 8 7 8 3 < @   h o.i p p p p N p p N N p 3 3 3 3 3 3 3 3 3 3 3 3 1 1 1 1 1 , , 1 3 3 3 3 3 3 3 3 3 3 s f f f f f f f f f f f f f f f f f f f f l C B z l f f f f f f f f f f f f D E E E E E E E E D ",
"c c c c c c c c c c c c c c c c c c c U ` `  . . . . .T A w 7 7 5 < < $   1 *.V p p p V ! i i p 3 3 3 3 3 3 3 3 3 3 3 3 1 , , , , , , > > > , 1 1 3 3 3 3 3 3 8 f f f f f f f f f f f f f f f f f f f f f f f l f f f f f f f f f f f f f f z U E E E E E E D f ",
"c c c c c c c c c c c c c c c c c c c c A R `  . . . .E A w 8 8 5 < < %   $ { ) i p i p i i p 3 1 3 3 3 3 3 3 3 3 3 1 , , > > > > > > > > > > > , 1 3 3 3 3 3 3 s f f i i f f f f f f i s f i i f f f f f s s s s f f f f f f f f f f f f f f l B R E E E R z f ",
"c c c c c c c c c c c c c c c c c c c c c E  . . . . .E D w 7 7 5 < < % O + I } f p i i i i 8 3 1 3 3 3 3 3 3 3 3 1 < > > > > > > > > > > > > > > , 1 3 3 3 3 3 3 i i 8 3 i i 3 3 i i 3 3 8 3 3 3 8 i i 8 3 3 3 3 i f f f f f f f f f f f f f f f f B D R R z f ",
"c c c c c c c c c c c c c c c c c c c c c R  . . . . .` U k 8 7 5 < < & + O w  ./ i i p 3 3 3 3 3 3 3 3 3 3 3 3 3 3 1 > > > > > > > > > > > > > > > 1 3 3 3 3 3 3 3 3 3 3 3 3 3 3 3 3 3 3 3 3 3 3 3 3 3 3 3 3 3 3 i f f f f f f f f f f f f f f f f f f f f f f ",
"c c c c c c c c c c c c c c c c c c c c A E  . . . . . .T z 8 8 8 < < < @ O 5 ( *.V 8 1 1 3 3 3 3 3 1 1 1 3 3 3 3 3 1 > > > > > > > > > > > > > > > , 3 3 3 3 3 3 3 3 3 3 3 3 3 3 3 3 3 3 3 3 3 3 3 3 3 3 3 3 3 3 3 i f f f f f f f f f f f f f f f f f f f f f ",
"c c c c c c c c c c c c c c c c c c c c I `  . . . . . .T z 8 8 3 < < < % $ 2  .6. .< < 3 3 3 3 1 , , , 1 1 3 3 3 3 1 > > > > > > > > > > > > > > > , 1 3 3 3 3 3 3 3 3 3 3 3 3 3 3 3 3 3 3 3 3 3 3 3 3 3 3 3 3 3 3 i f f f f f f f f f f f f f f f f f f f f f ",
"c c c c c c c c c c c c c c c c c c c R `  . . . . .` U I k 8 7 5 < < < < & 2 -.4.7 < 3 3 1 1 1 , , , , < < < 1 3 3 < > > > > > > > > > > > > > > > , 1 3 3 3 3 3 3 3 3 3 3 3 3 3 3 3 3 3 3 3 3 3 3 3 3 3 3 3 3 3 3 f f f f f f f f f f f f f f f f f f f f f f ",
"c c c c c c c c c D A c c c c c c c A `  . . . . . .T I I s 7 7 8 1 < < < < 1 =._ 1 B 3 1 < , , , , , , < , , < 1 , , > > > > > > > > > > > > > > > > < 1 1 1 3 3 3 3 3 3 3 3 3 3 3 3 3 3 3 3 3 3 3 3 3 3 3 3 3 3 8 f f f f f f f f f f f f f f f f f f f f f f ",
"c c c c c c c c I E E I c c c c c c T  . . . . . . .E I I s 8 8 7 1 < < < < < s 1 R R 1 < , , , , , , , < , , , 1 1 , , > > > > > > > > > > > > > > > , , > , < < 3 3 3 3 3 3 3 3 3 3 3 3 3 3 3 3 3 3 3 3 3 3 3 i f f f f f f f f f f f f f f f f f f f f f f f ",
"c c c c c c c c R E E T c c c c c c E  . . . . . . .` I I h 8 8 7 5 < < < < < & s -.8 1 , , , , , , , , , , , , < 1 1 1 < , > > > > > > > > > > > > > > > > > > > < 3 3 3 3 3 3 3 3 3 3 3 3 3 3 3 3 3 3 3 3 3 3 f f f f f f f f f f f f f f f f f f f f f f f f ",
"c c c c c c c A T E E E A c c c c c E  . . . . . . .` I I A w w 8 8 < < < < < 1 -./ 1 1 < < , , , , , , , , , , , 1 3 3 3 1 < > > > > > > > > > > > > > > > > > > , 1 3 3 3 3 3 3 3 3 3 3 3 3 3 3 3 3 3 3 3 3 3 i f f f f f f f f f f f f f f f f f f f f f f f ",
"c c c c c c c I E E E T c c c c c I  . . . . . . . .` R I I k 8 7 8 3 < < < < i 1.f 1 3 3 1 1 1 1 1 < , , , , , , < 3 3 3 3 3 < > > > > > > > > > > > > > > > > > > , 1 3 3 3 3 3 3 3 3 3 3 3 3 3 3 3 3 3 3 3 3 i f f f f f f f f f f f f f f f f f f f f f f f ",
"c c c c c c c I E E E T I c c c c T  . . . . . . . . .E I I A w 7 7 5 < < < < 5 :.l 1 3 3 3 3 3 3 3 1 , , , , , , , 1 3 3 3 3 1 < > > > > > > > > > > > > > > > > > > , 1 3 3 3 3 3 3 3 3 3 3 3 3 3 3 3 3 3 3 3 i f f f f f f f f f f f f f f f f f f f f f f f ",
"c c c c c c c A T E E T A c c c c E  . . . . . . . . .E I I D z s 8 8 < < < < 1 -.G 1 3 3 3 3 3 3 3 3 3 1 < , , , , 1 3 3 3 3 3 1 , > > > > > > > > > > > > > > > > > > 1 3 3 3 3 3 3 3 3 3 3 3 3 3 3 3 3 3 3 3 i f f f f f f f f f f f f f f f f f f f f f f f ",
"c c c c c c c c A T E U c c c c I `  . . . . . . . . .` R I I I s 7 7 1 < < < < *.) 3 3 3 3 3 3 3 3 3 3 3 1 , , , 1 3 3 3 3 3 3 1 , > > > > > > > > > > > > > > > > > > , 3 3 3 3 3 3 3 3 3 3 3 3 3 3 3 3 3 3 i f f f f f f f f f f f f f f f f f f f f f f f f "
};
